(G-CODE GENERATED BY FLATCAM v8.994 - www.flatcam.org - Version Date: 2020/11/7)

(Name: profile.gbr_edit_iso_combined_cnc)
(Type: G-code from Geometry)
(Units: MM)

(Created on Friday, 07 April 2023 at 16:04)

(This preprocessor is the default preprocessor used by FlatCAM.)
(It is made to work with MACH3 compatible motion controllers.)

(TOOL DIAMETER: 3.175 mm)
(Feedrate_XY: 6.0 mm/min)
(Feedrate_Z: 10.0 mm/min)
(Feedrate rapids 1500.0 mm/min)

(Z_Cut: -1.9 mm)
(DepthPerCut: 0.8 mm <=>3 passes)
(Z_Move: 5.0 mm)
(Z Start: None mm)
(Z End: 15.0 mm)
(X,Y End: None mm)
(Steps per circle: 64)
(Preprocessor Geometry: default)

(X range:  -18.4838 ...   18.4546  mm)
(Y range:  -12.8546 ...   13.4610  mm)

(Spindle Speed: 0.0 RPM)
G21
G90
G94

G01 F6.00

M5
G00 Z15.0000
G00 X0.0000 Y0.0000
T2
M6    
(MSG, Change to Tool Dia = 3.1750)
M0
G00 Z15.0000

M03
G01 F6.00
G00 X2.5354 Y-0.0523
G01 F10.00
G01 Z-0.8000
G01 F6.00
G01 X2.5311 Y-0.1570
G01 X2.5224 Y-0.2618
G01 X2.5094 Y-0.3659
G01 X2.4923 Y-0.4690
G01 X2.4707 Y-0.5716
G01 X2.4449 Y-0.6735
G01 X2.4151 Y-0.7737
G01 X2.3812 Y-0.8726
G01 X2.3430 Y-0.9703
G01 X2.3008 Y-1.0666
G01 X2.2547 Y-1.1608
G01 X2.2050 Y-1.2527
G01 X2.1513 Y-1.3428
G01 X2.0939 Y-1.4307
G01 X2.0331 Y-1.5159
G01 X1.9687 Y-1.5985
G01 X1.9008 Y-1.6786
G01 X1.8298 Y-1.7559
G01 X1.7559 Y-1.8298
G01 X1.6786 Y-1.9008
G01 X1.5985 Y-1.9687
G01 X1.5159 Y-2.0331
G01 X1.4307 Y-2.0939
G01 X1.3428 Y-2.1513
G01 X1.2527 Y-2.2050
G01 X1.1608 Y-2.2547
G01 X1.0666 Y-2.3008
G01 X0.9703 Y-2.3430
G01 X0.8726 Y-2.3812
G01 X0.7737 Y-2.4151
G01 X0.6735 Y-2.4449
G01 X0.5716 Y-2.4707
G01 X0.4690 Y-2.4923
G01 X0.3659 Y-2.5094
G01 X0.2618 Y-2.5224
G01 X0.1570 Y-2.5311
G01 X0.0523 Y-2.5354
G01 X-0.0523 Y-2.5354
G01 X-0.1570 Y-2.5311
G01 X-0.2618 Y-2.5224
G01 X-0.3659 Y-2.5094
G01 X-0.4690 Y-2.4923
G01 X-0.5716 Y-2.4707
G01 X-0.6735 Y-2.4449
G01 X-0.7737 Y-2.4151
G01 X-0.8726 Y-2.3812
G01 X-0.9703 Y-2.3430
G01 X-1.0666 Y-2.3008
G01 X-1.1608 Y-2.2547
G01 X-1.2527 Y-2.2050
G01 X-1.3428 Y-2.1513
G01 X-1.4307 Y-2.0939
G01 X-1.5159 Y-2.0331
G01 X-1.5985 Y-1.9687
G01 X-1.6786 Y-1.9008
G01 X-1.7559 Y-1.8298
G01 X-1.8298 Y-1.7559
G01 X-1.9008 Y-1.6786
G01 X-1.9687 Y-1.5985
G01 X-2.0331 Y-1.5159
G01 X-2.0939 Y-1.4307
G01 X-2.1513 Y-1.3428
G01 X-2.2050 Y-1.2527
G01 X-2.2547 Y-1.1608
G01 X-2.3008 Y-1.0666
G01 X-2.3430 Y-0.9703
G01 X-2.3812 Y-0.8726
G01 X-2.4151 Y-0.7737
G01 X-2.4449 Y-0.6735
G01 X-2.4707 Y-0.5716
G01 X-2.4923 Y-0.4690
G01 X-2.5094 Y-0.3659
G01 X-2.5224 Y-0.2618
G01 X-2.5311 Y-0.1570
G01 X-2.5354 Y-0.0523
G01 X-2.5354 Y0.0523
G01 X-2.5311 Y0.1570
G01 X-2.5224 Y0.2618
G01 X-2.5094 Y0.3659
G01 X-2.4923 Y0.4690
G01 X-2.4707 Y0.5716
G01 X-2.4449 Y0.6735
G01 X-2.4151 Y0.7737
G01 X-2.3812 Y0.8726
G01 X-2.3430 Y0.9703
G01 X-2.3008 Y1.0666
G01 X-2.2547 Y1.1608
G01 X-2.2050 Y1.2527
G01 X-2.1513 Y1.3428
G01 X-2.0939 Y1.4307
G01 X-2.0331 Y1.5159
G01 X-1.9687 Y1.5985
G01 X-1.9008 Y1.6786
G01 X-1.8298 Y1.7559
G01 X-1.7559 Y1.8298
G01 X-1.6786 Y1.9008
G01 X-1.5985 Y1.9687
G01 X-1.5159 Y2.0331
G01 X-1.4307 Y2.0939
G01 X-1.3428 Y2.1513
G01 X-1.2527 Y2.2050
G01 X-1.1608 Y2.2547
G01 X-1.0666 Y2.3008
G01 X-0.9703 Y2.3430
G01 X-0.8726 Y2.3812
G01 X-0.7737 Y2.4151
G01 X-0.6735 Y2.4449
G01 X-0.5716 Y2.4707
G01 X-0.4690 Y2.4923
G01 X-0.3659 Y2.5094
G01 X-0.2618 Y2.5224
G01 X-0.1570 Y2.5311
G01 X-0.0523 Y2.5354
G01 X0.0523 Y2.5354
G01 X0.1570 Y2.5311
G01 X0.2618 Y2.5224
G01 X0.3659 Y2.5094
G01 X0.4690 Y2.4923
G01 X0.5716 Y2.4707
G01 X0.6735 Y2.4449
G01 X0.7737 Y2.4151
G01 X0.8726 Y2.3812
G01 X0.9703 Y2.3430
G01 X1.0666 Y2.3008
G01 X1.1608 Y2.2547
G01 X1.2527 Y2.2050
G01 X1.3428 Y2.1513
G01 X1.4307 Y2.0939
G01 X1.5159 Y2.0331
G01 X1.5985 Y1.9687
G01 X1.6786 Y1.9008
G01 X1.7559 Y1.8298
G01 X1.8298 Y1.7559
G01 X1.9008 Y1.6786
G01 X1.9687 Y1.5985
G01 X2.0331 Y1.5159
G01 X2.0939 Y1.4307
G01 X2.1513 Y1.3428
G01 X2.2050 Y1.2527
G01 X2.2547 Y1.1608
G01 X2.3008 Y1.0666
G01 X2.3430 Y0.9703
G01 X2.3812 Y0.8726
G01 X2.4151 Y0.7737
G01 X2.4449 Y0.6735
G01 X2.4707 Y0.5716
G01 X2.4923 Y0.4690
G01 X2.5094 Y0.3659
G01 X2.5224 Y0.2618
G01 X2.5311 Y0.1570
G01 X2.5354 Y0.0523
G01 X2.5354 Y-0.0523
G00 X2.5354 Y-0.0523
G01 F10.00
G01 Z-1.6000
G01 F6.00
G01 X2.5311 Y-0.1570
G01 X2.5224 Y-0.2618
G01 X2.5094 Y-0.3659
G01 X2.4923 Y-0.4690
G01 X2.4707 Y-0.5716
G01 X2.4449 Y-0.6735
G01 X2.4151 Y-0.7737
G01 X2.3812 Y-0.8726
G01 X2.3430 Y-0.9703
G01 X2.3008 Y-1.0666
G01 X2.2547 Y-1.1608
G01 X2.2050 Y-1.2527
G01 X2.1513 Y-1.3428
G01 X2.0939 Y-1.4307
G01 X2.0331 Y-1.5159
G01 X1.9687 Y-1.5985
G01 X1.9008 Y-1.6786
G01 X1.8298 Y-1.7559
G01 X1.7559 Y-1.8298
G01 X1.6786 Y-1.9008
G01 X1.5985 Y-1.9687
G01 X1.5159 Y-2.0331
G01 X1.4307 Y-2.0939
G01 X1.3428 Y-2.1513
G01 X1.2527 Y-2.2050
G01 X1.1608 Y-2.2547
G01 X1.0666 Y-2.3008
G01 X0.9703 Y-2.3430
G01 X0.8726 Y-2.3812
G01 X0.7737 Y-2.4151
G01 X0.6735 Y-2.4449
G01 X0.5716 Y-2.4707
G01 X0.4690 Y-2.4923
G01 X0.3659 Y-2.5094
G01 X0.2618 Y-2.5224
G01 X0.1570 Y-2.5311
G01 X0.0523 Y-2.5354
G01 X-0.0523 Y-2.5354
G01 X-0.1570 Y-2.5311
G01 X-0.2618 Y-2.5224
G01 X-0.3659 Y-2.5094
G01 X-0.4690 Y-2.4923
G01 X-0.5716 Y-2.4707
G01 X-0.6735 Y-2.4449
G01 X-0.7737 Y-2.4151
G01 X-0.8726 Y-2.3812
G01 X-0.9703 Y-2.3430
G01 X-1.0666 Y-2.3008
G01 X-1.1608 Y-2.2547
G01 X-1.2527 Y-2.2050
G01 X-1.3428 Y-2.1513
G01 X-1.4307 Y-2.0939
G01 X-1.5159 Y-2.0331
G01 X-1.5985 Y-1.9687
G01 X-1.6786 Y-1.9008
G01 X-1.7559 Y-1.8298
G01 X-1.8298 Y-1.7559
G01 X-1.9008 Y-1.6786
G01 X-1.9687 Y-1.5985
G01 X-2.0331 Y-1.5159
G01 X-2.0939 Y-1.4307
G01 X-2.1513 Y-1.3428
G01 X-2.2050 Y-1.2527
G01 X-2.2547 Y-1.1608
G01 X-2.3008 Y-1.0666
G01 X-2.3430 Y-0.9703
G01 X-2.3812 Y-0.8726
G01 X-2.4151 Y-0.7737
G01 X-2.4449 Y-0.6735
G01 X-2.4707 Y-0.5716
G01 X-2.4923 Y-0.4690
G01 X-2.5094 Y-0.3659
G01 X-2.5224 Y-0.2618
G01 X-2.5311 Y-0.1570
G01 X-2.5354 Y-0.0523
G01 X-2.5354 Y0.0523
G01 X-2.5311 Y0.1570
G01 X-2.5224 Y0.2618
G01 X-2.5094 Y0.3659
G01 X-2.4923 Y0.4690
G01 X-2.4707 Y0.5716
G01 X-2.4449 Y0.6735
G01 X-2.4151 Y0.7737
G01 X-2.3812 Y0.8726
G01 X-2.3430 Y0.9703
G01 X-2.3008 Y1.0666
G01 X-2.2547 Y1.1608
G01 X-2.2050 Y1.2527
G01 X-2.1513 Y1.3428
G01 X-2.0939 Y1.4307
G01 X-2.0331 Y1.5159
G01 X-1.9687 Y1.5985
G01 X-1.9008 Y1.6786
G01 X-1.8298 Y1.7559
G01 X-1.7559 Y1.8298
G01 X-1.6786 Y1.9008
G01 X-1.5985 Y1.9687
G01 X-1.5159 Y2.0331
G01 X-1.4307 Y2.0939
G01 X-1.3428 Y2.1513
G01 X-1.2527 Y2.2050
G01 X-1.1608 Y2.2547
G01 X-1.0666 Y2.3008
G01 X-0.9703 Y2.3430
G01 X-0.8726 Y2.3812
G01 X-0.7737 Y2.4151
G01 X-0.6735 Y2.4449
G01 X-0.5716 Y2.4707
G01 X-0.4690 Y2.4923
G01 X-0.3659 Y2.5094
G01 X-0.2618 Y2.5224
G01 X-0.1570 Y2.5311
G01 X-0.0523 Y2.5354
G01 X0.0523 Y2.5354
G01 X0.1570 Y2.5311
G01 X0.2618 Y2.5224
G01 X0.3659 Y2.5094
G01 X0.4690 Y2.4923
G01 X0.5716 Y2.4707
G01 X0.6735 Y2.4449
G01 X0.7737 Y2.4151
G01 X0.8726 Y2.3812
G01 X0.9703 Y2.3430
G01 X1.0666 Y2.3008
G01 X1.1608 Y2.2547
G01 X1.2527 Y2.2050
G01 X1.3428 Y2.1513
G01 X1.4307 Y2.0939
G01 X1.5159 Y2.0331
G01 X1.5985 Y1.9687
G01 X1.6786 Y1.9008
G01 X1.7559 Y1.8298
G01 X1.8298 Y1.7559
G01 X1.9008 Y1.6786
G01 X1.9687 Y1.5985
G01 X2.0331 Y1.5159
G01 X2.0939 Y1.4307
G01 X2.1513 Y1.3428
G01 X2.2050 Y1.2527
G01 X2.2547 Y1.1608
G01 X2.3008 Y1.0666
G01 X2.3430 Y0.9703
G01 X2.3812 Y0.8726
G01 X2.4151 Y0.7737
G01 X2.4449 Y0.6735
G01 X2.4707 Y0.5716
G01 X2.4923 Y0.4690
G01 X2.5094 Y0.3659
G01 X2.5224 Y0.2618
G01 X2.5311 Y0.1570
G01 X2.5354 Y0.0523
G01 X2.5354 Y-0.0523
G00 X2.5354 Y-0.0523
G01 F10.00
G01 Z-1.9000
G01 F6.00
G01 X2.5311 Y-0.1570
G01 X2.5224 Y-0.2618
G01 X2.5094 Y-0.3659
G01 X2.4923 Y-0.4690
G01 X2.4707 Y-0.5716
G01 X2.4449 Y-0.6735
G01 X2.4151 Y-0.7737
G01 X2.3812 Y-0.8726
G01 X2.3430 Y-0.9703
G01 X2.3008 Y-1.0666
G01 X2.2547 Y-1.1608
G01 X2.2050 Y-1.2527
G01 X2.1513 Y-1.3428
G01 X2.0939 Y-1.4307
G01 X2.0331 Y-1.5159
G01 X1.9687 Y-1.5985
G01 X1.9008 Y-1.6786
G01 X1.8298 Y-1.7559
G01 X1.7559 Y-1.8298
G01 X1.6786 Y-1.9008
G01 X1.5985 Y-1.9687
G01 X1.5159 Y-2.0331
G01 X1.4307 Y-2.0939
G01 X1.3428 Y-2.1513
G01 X1.2527 Y-2.2050
G01 X1.1608 Y-2.2547
G01 X1.0666 Y-2.3008
G01 X0.9703 Y-2.3430
G01 X0.8726 Y-2.3812
G01 X0.7737 Y-2.4151
G01 X0.6735 Y-2.4449
G01 X0.5716 Y-2.4707
G01 X0.4690 Y-2.4923
G01 X0.3659 Y-2.5094
G01 X0.2618 Y-2.5224
G01 X0.1570 Y-2.5311
G01 X0.0523 Y-2.5354
G01 X-0.0523 Y-2.5354
G01 X-0.1570 Y-2.5311
G01 X-0.2618 Y-2.5224
G01 X-0.3659 Y-2.5094
G01 X-0.4690 Y-2.4923
G01 X-0.5716 Y-2.4707
G01 X-0.6735 Y-2.4449
G01 X-0.7737 Y-2.4151
G01 X-0.8726 Y-2.3812
G01 X-0.9703 Y-2.3430
G01 X-1.0666 Y-2.3008
G01 X-1.1608 Y-2.2547
G01 X-1.2527 Y-2.2050
G01 X-1.3428 Y-2.1513
G01 X-1.4307 Y-2.0939
G01 X-1.5159 Y-2.0331
G01 X-1.5985 Y-1.9687
G01 X-1.6786 Y-1.9008
G01 X-1.7559 Y-1.8298
G01 X-1.8298 Y-1.7559
G01 X-1.9008 Y-1.6786
G01 X-1.9687 Y-1.5985
G01 X-2.0331 Y-1.5159
G01 X-2.0939 Y-1.4307
G01 X-2.1513 Y-1.3428
G01 X-2.2050 Y-1.2527
G01 X-2.2547 Y-1.1608
G01 X-2.3008 Y-1.0666
G01 X-2.3430 Y-0.9703
G01 X-2.3812 Y-0.8726
G01 X-2.4151 Y-0.7737
G01 X-2.4449 Y-0.6735
G01 X-2.4707 Y-0.5716
G01 X-2.4923 Y-0.4690
G01 X-2.5094 Y-0.3659
G01 X-2.5224 Y-0.2618
G01 X-2.5311 Y-0.1570
G01 X-2.5354 Y-0.0523
G01 X-2.5354 Y0.0523
G01 X-2.5311 Y0.1570
G01 X-2.5224 Y0.2618
G01 X-2.5094 Y0.3659
G01 X-2.4923 Y0.4690
G01 X-2.4707 Y0.5716
G01 X-2.4449 Y0.6735
G01 X-2.4151 Y0.7737
G01 X-2.3812 Y0.8726
G01 X-2.3430 Y0.9703
G01 X-2.3008 Y1.0666
G01 X-2.2547 Y1.1608
G01 X-2.2050 Y1.2527
G01 X-2.1513 Y1.3428
G01 X-2.0939 Y1.4307
G01 X-2.0331 Y1.5159
G01 X-1.9687 Y1.5985
G01 X-1.9008 Y1.6786
G01 X-1.8298 Y1.7559
G01 X-1.7559 Y1.8298
G01 X-1.6786 Y1.9008
G01 X-1.5985 Y1.9687
G01 X-1.5159 Y2.0331
G01 X-1.4307 Y2.0939
G01 X-1.3428 Y2.1513
G01 X-1.2527 Y2.2050
G01 X-1.1608 Y2.2547
G01 X-1.0666 Y2.3008
G01 X-0.9703 Y2.3430
G01 X-0.8726 Y2.3812
G01 X-0.7737 Y2.4151
G01 X-0.6735 Y2.4449
G01 X-0.5716 Y2.4707
G01 X-0.4690 Y2.4923
G01 X-0.3659 Y2.5094
G01 X-0.2618 Y2.5224
G01 X-0.1570 Y2.5311
G01 X-0.0523 Y2.5354
G01 X0.0523 Y2.5354
G01 X0.1570 Y2.5311
G01 X0.2618 Y2.5224
G01 X0.3659 Y2.5094
G01 X0.4690 Y2.4923
G01 X0.5716 Y2.4707
G01 X0.6735 Y2.4449
G01 X0.7737 Y2.4151
G01 X0.8726 Y2.3812
G01 X0.9703 Y2.3430
G01 X1.0666 Y2.3008
G01 X1.1608 Y2.2547
G01 X1.2527 Y2.2050
G01 X1.3428 Y2.1513
G01 X1.4307 Y2.0939
G01 X1.5159 Y2.0331
G01 X1.5985 Y1.9687
G01 X1.6786 Y1.9008
G01 X1.7559 Y1.8298
G01 X1.8298 Y1.7559
G01 X1.9008 Y1.6786
G01 X1.9687 Y1.5985
G01 X2.0331 Y1.5159
G01 X2.0939 Y1.4307
G01 X2.1513 Y1.3428
G01 X2.2050 Y1.2527
G01 X2.2547 Y1.1608
G01 X2.3008 Y1.0666
G01 X2.3430 Y0.9703
G01 X2.3812 Y0.8726
G01 X2.4151 Y0.7737
G01 X2.4449 Y0.6735
G01 X2.4707 Y0.5716
G01 X2.4923 Y0.4690
G01 X2.5094 Y0.3659
G01 X2.5224 Y0.2618
G01 X2.5311 Y0.1570
G01 X2.5354 Y0.0523
G01 X2.5354 Y-0.0523
G00 Z5.0000
G00 X-18.4727 Y-11.2179
G01 F10.00
G01 Z-0.8000
G01 F6.00
G01 X-18.4697 Y-11.2692
G01 X-18.4663 Y-11.3081
G01 X-18.4620 Y-11.3468
G01 X-18.4549 Y-11.3977
G01 X-18.4487 Y-11.4362
G01 X-18.4416 Y-11.4745
G01 X-18.4335 Y-11.5126
G01 X-18.4215 Y-11.5626
G01 X-18.4116 Y-11.6003
G01 X-18.4007 Y-11.6377
G01 X-18.3890 Y-11.6749
G01 X-18.3763 Y-11.7117
G01 X-18.3585 Y-11.7600
G01 X-18.3441 Y-11.7961
G01 X-18.3287 Y-11.8319
G01 X-18.3071 Y-11.8786
G01 X-18.2901 Y-11.9137
G01 X-18.2721 Y-11.9482
G01 X-18.2533 Y-11.9824
G01 X-18.2337 Y-12.0160
G01 X-18.2069 Y-12.0599
G01 X-18.1856 Y-12.0926
G01 X-18.1636 Y-12.1247
G01 X-18.1407 Y-12.1563
G01 X-18.1097 Y-12.1973
G01 X-18.0854 Y-12.2277
G01 X-18.0603 Y-12.2575
G01 X-18.0345 Y-12.2867
G01 X-17.9996 Y-12.3245
G01 X-17.9724 Y-12.3524
G01 X-17.9445 Y-12.3796
G01 X-17.9067 Y-12.4145
G01 X-17.8775 Y-12.4403
G01 X-17.8477 Y-12.4654
G01 X-17.8173 Y-12.4897
G01 X-17.7763 Y-12.5207
G01 X-17.7447 Y-12.5436
G01 X-17.7126 Y-12.5656
G01 X-17.6799 Y-12.5869
G01 X-17.6467 Y-12.6073
G01 X-17.6024 Y-12.6333
G01 X-17.5682 Y-12.6521
G01 X-17.5337 Y-12.6701
G01 X-17.4986 Y-12.6871
G01 X-17.4519 Y-12.7087
G01 X-17.4161 Y-12.7240
G01 X-17.3800 Y-12.7385
G01 X-17.3317 Y-12.7563
G01 X-17.2949 Y-12.7690
G01 X-17.2577 Y-12.7807
G01 X-17.2203 Y-12.7916
G01 X-17.1705 Y-12.8045
G01 X-17.1326 Y-12.8135
G01 X-17.0945 Y-12.8216
G01 X-17.0562 Y-12.8288
G01 X-17.0177 Y-12.8349
G01 X-16.9668 Y-12.8420
G01 X-16.9281 Y-12.8463
G01 X-16.8892 Y-12.8497
G01 X-16.8379 Y-12.8527
G01 X-16.7990 Y-12.8541
G01 X-16.7600 Y-12.8546
G01 X16.7400 Y-12.8546
G01 X16.7790 Y-12.8541
G01 X16.8303 Y-12.8520
G01 X16.8692 Y-12.8497
G01 X16.9081 Y-12.8463
G01 X16.9468 Y-12.8420
G01 X16.9977 Y-12.8349
G01 X17.0362 Y-12.8288
G01 X17.0745 Y-12.8216
G01 X17.1126 Y-12.8135
G01 X17.1505 Y-12.8045
G01 X17.2003 Y-12.7916
G01 X17.2377 Y-12.7807
G01 X17.2749 Y-12.7690
G01 X17.3234 Y-12.7521
G01 X17.3600 Y-12.7385
G01 X17.3961 Y-12.7240
G01 X17.4319 Y-12.7087
G01 X17.4786 Y-12.6871
G01 X17.5137 Y-12.6701
G01 X17.5482 Y-12.6521
G01 X17.5824 Y-12.6333
G01 X17.6160 Y-12.6137
G01 X17.6599 Y-12.5869
G01 X17.6926 Y-12.5656
G01 X17.7247 Y-12.5436
G01 X17.7663 Y-12.5133
G01 X17.7973 Y-12.4897
G01 X17.8277 Y-12.4654
G01 X17.8575 Y-12.4403
G01 X17.8867 Y-12.4145
G01 X17.9245 Y-12.3796
G01 X17.9524 Y-12.3524
G01 X17.9796 Y-12.3245
G01 X18.0145 Y-12.2867
G01 X18.0403 Y-12.2575
G01 X18.0654 Y-12.2277
G01 X18.0897 Y-12.1973
G01 X18.1133 Y-12.1663
G01 X18.1436 Y-12.1247
G01 X18.1656 Y-12.0926
G01 X18.1869 Y-12.0599
G01 X18.2137 Y-12.0160
G01 X18.2333 Y-11.9824
G01 X18.2521 Y-11.9482
G01 X18.2701 Y-11.9137
G01 X18.2871 Y-11.8786
G01 X18.3087 Y-11.8319
G01 X18.3241 Y-11.7961
G01 X18.3385 Y-11.7600
G01 X18.3563 Y-11.7117
G01 X18.3690 Y-11.6749
G01 X18.3807 Y-11.6377
G01 X18.3916 Y-11.6003
G01 X18.4015 Y-11.5626
G01 X18.4135 Y-11.5126
G01 X18.4216 Y-11.4745
G01 X18.4287 Y-11.4362
G01 X18.4368 Y-11.3854
G01 X18.4420 Y-11.3468
G01 X18.4463 Y-11.3081
G01 X18.4497 Y-11.2692
G01 X18.4527 Y-11.2179
G01 X18.4541 Y-11.1790
G01 X18.4546 Y-11.1400
G01 X18.4546 Y-4.1200
G01 X18.4542 Y-4.0876
G01 X18.4532 Y-4.0552
G01 X18.4512 Y-4.0124
G01 X18.4488 Y-3.9801
G01 X18.4459 Y-3.9478
G01 X18.4410 Y-3.9053
G01 X18.4367 Y-3.8732
G01 X18.4317 Y-3.8412
G01 X18.3944 Y-3.6149
G01 X18.3896 Y-3.5871
G01 X18.3825 Y-3.5505
G01 X18.3767 Y-3.5229
G01 X18.3704 Y-3.4954
G01 X18.2853 Y-3.1391
G01 X18.2768 Y-3.1055
G01 X18.2677 Y-3.0721
G01 X18.2548 Y-3.0283
G01 X18.2442 Y-2.9953
G01 X18.1284 Y-2.6478
G01 X18.1171 Y-2.6151
G01 X18.1011 Y-2.5722
G01 X18.0884 Y-2.5399
G01 X18.0749 Y-2.5080
G01 X17.9292 Y-2.1719
G01 X17.9151 Y-2.1402
G01 X17.9003 Y-2.1090
G01 X17.8800 Y-2.0681
G01 X17.8638 Y-2.0374
G01 X17.6894 Y-1.7153
G01 X17.6726 Y-1.6851
G01 X17.6552 Y-1.6552
G01 X17.6314 Y-1.6162
G01 X17.6126 Y-1.5871
G01 X17.4108 Y-1.2814
G01 X17.3914 Y-1.2527
G01 X17.3713 Y-1.2244
G01 X17.3442 Y-1.1875
G01 X17.3229 Y-1.1601
G01 X17.0952 Y-0.8732
G01 X17.0735 Y-0.8464
G01 X17.0439 Y-0.8118
G01 X17.0210 Y-0.7860
G01 X16.9976 Y-0.7606
G01 X16.7458 Y-0.4945
G01 X16.7216 Y-0.4695
G01 X16.6969 Y-0.4451
G01 X16.6636 Y-0.4134
G01 X16.6378 Y-0.3900
G01 X16.3637 Y-0.1470
G01 X16.3376 Y-0.1244
G01 X16.3109 Y-0.1023
G01 X16.2752 Y-0.0738
G01 X16.2477 Y-0.0529
G01 X15.9535 Y0.1653
G01 X15.9255 Y0.1856
G01 X15.8879 Y0.2115
G01 X15.8591 Y0.2306
G01 X15.8298 Y0.2490
G01 X15.7284 Y0.3113
G01 X15.4201 Y0.6536
G01 X13.6170 Y2.8899
G01 X12.0313 Y5.2516
G01 X10.6214 Y7.8080
G01 X10.6027 Y7.8410
G01 X10.5832 Y7.8735
G01 X10.5566 Y7.9158
G01 X10.5356 Y7.9473
G01 X10.4853 Y8.0209
G01 X10.4486 Y8.0713
G01 X9.8766 Y8.8288
G01 X9.8554 Y8.8562
G01 X9.8336 Y8.8832
G01 X9.8042 Y8.9182
G01 X9.7813 Y8.9441
G01 X9.1455 Y9.6488
G01 X9.1221 Y9.6743
G01 X9.0903 Y9.7071
G01 X9.0658 Y9.7314
G01 X9.0407 Y9.7553
G01 X8.3460 Y10.4020
G01 X8.3204 Y10.4253
G01 X8.2942 Y10.4481
G01 X8.2591 Y10.4776
G01 X8.2320 Y10.4992
G01 X7.4834 Y11.0828
G01 X7.4559 Y11.1038
G01 X7.4279 Y11.1241
G01 X7.3905 Y11.1503
G01 X7.3617 Y11.1694
G01 X6.5652 Y11.6856
G01 X6.5359 Y11.7042
G01 X6.4967 Y11.7276
G01 X6.4666 Y11.7449
G01 X6.4362 Y11.7614
G01 X5.5977 Y12.2062
G01 X5.5669 Y12.2221
G01 X5.5258 Y12.2421
G01 X5.4944 Y12.2567
G01 X5.4626 Y12.2705
G01 X4.5886 Y12.6405
G01 X4.5566 Y12.6537
G01 X4.5242 Y12.6661
G01 X4.4812 Y12.6817
G01 X4.4484 Y12.6928
G01 X3.5454 Y12.9852
G01 X3.5124 Y12.9955
G01 X3.4685 Y13.0080
G01 X3.4351 Y13.0168
G01 X3.4014 Y13.0250
G01 X2.4764 Y13.2377
G01 X2.4426 Y13.2451
G01 X2.4085 Y13.2517
G01 X2.3635 Y13.2596
G01 X2.3292 Y13.2648
G01 X1.3891 Y13.3960
G01 X1.3547 Y13.4004
G01 X1.3202 Y13.4041
G01 X1.2747 Y13.4080
G01 X1.2401 Y13.4102
G01 X0.2922 Y13.4589
G01 X0.2576 Y13.4603
G01 X0.2120 Y13.4610
G01 X0.1774 Y13.4609
G01 X0.1428 Y13.4601
G01 X-0.8057 Y13.4261
G01 X-0.8403 Y13.4244
G01 X-0.8860 Y13.4212
G01 X-0.9205 Y13.4181
G01 X-0.9549 Y13.4142
G01 X-1.8969 Y13.2976
G01 X-1.9312 Y13.2930
G01 X-1.9763 Y13.2857
G01 X-2.0104 Y13.2796
G01 X-2.0443 Y13.2728
G01 X-2.9725 Y13.0746
G01 X-3.0063 Y13.0670
G01 X-3.0507 Y13.0558
G01 X-3.0842 Y13.0468
G01 X-3.1174 Y13.0369
G01 X-4.0248 Y12.7585
G01 X-4.0578 Y12.7480
G01 X-4.0905 Y12.7368
G01 X-4.1335 Y12.7211
G01 X-4.1657 Y12.7085
G01 X-5.0454 Y12.3521
G01 X-5.0774 Y12.3388
G01 X-5.1090 Y12.3247
G01 X-5.1504 Y12.3054
G01 X-5.1814 Y12.2900
G01 X-6.0267 Y11.8583
G01 X-6.0574 Y11.8421
G01 X-6.0878 Y11.8254
G01 X-6.1274 Y11.8025
G01 X-6.1570 Y11.7844
G01 X-6.9614 Y11.2806
G01 X-6.9905 Y11.2619
G01 X-7.0192 Y11.2426
G01 X-7.0566 Y11.2164
G01 X-7.0844 Y11.1959
G01 X-7.8419 Y10.6240
G01 X-7.8693 Y10.6028
G01 X-7.8963 Y10.5810
G01 X-7.9314 Y10.5516
G01 X-7.9573 Y10.5286
G01 X-8.6620 Y9.8928
G01 X-8.6875 Y9.8693
G01 X-8.7124 Y9.8453
G01 X-8.7447 Y9.8130
G01 X-8.7685 Y9.7880
G01 X-9.4152 Y9.0932
G01 X-9.4386 Y9.0675
G01 X-9.4613 Y9.0414
G01 X-9.4907 Y9.0063
G01 X-9.5123 Y8.9793
G01 X-10.0959 Y8.2308
G01 X-10.1169 Y8.2032
G01 X-10.1373 Y8.1753
G01 X-10.1635 Y8.1378
G01 X-10.1826 Y8.1090
G01 X-10.6988 Y7.3125
G01 X-10.7238 Y7.2726
G01 X-10.7476 Y7.2321
G01 X-10.7776 Y7.1778
G01 X-10.7990 Y7.1359
G01 X-11.4340 Y5.8429
G01 X-12.2021 Y4.5631
G01 X-13.0770 Y3.3573
G01 X-14.0536 Y2.2325
G01 X-15.1245 Y1.1971
G01 X-16.2746 Y0.2647
G01 X-16.3160 Y0.2371
G01 X-16.3357 Y0.2235
G01 X-16.3808 Y0.1908
G01 X-16.6082 Y0.0201
G01 X-16.6358 Y-0.0010
G01 X-16.6628 Y-0.0228
G01 X-16.6980 Y-0.0522
G01 X-16.7241 Y-0.0751
G01 X-16.9358 Y-0.2651
G01 X-16.9613 Y-0.2884
G01 X-16.9941 Y-0.3201
G01 X-17.0185 Y-0.3445
G01 X-17.0424 Y-0.3695
G01 X-17.2367 Y-0.5771
G01 X-17.2602 Y-0.6027
G01 X-17.2831 Y-0.6289
G01 X-17.3126 Y-0.6639
G01 X-17.3344 Y-0.6911
G01 X-17.5098 Y-0.9149
G01 X-17.5308 Y-0.9422
G01 X-17.5512 Y-0.9701
G01 X-17.5774 Y-1.0074
G01 X-17.5966 Y-1.0361
G01 X-17.7519 Y-1.2743
G01 X-17.7704 Y-1.3035
G01 X-17.7883 Y-1.3330
G01 X-17.8112 Y-1.3724
G01 X-17.8278 Y-1.4027
G01 X-17.9618 Y-1.6535
G01 X-17.9779 Y-1.6843
G01 X-17.9932 Y-1.7155
G01 X-18.0127 Y-1.7569
G01 X-18.0267 Y-1.7887
G01 X-18.1383 Y-2.0503
G01 X-18.1515 Y-2.0824
G01 X-18.1680 Y-2.1252
G01 X-18.1799 Y-2.1578
G01 X-18.1910 Y-2.1907
G01 X-18.2793 Y-2.4610
G01 X-18.2897 Y-2.4939
G01 X-18.2993 Y-2.5270
G01 X-18.3112 Y-2.5709
G01 X-18.3194 Y-2.6044
G01 X-18.3839 Y-2.8813
G01 X-18.3914 Y-2.9153
G01 X-18.4002 Y-2.9604
G01 X-18.4062 Y-2.9947
G01 X-18.4115 Y-3.0291
G01 X-18.4515 Y-3.3106
G01 X-18.4560 Y-3.3448
G01 X-18.4608 Y-3.3901
G01 X-18.4638 Y-3.4245
G01 X-18.4660 Y-3.4590
G01 X-18.4814 Y-3.7430
G01 X-18.4829 Y-3.7776
G01 X-18.4838 Y-3.8232
G01 X-18.4838 Y-3.8579
G01 X-18.4830 Y-3.8925
G01 X-18.4746 Y-4.1483
G01 X-18.4746 Y-11.1400
G01 X-18.4741 Y-11.1790
G01 X-18.4727 Y-11.2179
G00 X-18.4727 Y-11.2179
G01 F10.00
G01 Z-1.6000
G01 F6.00
G01 X-18.4697 Y-11.2692
G01 X-18.4663 Y-11.3081
G01 X-18.4620 Y-11.3468
G01 X-18.4549 Y-11.3977
G01 X-18.4487 Y-11.4362
G01 X-18.4416 Y-11.4745
G01 X-18.4335 Y-11.5126
G01 X-18.4215 Y-11.5626
G01 X-18.4116 Y-11.6003
G01 X-18.4007 Y-11.6377
G01 X-18.3890 Y-11.6749
G01 X-18.3763 Y-11.7117
G01 X-18.3585 Y-11.7600
G01 X-18.3441 Y-11.7961
G01 X-18.3287 Y-11.8319
G01 X-18.3071 Y-11.8786
G01 X-18.2901 Y-11.9137
G01 X-18.2721 Y-11.9482
G01 X-18.2533 Y-11.9824
G01 X-18.2337 Y-12.0160
G01 X-18.2069 Y-12.0599
G01 X-18.1856 Y-12.0926
G01 X-18.1636 Y-12.1247
G01 X-18.1407 Y-12.1563
G01 X-18.1097 Y-12.1973
G01 X-18.0854 Y-12.2277
G01 X-18.0603 Y-12.2575
G01 X-18.0345 Y-12.2867
G01 X-17.9996 Y-12.3245
G01 X-17.9724 Y-12.3524
G01 X-17.9445 Y-12.3796
G01 X-17.9067 Y-12.4145
G01 X-17.8775 Y-12.4403
G01 X-17.8477 Y-12.4654
G01 X-17.8173 Y-12.4897
G01 X-17.7763 Y-12.5207
G01 X-17.7447 Y-12.5436
G01 X-17.7126 Y-12.5656
G01 X-17.6799 Y-12.5869
G01 X-17.6467 Y-12.6073
G01 X-17.6024 Y-12.6333
G01 X-17.5682 Y-12.6521
G01 X-17.5337 Y-12.6701
G01 X-17.4986 Y-12.6871
G01 X-17.4519 Y-12.7087
G01 X-17.4161 Y-12.7240
G01 X-17.3800 Y-12.7385
G01 X-17.3317 Y-12.7563
G01 X-17.2949 Y-12.7690
G01 X-17.2577 Y-12.7807
G01 X-17.2203 Y-12.7916
G01 X-17.1705 Y-12.8045
G01 X-17.1326 Y-12.8135
G01 X-17.0945 Y-12.8216
G01 X-17.0562 Y-12.8288
G01 X-17.0177 Y-12.8349
G01 X-16.9668 Y-12.8420
G01 X-16.9281 Y-12.8463
G01 X-16.8892 Y-12.8497
G01 X-16.8379 Y-12.8527
G01 X-16.7990 Y-12.8541
G01 X-16.7600 Y-12.8546
G01 X16.7400 Y-12.8546
G01 X16.7790 Y-12.8541
G01 X16.8303 Y-12.8520
G01 X16.8692 Y-12.8497
G01 X16.9081 Y-12.8463
G01 X16.9468 Y-12.8420
G01 X16.9977 Y-12.8349
G01 X17.0362 Y-12.8288
G01 X17.0745 Y-12.8216
G01 X17.1126 Y-12.8135
G01 X17.1505 Y-12.8045
G01 X17.2003 Y-12.7916
G01 X17.2377 Y-12.7807
G01 X17.2749 Y-12.7690
G01 X17.3234 Y-12.7521
G01 X17.3600 Y-12.7385
G01 X17.3961 Y-12.7240
G01 X17.4319 Y-12.7087
G01 X17.4786 Y-12.6871
G01 X17.5137 Y-12.6701
G01 X17.5482 Y-12.6521
G01 X17.5824 Y-12.6333
G01 X17.6160 Y-12.6137
G01 X17.6599 Y-12.5869
G01 X17.6926 Y-12.5656
G01 X17.7247 Y-12.5436
G01 X17.7663 Y-12.5133
G01 X17.7973 Y-12.4897
G01 X17.8277 Y-12.4654
G01 X17.8575 Y-12.4403
G01 X17.8867 Y-12.4145
G01 X17.9245 Y-12.3796
G01 X17.9524 Y-12.3524
G01 X17.9796 Y-12.3245
G01 X18.0145 Y-12.2867
G01 X18.0403 Y-12.2575
G01 X18.0654 Y-12.2277
G01 X18.0897 Y-12.1973
G01 X18.1133 Y-12.1663
G01 X18.1436 Y-12.1247
G01 X18.1656 Y-12.0926
G01 X18.1869 Y-12.0599
G01 X18.2137 Y-12.0160
G01 X18.2333 Y-11.9824
G01 X18.2521 Y-11.9482
G01 X18.2701 Y-11.9137
G01 X18.2871 Y-11.8786
G01 X18.3087 Y-11.8319
G01 X18.3241 Y-11.7961
G01 X18.3385 Y-11.7600
G01 X18.3563 Y-11.7117
G01 X18.3690 Y-11.6749
G01 X18.3807 Y-11.6377
G01 X18.3916 Y-11.6003
G01 X18.4015 Y-11.5626
G01 X18.4135 Y-11.5126
G01 X18.4216 Y-11.4745
G01 X18.4287 Y-11.4362
G01 X18.4368 Y-11.3854
G01 X18.4420 Y-11.3468
G01 X18.4463 Y-11.3081
G01 X18.4497 Y-11.2692
G01 X18.4527 Y-11.2179
G01 X18.4541 Y-11.1790
G01 X18.4546 Y-11.1400
G01 X18.4546 Y-4.1200
G01 X18.4542 Y-4.0876
G01 X18.4532 Y-4.0552
G01 X18.4512 Y-4.0124
G01 X18.4488 Y-3.9801
G01 X18.4459 Y-3.9478
G01 X18.4410 Y-3.9053
G01 X18.4367 Y-3.8732
G01 X18.4317 Y-3.8412
G01 X18.3944 Y-3.6149
G01 X18.3896 Y-3.5871
G01 X18.3825 Y-3.5505
G01 X18.3767 Y-3.5229
G01 X18.3704 Y-3.4954
G01 X18.2853 Y-3.1391
G01 X18.2768 Y-3.1055
G01 X18.2677 Y-3.0721
G01 X18.2548 Y-3.0283
G01 X18.2442 Y-2.9953
G01 X18.1284 Y-2.6478
G01 X18.1171 Y-2.6151
G01 X18.1011 Y-2.5722
G01 X18.0884 Y-2.5399
G01 X18.0749 Y-2.5080
G01 X17.9292 Y-2.1719
G01 X17.9151 Y-2.1402
G01 X17.9003 Y-2.1090
G01 X17.8800 Y-2.0681
G01 X17.8638 Y-2.0374
G01 X17.6894 Y-1.7153
G01 X17.6726 Y-1.6851
G01 X17.6552 Y-1.6552
G01 X17.6314 Y-1.6162
G01 X17.6126 Y-1.5871
G01 X17.4108 Y-1.2814
G01 X17.3914 Y-1.2527
G01 X17.3713 Y-1.2244
G01 X17.3442 Y-1.1875
G01 X17.3229 Y-1.1601
G01 X17.0952 Y-0.8732
G01 X17.0735 Y-0.8464
G01 X17.0439 Y-0.8118
G01 X17.0210 Y-0.7860
G01 X16.9976 Y-0.7606
G01 X16.7458 Y-0.4945
G01 X16.7216 Y-0.4695
G01 X16.6969 Y-0.4451
G01 X16.6636 Y-0.4134
G01 X16.6378 Y-0.3900
G01 X16.3637 Y-0.1470
G01 X16.3376 Y-0.1244
G01 X16.3109 Y-0.1023
G01 X16.2752 Y-0.0738
G01 X16.2477 Y-0.0529
G01 X15.9535 Y0.1653
G01 X15.9255 Y0.1856
G01 X15.8879 Y0.2115
G01 X15.8591 Y0.2306
G01 X15.8298 Y0.2490
G01 X15.7284 Y0.3113
G01 X15.4201 Y0.6536
G01 X13.6170 Y2.8899
G01 X12.0313 Y5.2516
G01 X10.6214 Y7.8080
G01 X10.6027 Y7.8410
G01 X10.5832 Y7.8735
G01 X10.5566 Y7.9158
G01 X10.5356 Y7.9473
G01 X10.4853 Y8.0209
G01 X10.4486 Y8.0713
G01 X9.8766 Y8.8288
G01 X9.8554 Y8.8562
G01 X9.8336 Y8.8832
G01 X9.8042 Y8.9182
G01 X9.7813 Y8.9441
G01 X9.1455 Y9.6488
G01 X9.1221 Y9.6743
G01 X9.0903 Y9.7071
G01 X9.0658 Y9.7314
G01 X9.0407 Y9.7553
G01 X8.3460 Y10.4020
G01 X8.3204 Y10.4253
G01 X8.2942 Y10.4481
G01 X8.2591 Y10.4776
G01 X8.2320 Y10.4992
G01 X7.4834 Y11.0828
G01 X7.4559 Y11.1038
G01 X7.4279 Y11.1241
G01 X7.3905 Y11.1503
G01 X7.3617 Y11.1694
G01 X6.5652 Y11.6856
G01 X6.5359 Y11.7042
G01 X6.4967 Y11.7276
G01 X6.4666 Y11.7449
G01 X6.4362 Y11.7614
G01 X5.5977 Y12.2062
G01 X5.5669 Y12.2221
G01 X5.5258 Y12.2421
G01 X5.4944 Y12.2567
G01 X5.4626 Y12.2705
G01 X4.5886 Y12.6405
G01 X4.5566 Y12.6537
G01 X4.5242 Y12.6661
G01 X4.4812 Y12.6817
G01 X4.4484 Y12.6928
G01 X3.5454 Y12.9852
G01 X3.5124 Y12.9955
G01 X3.4685 Y13.0080
G01 X3.4351 Y13.0168
G01 X3.4014 Y13.0250
G01 X2.4764 Y13.2377
G01 X2.4426 Y13.2451
G01 X2.4085 Y13.2517
G01 X2.3635 Y13.2596
G01 X2.3292 Y13.2648
G01 X1.3891 Y13.3960
G01 X1.3547 Y13.4004
G01 X1.3202 Y13.4041
G01 X1.2747 Y13.4080
G01 X1.2401 Y13.4102
G01 X0.2922 Y13.4589
G01 X0.2576 Y13.4603
G01 X0.2120 Y13.4610
G01 X0.1774 Y13.4609
G01 X0.1428 Y13.4601
G01 X-0.8057 Y13.4261
G01 X-0.8403 Y13.4244
G01 X-0.8860 Y13.4212
G01 X-0.9205 Y13.4181
G01 X-0.9549 Y13.4142
G01 X-1.8969 Y13.2976
G01 X-1.9312 Y13.2930
G01 X-1.9763 Y13.2857
G01 X-2.0104 Y13.2796
G01 X-2.0443 Y13.2728
G01 X-2.9725 Y13.0746
G01 X-3.0063 Y13.0670
G01 X-3.0507 Y13.0558
G01 X-3.0842 Y13.0468
G01 X-3.1174 Y13.0369
G01 X-4.0248 Y12.7585
G01 X-4.0578 Y12.7480
G01 X-4.0905 Y12.7368
G01 X-4.1335 Y12.7211
G01 X-4.1657 Y12.7085
G01 X-5.0454 Y12.3521
G01 X-5.0774 Y12.3388
G01 X-5.1090 Y12.3247
G01 X-5.1504 Y12.3054
G01 X-5.1814 Y12.2900
G01 X-6.0267 Y11.8583
G01 X-6.0574 Y11.8421
G01 X-6.0878 Y11.8254
G01 X-6.1274 Y11.8025
G01 X-6.1570 Y11.7844
G01 X-6.9614 Y11.2806
G01 X-6.9905 Y11.2619
G01 X-7.0192 Y11.2426
G01 X-7.0566 Y11.2164
G01 X-7.0844 Y11.1959
G01 X-7.8419 Y10.6240
G01 X-7.8693 Y10.6028
G01 X-7.8963 Y10.5810
G01 X-7.9314 Y10.5516
G01 X-7.9573 Y10.5286
G01 X-8.6620 Y9.8928
G01 X-8.6875 Y9.8693
G01 X-8.7124 Y9.8453
G01 X-8.7447 Y9.8130
G01 X-8.7685 Y9.7880
G01 X-9.4152 Y9.0932
G01 X-9.4386 Y9.0675
G01 X-9.4613 Y9.0414
G01 X-9.4907 Y9.0063
G01 X-9.5123 Y8.9793
G01 X-10.0959 Y8.2308
G01 X-10.1169 Y8.2032
G01 X-10.1373 Y8.1753
G01 X-10.1635 Y8.1378
G01 X-10.1826 Y8.1090
G01 X-10.6988 Y7.3125
G01 X-10.7238 Y7.2726
G01 X-10.7476 Y7.2321
G01 X-10.7776 Y7.1778
G01 X-10.7990 Y7.1359
G01 X-11.4340 Y5.8429
G01 X-12.2021 Y4.5631
G01 X-13.0770 Y3.3573
G01 X-14.0536 Y2.2325
G01 X-15.1245 Y1.1971
G01 X-16.2746 Y0.2647
G01 X-16.3160 Y0.2371
G01 X-16.3357 Y0.2235
G01 X-16.3808 Y0.1908
G01 X-16.6082 Y0.0201
G01 X-16.6358 Y-0.0010
G01 X-16.6628 Y-0.0228
G01 X-16.6980 Y-0.0522
G01 X-16.7241 Y-0.0751
G01 X-16.9358 Y-0.2651
G01 X-16.9613 Y-0.2884
G01 X-16.9941 Y-0.3201
G01 X-17.0185 Y-0.3445
G01 X-17.0424 Y-0.3695
G01 X-17.2367 Y-0.5771
G01 X-17.2602 Y-0.6027
G01 X-17.2831 Y-0.6289
G01 X-17.3126 Y-0.6639
G01 X-17.3344 Y-0.6911
G01 X-17.5098 Y-0.9149
G01 X-17.5308 Y-0.9422
G01 X-17.5512 Y-0.9701
G01 X-17.5774 Y-1.0074
G01 X-17.5966 Y-1.0361
G01 X-17.7519 Y-1.2743
G01 X-17.7704 Y-1.3035
G01 X-17.7883 Y-1.3330
G01 X-17.8112 Y-1.3724
G01 X-17.8278 Y-1.4027
G01 X-17.9618 Y-1.6535
G01 X-17.9779 Y-1.6843
G01 X-17.9932 Y-1.7155
G01 X-18.0127 Y-1.7569
G01 X-18.0267 Y-1.7887
G01 X-18.1383 Y-2.0503
G01 X-18.1515 Y-2.0824
G01 X-18.1680 Y-2.1252
G01 X-18.1799 Y-2.1578
G01 X-18.1910 Y-2.1907
G01 X-18.2793 Y-2.4610
G01 X-18.2897 Y-2.4939
G01 X-18.2993 Y-2.5270
G01 X-18.3112 Y-2.5709
G01 X-18.3194 Y-2.6044
G01 X-18.3839 Y-2.8813
G01 X-18.3914 Y-2.9153
G01 X-18.4002 Y-2.9604
G01 X-18.4062 Y-2.9947
G01 X-18.4115 Y-3.0291
G01 X-18.4515 Y-3.3106
G01 X-18.4560 Y-3.3448
G01 X-18.4608 Y-3.3901
G01 X-18.4638 Y-3.4245
G01 X-18.4660 Y-3.4590
G01 X-18.4814 Y-3.7430
G01 X-18.4829 Y-3.7776
G01 X-18.4838 Y-3.8232
G01 X-18.4838 Y-3.8579
G01 X-18.4830 Y-3.8925
G01 X-18.4746 Y-4.1483
G01 X-18.4746 Y-11.1400
G01 X-18.4741 Y-11.1790
G01 X-18.4727 Y-11.2179
G00 X-18.4727 Y-11.2179
G01 F10.00
G01 Z-1.9000
G01 F6.00
G01 X-18.4697 Y-11.2692
G01 X-18.4663 Y-11.3081
G01 X-18.4620 Y-11.3468
G01 X-18.4549 Y-11.3977
G01 X-18.4487 Y-11.4362
G01 X-18.4416 Y-11.4745
G01 X-18.4335 Y-11.5126
G01 X-18.4215 Y-11.5626
G01 X-18.4116 Y-11.6003
G01 X-18.4007 Y-11.6377
G01 X-18.3890 Y-11.6749
G01 X-18.3763 Y-11.7117
G01 X-18.3585 Y-11.7600
G01 X-18.3441 Y-11.7961
G01 X-18.3287 Y-11.8319
G01 X-18.3071 Y-11.8786
G01 X-18.2901 Y-11.9137
G01 X-18.2721 Y-11.9482
G01 X-18.2533 Y-11.9824
G01 X-18.2337 Y-12.0160
G01 X-18.2069 Y-12.0599
G01 X-18.1856 Y-12.0926
G01 X-18.1636 Y-12.1247
G01 X-18.1407 Y-12.1563
G01 X-18.1097 Y-12.1973
G01 X-18.0854 Y-12.2277
G01 X-18.0603 Y-12.2575
G01 X-18.0345 Y-12.2867
G01 X-17.9996 Y-12.3245
G01 X-17.9724 Y-12.3524
G01 X-17.9445 Y-12.3796
G01 X-17.9067 Y-12.4145
G01 X-17.8775 Y-12.4403
G01 X-17.8477 Y-12.4654
G01 X-17.8173 Y-12.4897
G01 X-17.7763 Y-12.5207
G01 X-17.7447 Y-12.5436
G01 X-17.7126 Y-12.5656
G01 X-17.6799 Y-12.5869
G01 X-17.6467 Y-12.6073
G01 X-17.6024 Y-12.6333
G01 X-17.5682 Y-12.6521
G01 X-17.5337 Y-12.6701
G01 X-17.4986 Y-12.6871
G01 X-17.4519 Y-12.7087
G01 X-17.4161 Y-12.7240
G01 X-17.3800 Y-12.7385
G01 X-17.3317 Y-12.7563
G01 X-17.2949 Y-12.7690
G01 X-17.2577 Y-12.7807
G01 X-17.2203 Y-12.7916
G01 X-17.1705 Y-12.8045
G01 X-17.1326 Y-12.8135
G01 X-17.0945 Y-12.8216
G01 X-17.0562 Y-12.8288
G01 X-17.0177 Y-12.8349
G01 X-16.9668 Y-12.8420
G01 X-16.9281 Y-12.8463
G01 X-16.8892 Y-12.8497
G01 X-16.8379 Y-12.8527
G01 X-16.7990 Y-12.8541
G01 X-16.7600 Y-12.8546
G01 X16.7400 Y-12.8546
G01 X16.7790 Y-12.8541
G01 X16.8303 Y-12.8520
G01 X16.8692 Y-12.8497
G01 X16.9081 Y-12.8463
G01 X16.9468 Y-12.8420
G01 X16.9977 Y-12.8349
G01 X17.0362 Y-12.8288
G01 X17.0745 Y-12.8216
G01 X17.1126 Y-12.8135
G01 X17.1505 Y-12.8045
G01 X17.2003 Y-12.7916
G01 X17.2377 Y-12.7807
G01 X17.2749 Y-12.7690
G01 X17.3234 Y-12.7521
G01 X17.3600 Y-12.7385
G01 X17.3961 Y-12.7240
G01 X17.4319 Y-12.7087
G01 X17.4786 Y-12.6871
G01 X17.5137 Y-12.6701
G01 X17.5482 Y-12.6521
G01 X17.5824 Y-12.6333
G01 X17.6160 Y-12.6137
G01 X17.6599 Y-12.5869
G01 X17.6926 Y-12.5656
G01 X17.7247 Y-12.5436
G01 X17.7663 Y-12.5133
G01 X17.7973 Y-12.4897
G01 X17.8277 Y-12.4654
G01 X17.8575 Y-12.4403
G01 X17.8867 Y-12.4145
G01 X17.9245 Y-12.3796
G01 X17.9524 Y-12.3524
G01 X17.9796 Y-12.3245
G01 X18.0145 Y-12.2867
G01 X18.0403 Y-12.2575
G01 X18.0654 Y-12.2277
G01 X18.0897 Y-12.1973
G01 X18.1133 Y-12.1663
G01 X18.1436 Y-12.1247
G01 X18.1656 Y-12.0926
G01 X18.1869 Y-12.0599
G01 X18.2137 Y-12.0160
G01 X18.2333 Y-11.9824
G01 X18.2521 Y-11.9482
G01 X18.2701 Y-11.9137
G01 X18.2871 Y-11.8786
G01 X18.3087 Y-11.8319
G01 X18.3241 Y-11.7961
G01 X18.3385 Y-11.7600
G01 X18.3563 Y-11.7117
G01 X18.3690 Y-11.6749
G01 X18.3807 Y-11.6377
G01 X18.3916 Y-11.6003
G01 X18.4015 Y-11.5626
G01 X18.4135 Y-11.5126
G01 X18.4216 Y-11.4745
G01 X18.4287 Y-11.4362
G01 X18.4368 Y-11.3854
G01 X18.4420 Y-11.3468
G01 X18.4463 Y-11.3081
G01 X18.4497 Y-11.2692
G01 X18.4527 Y-11.2179
G01 X18.4541 Y-11.1790
G01 X18.4546 Y-11.1400
G01 X18.4546 Y-4.1200
G01 X18.4542 Y-4.0876
G01 X18.4532 Y-4.0552
G01 X18.4512 Y-4.0124
G01 X18.4488 Y-3.9801
G01 X18.4459 Y-3.9478
G01 X18.4410 Y-3.9053
G01 X18.4367 Y-3.8732
G01 X18.4317 Y-3.8412
G01 X18.3944 Y-3.6149
G01 X18.3896 Y-3.5871
G01 X18.3825 Y-3.5505
G01 X18.3767 Y-3.5229
G01 X18.3704 Y-3.4954
G01 X18.2853 Y-3.1391
G01 X18.2768 Y-3.1055
G01 X18.2677 Y-3.0721
G01 X18.2548 Y-3.0283
G01 X18.2442 Y-2.9953
G01 X18.1284 Y-2.6478
G01 X18.1171 Y-2.6151
G01 X18.1011 Y-2.5722
G01 X18.0884 Y-2.5399
G01 X18.0749 Y-2.5080
G01 X17.9292 Y-2.1719
G01 X17.9151 Y-2.1402
G01 X17.9003 Y-2.1090
G01 X17.8800 Y-2.0681
G01 X17.8638 Y-2.0374
G01 X17.6894 Y-1.7153
G01 X17.6726 Y-1.6851
G01 X17.6552 Y-1.6552
G01 X17.6314 Y-1.6162
G01 X17.6126 Y-1.5871
G01 X17.4108 Y-1.2814
G01 X17.3914 Y-1.2527
G01 X17.3713 Y-1.2244
G01 X17.3442 Y-1.1875
G01 X17.3229 Y-1.1601
G01 X17.0952 Y-0.8732
G01 X17.0735 Y-0.8464
G01 X17.0439 Y-0.8118
G01 X17.0210 Y-0.7860
G01 X16.9976 Y-0.7606
G01 X16.7458 Y-0.4945
G01 X16.7216 Y-0.4695
G01 X16.6969 Y-0.4451
G01 X16.6636 Y-0.4134
G01 X16.6378 Y-0.3900
G01 X16.3637 Y-0.1470
G01 X16.3376 Y-0.1244
G01 X16.3109 Y-0.1023
G01 X16.2752 Y-0.0738
G01 X16.2477 Y-0.0529
G01 X15.9535 Y0.1653
G01 X15.9255 Y0.1856
G01 X15.8879 Y0.2115
G01 X15.8591 Y0.2306
G01 X15.8298 Y0.2490
G01 X15.7284 Y0.3113
G01 X15.4201 Y0.6536
G01 X13.6170 Y2.8899
G01 X12.0313 Y5.2516
G01 X10.6214 Y7.8080
G01 X10.6027 Y7.8410
G01 X10.5832 Y7.8735
G01 X10.5566 Y7.9158
G01 X10.5356 Y7.9473
G01 X10.4853 Y8.0209
G01 X10.4486 Y8.0713
G01 X9.8766 Y8.8288
G01 X9.8554 Y8.8562
G01 X9.8336 Y8.8832
G01 X9.8042 Y8.9182
G01 X9.7813 Y8.9441
G01 X9.1455 Y9.6488
G01 X9.1221 Y9.6743
G01 X9.0903 Y9.7071
G01 X9.0658 Y9.7314
G01 X9.0407 Y9.7553
G01 X8.3460 Y10.4020
G01 X8.3204 Y10.4253
G01 X8.2942 Y10.4481
G01 X8.2591 Y10.4776
G01 X8.2320 Y10.4992
G01 X7.4834 Y11.0828
G01 X7.4559 Y11.1038
G01 X7.4279 Y11.1241
G01 X7.3905 Y11.1503
G01 X7.3617 Y11.1694
G01 X6.5652 Y11.6856
G01 X6.5359 Y11.7042
G01 X6.4967 Y11.7276
G01 X6.4666 Y11.7449
G01 X6.4362 Y11.7614
G01 X5.5977 Y12.2062
G01 X5.5669 Y12.2221
G01 X5.5258 Y12.2421
G01 X5.4944 Y12.2567
G01 X5.4626 Y12.2705
G01 X4.5886 Y12.6405
G01 X4.5566 Y12.6537
G01 X4.5242 Y12.6661
G01 X4.4812 Y12.6817
G01 X4.4484 Y12.6928
G01 X3.5454 Y12.9852
G01 X3.5124 Y12.9955
G01 X3.4685 Y13.0080
G01 X3.4351 Y13.0168
G01 X3.4014 Y13.0250
G01 X2.4764 Y13.2377
G01 X2.4426 Y13.2451
G01 X2.4085 Y13.2517
G01 X2.3635 Y13.2596
G01 X2.3292 Y13.2648
G01 X1.3891 Y13.3960
G01 X1.3547 Y13.4004
G01 X1.3202 Y13.4041
G01 X1.2747 Y13.4080
G01 X1.2401 Y13.4102
G01 X0.2922 Y13.4589
G01 X0.2576 Y13.4603
G01 X0.2120 Y13.4610
G01 X0.1774 Y13.4609
G01 X0.1428 Y13.4601
G01 X-0.8057 Y13.4261
G01 X-0.8403 Y13.4244
G01 X-0.8860 Y13.4212
G01 X-0.9205 Y13.4181
G01 X-0.9549 Y13.4142
G01 X-1.8969 Y13.2976
G01 X-1.9312 Y13.2930
G01 X-1.9763 Y13.2857
G01 X-2.0104 Y13.2796
G01 X-2.0443 Y13.2728
G01 X-2.9725 Y13.0746
G01 X-3.0063 Y13.0670
G01 X-3.0507 Y13.0558
G01 X-3.0842 Y13.0468
G01 X-3.1174 Y13.0369
G01 X-4.0248 Y12.7585
G01 X-4.0578 Y12.7480
G01 X-4.0905 Y12.7368
G01 X-4.1335 Y12.7211
G01 X-4.1657 Y12.7085
G01 X-5.0454 Y12.3521
G01 X-5.0774 Y12.3388
G01 X-5.1090 Y12.3247
G01 X-5.1504 Y12.3054
G01 X-5.1814 Y12.2900
G01 X-6.0267 Y11.8583
G01 X-6.0574 Y11.8421
G01 X-6.0878 Y11.8254
G01 X-6.1274 Y11.8025
G01 X-6.1570 Y11.7844
G01 X-6.9614 Y11.2806
G01 X-6.9905 Y11.2619
G01 X-7.0192 Y11.2426
G01 X-7.0566 Y11.2164
G01 X-7.0844 Y11.1959
G01 X-7.8419 Y10.6240
G01 X-7.8693 Y10.6028
G01 X-7.8963 Y10.5810
G01 X-7.9314 Y10.5516
G01 X-7.9573 Y10.5286
G01 X-8.6620 Y9.8928
G01 X-8.6875 Y9.8693
G01 X-8.7124 Y9.8453
G01 X-8.7447 Y9.8130
G01 X-8.7685 Y9.7880
G01 X-9.4152 Y9.0932
G01 X-9.4386 Y9.0675
G01 X-9.4613 Y9.0414
G01 X-9.4907 Y9.0063
G01 X-9.5123 Y8.9793
G01 X-10.0959 Y8.2308
G01 X-10.1169 Y8.2032
G01 X-10.1373 Y8.1753
G01 X-10.1635 Y8.1378
G01 X-10.1826 Y8.1090
G01 X-10.6988 Y7.3125
G01 X-10.7238 Y7.2726
G01 X-10.7476 Y7.2321
G01 X-10.7776 Y7.1778
G01 X-10.7990 Y7.1359
G01 X-11.4340 Y5.8429
G01 X-12.2021 Y4.5631
G01 X-13.0770 Y3.3573
G01 X-14.0536 Y2.2325
G01 X-15.1245 Y1.1971
G01 X-16.2746 Y0.2647
G01 X-16.3160 Y0.2371
G01 X-16.3357 Y0.2235
G01 X-16.3808 Y0.1908
G01 X-16.6082 Y0.0201
G01 X-16.6358 Y-0.0010
G01 X-16.6628 Y-0.0228
G01 X-16.6980 Y-0.0522
G01 X-16.7241 Y-0.0751
G01 X-16.9358 Y-0.2651
G01 X-16.9613 Y-0.2884
G01 X-16.9941 Y-0.3201
G01 X-17.0185 Y-0.3445
G01 X-17.0424 Y-0.3695
G01 X-17.2367 Y-0.5771
G01 X-17.2602 Y-0.6027
G01 X-17.2831 Y-0.6289
G01 X-17.3126 Y-0.6639
G01 X-17.3344 Y-0.6911
G01 X-17.5098 Y-0.9149
G01 X-17.5308 Y-0.9422
G01 X-17.5512 Y-0.9701
G01 X-17.5774 Y-1.0074
G01 X-17.5966 Y-1.0361
G01 X-17.7519 Y-1.2743
G01 X-17.7704 Y-1.3035
G01 X-17.7883 Y-1.3330
G01 X-17.8112 Y-1.3724
G01 X-17.8278 Y-1.4027
G01 X-17.9618 Y-1.6535
G01 X-17.9779 Y-1.6843
G01 X-17.9932 Y-1.7155
G01 X-18.0127 Y-1.7569
G01 X-18.0267 Y-1.7887
G01 X-18.1383 Y-2.0503
G01 X-18.1515 Y-2.0824
G01 X-18.1680 Y-2.1252
G01 X-18.1799 Y-2.1578
G01 X-18.1910 Y-2.1907
G01 X-18.2793 Y-2.4610
G01 X-18.2897 Y-2.4939
G01 X-18.2993 Y-2.5270
G01 X-18.3112 Y-2.5709
G01 X-18.3194 Y-2.6044
G01 X-18.3839 Y-2.8813
G01 X-18.3914 Y-2.9153
G01 X-18.4002 Y-2.9604
G01 X-18.4062 Y-2.9947
G01 X-18.4115 Y-3.0291
G01 X-18.4515 Y-3.3106
G01 X-18.4560 Y-3.3448
G01 X-18.4608 Y-3.3901
G01 X-18.4638 Y-3.4245
G01 X-18.4660 Y-3.4590
G01 X-18.4814 Y-3.7430
G01 X-18.4829 Y-3.7776
G01 X-18.4838 Y-3.8232
G01 X-18.4838 Y-3.8579
G01 X-18.4830 Y-3.8925
G01 X-18.4746 Y-4.1483
G01 X-18.4746 Y-11.1400
G01 X-18.4741 Y-11.1790
G01 X-18.4727 Y-11.2179
G00 Z5.0000
M05
G00 Z5.0000
G00 Z15.00


