(G-CODE GENERATED BY FLATCAM v8.994 - www.flatcam.org - Version Date: 2020/11/7)

(Name: profile.gbr_edit_iso_combined_cnc)
(Type: G-code from Geometry)
(Units: MM)

(Created on Saturday, 04 March 2023 at 20:12)

(This preprocessor is the default preprocessor used by FlatCAM.)
(It is made to work with MACH3 compatible motion controllers.)

(TOOL DIAMETER: 3.0 mm)
(Feedrate_XY: 35.0 mm/min)
(Feedrate_Z: 1.0 mm/min)
(Feedrate rapids 1500.0 mm/min)

(Z_Cut: -1.85 mm)
(DepthPerCut: 0.3 mm <=>7 passes)
(Z_Move: 5.0 mm)
(Z Start: None mm)
(Z End: 15.0 mm)
(X,Y End: None mm)
(Steps per circle: 64)
(Preprocessor Geometry: default)

(X range:   14.2774 ...   20.2232  mm)
(Y range:    8.4274 ...   14.3732  mm)

(Spindle Speed: 0.0 RPM)
G21
G90
G94

G01 F35.00

M5
G00 Z15.0000
G00 X0.0000 Y0.0000
T2
M6    
(MSG, Change to Tool Dia = 3.0000)
M0
G00 Z15.0000

M03
G01 F35.00
G00 X20.2232 Y11.3386
G01 F1.00
G01 Z-0.3000
G01 F35.00
G01 X20.2182 Y11.2158
G01 X20.2081 Y11.0938
G01 X20.1928 Y10.9719
G01 X20.1725 Y10.8503
G01 X20.1473 Y10.7300
G01 X20.1171 Y10.6107
G01 X20.0821 Y10.4930
G01 X20.0423 Y10.3770
G01 X19.9975 Y10.2623
G01 X19.9482 Y10.1497
G01 X19.8943 Y10.0396
G01 X19.8357 Y9.9313
G01 X19.7726 Y9.8254
G01 X19.7055 Y9.7227
G01 X19.6342 Y9.6228
G01 X19.5588 Y9.5260
G01 X19.4792 Y9.4320
G01 X19.3959 Y9.3416
G01 X19.3090 Y9.2547
G01 X19.2186 Y9.1714
G01 X19.1246 Y9.0918
G01 X19.0278 Y9.0164
G01 X18.9279 Y8.9451
G01 X18.8252 Y8.8780
G01 X18.7193 Y8.8149
G01 X18.6110 Y8.7563
G01 X18.5009 Y8.7024
G01 X18.3883 Y8.6531
G01 X18.2740 Y8.6085
G01 X18.1576 Y8.5686
G01 X18.0395 Y8.5334
G01 X17.9206 Y8.5033
G01 X17.8003 Y8.4781
G01 X17.6787 Y8.4578
G01 X17.5568 Y8.4425
G01 X17.4348 Y8.4324
G01 X17.3120 Y8.4274
G01 X17.1886 Y8.4274
G01 X17.0658 Y8.4324
G01 X16.9439 Y8.4425
G01 X16.8219 Y8.4578
G01 X16.7003 Y8.4781
G01 X16.5800 Y8.5033
G01 X16.4610 Y8.5334
G01 X16.3431 Y8.5685
G01 X16.2267 Y8.6085
G01 X16.1122 Y8.6531
G01 X15.9997 Y8.7024
G01 X15.8896 Y8.7563
G01 X15.7815 Y8.8148
G01 X15.6757 Y8.8778
G01 X15.5728 Y8.9451
G01 X15.4727 Y9.0165
G01 X15.3760 Y9.0918
G01 X15.2823 Y9.1712
G01 X15.1914 Y9.2549
G01 X15.1045 Y9.3418
G01 X15.0216 Y9.4318
G01 X14.9421 Y9.5257
G01 X14.8665 Y9.6228
G01 X14.7950 Y9.7230
G01 X14.7278 Y9.8257
G01 X14.6651 Y9.9309
G01 X14.6065 Y10.0393
G01 X14.5525 Y10.1497
G01 X14.5030 Y10.2627
G01 X14.4583 Y10.3770
G01 X14.4186 Y10.4930
G01 X14.3834 Y10.6111
G01 X14.3533 Y10.7300
G01 X14.3281 Y10.8503
G01 X14.3078 Y10.9714
G01 X14.2926 Y11.0934
G01 X14.2825 Y11.2162
G01 X14.2774 Y11.3390
G01 X14.2774 Y11.4616
G01 X14.2825 Y11.5844
G01 X14.2926 Y11.7071
G01 X14.3078 Y11.8291
G01 X14.3281 Y11.9503
G01 X14.3533 Y12.0706
G01 X14.3834 Y12.1896
G01 X14.4185 Y12.3075
G01 X14.4583 Y12.4236
G01 X14.5031 Y12.5381
G01 X14.5525 Y12.6509
G01 X14.6065 Y12.7613
G01 X14.6650 Y12.8695
G01 X14.7278 Y12.9748
G01 X14.7950 Y13.0776
G01 X14.8665 Y13.1777
G01 X14.9421 Y13.2748
G01 X15.0214 Y13.3685
G01 X15.1047 Y13.4589
G01 X15.1917 Y13.5459
G01 X15.2821 Y13.6292
G01 X15.3758 Y13.7085
G01 X15.4727 Y13.7840
G01 X15.5731 Y13.8556
G01 X15.6760 Y13.9229
G01 X15.7811 Y13.9856
G01 X15.8893 Y14.0441
G01 X15.9997 Y14.0981
G01 X16.1125 Y14.1475
G01 X16.2270 Y14.1923
G01 X16.3431 Y14.2321
G01 X16.4610 Y14.2672
G01 X16.5800 Y14.2973
G01 X16.7003 Y14.3225
G01 X16.8215 Y14.3428
G01 X16.9435 Y14.3580
G01 X17.0662 Y14.3681
G01 X17.1890 Y14.3732
G01 X17.3116 Y14.3732
G01 X17.4344 Y14.3681
G01 X17.5572 Y14.3580
G01 X17.6792 Y14.3428
G01 X17.8003 Y14.3225
G01 X17.9206 Y14.2973
G01 X18.0395 Y14.2672
G01 X18.1576 Y14.2320
G01 X18.2736 Y14.1923
G01 X18.3879 Y14.1476
G01 X18.5009 Y14.0981
G01 X18.6113 Y14.0441
G01 X18.7197 Y13.9855
G01 X18.8249 Y13.9228
G01 X18.9276 Y13.8556
G01 X19.0278 Y13.7841
G01 X19.1249 Y13.7085
G01 X19.2188 Y13.6290
G01 X19.3088 Y13.5461
G01 X19.3957 Y13.4592
G01 X19.4794 Y13.3683
G01 X19.5588 Y13.2746
G01 X19.6342 Y13.1777
G01 X19.7055 Y13.0779
G01 X19.7726 Y12.9751
G01 X19.8358 Y12.8691
G01 X19.8943 Y12.7610
G01 X19.9482 Y12.6509
G01 X19.9975 Y12.5384
G01 X20.0423 Y12.4236
G01 X20.0822 Y12.3075
G01 X20.1171 Y12.1900
G01 X20.1473 Y12.0706
G01 X20.1725 Y11.9503
G01 X20.1928 Y11.8287
G01 X20.2081 Y11.7067
G01 X20.2182 Y11.5848
G01 X20.2232 Y11.4620
G01 X20.2232 Y11.3386
G00 X20.2232 Y11.3386
G01 F1.00
G01 Z-0.6000
G01 F35.00
G01 X20.2182 Y11.2158
G01 X20.2081 Y11.0938
G01 X20.1928 Y10.9719
G01 X20.1725 Y10.8503
G01 X20.1473 Y10.7300
G01 X20.1171 Y10.6107
G01 X20.0821 Y10.4930
G01 X20.0423 Y10.3770
G01 X19.9975 Y10.2623
G01 X19.9482 Y10.1497
G01 X19.8943 Y10.0396
G01 X19.8357 Y9.9313
G01 X19.7726 Y9.8254
G01 X19.7055 Y9.7227
G01 X19.6342 Y9.6228
G01 X19.5588 Y9.5260
G01 X19.4792 Y9.4320
G01 X19.3959 Y9.3416
G01 X19.3090 Y9.2547
G01 X19.2186 Y9.1714
G01 X19.1246 Y9.0918
G01 X19.0278 Y9.0164
G01 X18.9279 Y8.9451
G01 X18.8252 Y8.8780
G01 X18.7193 Y8.8149
G01 X18.6110 Y8.7563
G01 X18.5009 Y8.7024
G01 X18.3883 Y8.6531
G01 X18.2740 Y8.6085
G01 X18.1576 Y8.5686
G01 X18.0395 Y8.5334
G01 X17.9206 Y8.5033
G01 X17.8003 Y8.4781
G01 X17.6787 Y8.4578
G01 X17.5568 Y8.4425
G01 X17.4348 Y8.4324
G01 X17.3120 Y8.4274
G01 X17.1886 Y8.4274
G01 X17.0658 Y8.4324
G01 X16.9439 Y8.4425
G01 X16.8219 Y8.4578
G01 X16.7003 Y8.4781
G01 X16.5800 Y8.5033
G01 X16.4610 Y8.5334
G01 X16.3431 Y8.5685
G01 X16.2267 Y8.6085
G01 X16.1122 Y8.6531
G01 X15.9997 Y8.7024
G01 X15.8896 Y8.7563
G01 X15.7815 Y8.8148
G01 X15.6757 Y8.8778
G01 X15.5728 Y8.9451
G01 X15.4727 Y9.0165
G01 X15.3760 Y9.0918
G01 X15.2823 Y9.1712
G01 X15.1914 Y9.2549
G01 X15.1045 Y9.3418
G01 X15.0216 Y9.4318
G01 X14.9421 Y9.5257
G01 X14.8665 Y9.6228
G01 X14.7950 Y9.7230
G01 X14.7278 Y9.8257
G01 X14.6651 Y9.9309
G01 X14.6065 Y10.0393
G01 X14.5525 Y10.1497
G01 X14.5030 Y10.2627
G01 X14.4583 Y10.3770
G01 X14.4186 Y10.4930
G01 X14.3834 Y10.6111
G01 X14.3533 Y10.7300
G01 X14.3281 Y10.8503
G01 X14.3078 Y10.9714
G01 X14.2926 Y11.0934
G01 X14.2825 Y11.2162
G01 X14.2774 Y11.3390
G01 X14.2774 Y11.4616
G01 X14.2825 Y11.5844
G01 X14.2926 Y11.7071
G01 X14.3078 Y11.8291
G01 X14.3281 Y11.9503
G01 X14.3533 Y12.0706
G01 X14.3834 Y12.1896
G01 X14.4185 Y12.3075
G01 X14.4583 Y12.4236
G01 X14.5031 Y12.5381
G01 X14.5525 Y12.6509
G01 X14.6065 Y12.7613
G01 X14.6650 Y12.8695
G01 X14.7278 Y12.9748
G01 X14.7950 Y13.0776
G01 X14.8665 Y13.1777
G01 X14.9421 Y13.2748
G01 X15.0214 Y13.3685
G01 X15.1047 Y13.4589
G01 X15.1917 Y13.5459
G01 X15.2821 Y13.6292
G01 X15.3758 Y13.7085
G01 X15.4727 Y13.7840
G01 X15.5731 Y13.8556
G01 X15.6760 Y13.9229
G01 X15.7811 Y13.9856
G01 X15.8893 Y14.0441
G01 X15.9997 Y14.0981
G01 X16.1125 Y14.1475
G01 X16.2270 Y14.1923
G01 X16.3431 Y14.2321
G01 X16.4610 Y14.2672
G01 X16.5800 Y14.2973
G01 X16.7003 Y14.3225
G01 X16.8215 Y14.3428
G01 X16.9435 Y14.3580
G01 X17.0662 Y14.3681
G01 X17.1890 Y14.3732
G01 X17.3116 Y14.3732
G01 X17.4344 Y14.3681
G01 X17.5572 Y14.3580
G01 X17.6792 Y14.3428
G01 X17.8003 Y14.3225
G01 X17.9206 Y14.2973
G01 X18.0395 Y14.2672
G01 X18.1576 Y14.2320
G01 X18.2736 Y14.1923
G01 X18.3879 Y14.1476
G01 X18.5009 Y14.0981
G01 X18.6113 Y14.0441
G01 X18.7197 Y13.9855
G01 X18.8249 Y13.9228
G01 X18.9276 Y13.8556
G01 X19.0278 Y13.7841
G01 X19.1249 Y13.7085
G01 X19.2188 Y13.6290
G01 X19.3088 Y13.5461
G01 X19.3957 Y13.4592
G01 X19.4794 Y13.3683
G01 X19.5588 Y13.2746
G01 X19.6342 Y13.1777
G01 X19.7055 Y13.0779
G01 X19.7726 Y12.9751
G01 X19.8358 Y12.8691
G01 X19.8943 Y12.7610
G01 X19.9482 Y12.6509
G01 X19.9975 Y12.5384
G01 X20.0423 Y12.4236
G01 X20.0822 Y12.3075
G01 X20.1171 Y12.1900
G01 X20.1473 Y12.0706
G01 X20.1725 Y11.9503
G01 X20.1928 Y11.8287
G01 X20.2081 Y11.7067
G01 X20.2182 Y11.5848
G01 X20.2232 Y11.4620
G01 X20.2232 Y11.3386
G00 X20.2232 Y11.3386
G01 F1.00
G01 Z-0.9000
G01 F35.00
G01 X20.2182 Y11.2158
G01 X20.2081 Y11.0938
G01 X20.1928 Y10.9719
G01 X20.1725 Y10.8503
G01 X20.1473 Y10.7300
G01 X20.1171 Y10.6107
G01 X20.0821 Y10.4930
G01 X20.0423 Y10.3770
G01 X19.9975 Y10.2623
G01 X19.9482 Y10.1497
G01 X19.8943 Y10.0396
G01 X19.8357 Y9.9313
G01 X19.7726 Y9.8254
G01 X19.7055 Y9.7227
G01 X19.6342 Y9.6228
G01 X19.5588 Y9.5260
G01 X19.4792 Y9.4320
G01 X19.3959 Y9.3416
G01 X19.3090 Y9.2547
G01 X19.2186 Y9.1714
G01 X19.1246 Y9.0918
G01 X19.0278 Y9.0164
G01 X18.9279 Y8.9451
G01 X18.8252 Y8.8780
G01 X18.7193 Y8.8149
G01 X18.6110 Y8.7563
G01 X18.5009 Y8.7024
G01 X18.3883 Y8.6531
G01 X18.2740 Y8.6085
G01 X18.1576 Y8.5686
G01 X18.0395 Y8.5334
G01 X17.9206 Y8.5033
G01 X17.8003 Y8.4781
G01 X17.6787 Y8.4578
G01 X17.5568 Y8.4425
G01 X17.4348 Y8.4324
G01 X17.3120 Y8.4274
G01 X17.1886 Y8.4274
G01 X17.0658 Y8.4324
G01 X16.9439 Y8.4425
G01 X16.8219 Y8.4578
G01 X16.7003 Y8.4781
G01 X16.5800 Y8.5033
G01 X16.4610 Y8.5334
G01 X16.3431 Y8.5685
G01 X16.2267 Y8.6085
G01 X16.1122 Y8.6531
G01 X15.9997 Y8.7024
G01 X15.8896 Y8.7563
G01 X15.7815 Y8.8148
G01 X15.6757 Y8.8778
G01 X15.5728 Y8.9451
G01 X15.4727 Y9.0165
G01 X15.3760 Y9.0918
G01 X15.2823 Y9.1712
G01 X15.1914 Y9.2549
G01 X15.1045 Y9.3418
G01 X15.0216 Y9.4318
G01 X14.9421 Y9.5257
G01 X14.8665 Y9.6228
G01 X14.7950 Y9.7230
G01 X14.7278 Y9.8257
G01 X14.6651 Y9.9309
G01 X14.6065 Y10.0393
G01 X14.5525 Y10.1497
G01 X14.5030 Y10.2627
G01 X14.4583 Y10.3770
G01 X14.4186 Y10.4930
G01 X14.3834 Y10.6111
G01 X14.3533 Y10.7300
G01 X14.3281 Y10.8503
G01 X14.3078 Y10.9714
G01 X14.2926 Y11.0934
G01 X14.2825 Y11.2162
G01 X14.2774 Y11.3390
G01 X14.2774 Y11.4616
G01 X14.2825 Y11.5844
G01 X14.2926 Y11.7071
G01 X14.3078 Y11.8291
G01 X14.3281 Y11.9503
G01 X14.3533 Y12.0706
G01 X14.3834 Y12.1896
G01 X14.4185 Y12.3075
G01 X14.4583 Y12.4236
G01 X14.5031 Y12.5381
G01 X14.5525 Y12.6509
G01 X14.6065 Y12.7613
G01 X14.6650 Y12.8695
G01 X14.7278 Y12.9748
G01 X14.7950 Y13.0776
G01 X14.8665 Y13.1777
G01 X14.9421 Y13.2748
G01 X15.0214 Y13.3685
G01 X15.1047 Y13.4589
G01 X15.1917 Y13.5459
G01 X15.2821 Y13.6292
G01 X15.3758 Y13.7085
G01 X15.4727 Y13.7840
G01 X15.5731 Y13.8556
G01 X15.6760 Y13.9229
G01 X15.7811 Y13.9856
G01 X15.8893 Y14.0441
G01 X15.9997 Y14.0981
G01 X16.1125 Y14.1475
G01 X16.2270 Y14.1923
G01 X16.3431 Y14.2321
G01 X16.4610 Y14.2672
G01 X16.5800 Y14.2973
G01 X16.7003 Y14.3225
G01 X16.8215 Y14.3428
G01 X16.9435 Y14.3580
G01 X17.0662 Y14.3681
G01 X17.1890 Y14.3732
G01 X17.3116 Y14.3732
G01 X17.4344 Y14.3681
G01 X17.5572 Y14.3580
G01 X17.6792 Y14.3428
G01 X17.8003 Y14.3225
G01 X17.9206 Y14.2973
G01 X18.0395 Y14.2672
G01 X18.1576 Y14.2320
G01 X18.2736 Y14.1923
G01 X18.3879 Y14.1476
G01 X18.5009 Y14.0981
G01 X18.6113 Y14.0441
G01 X18.7197 Y13.9855
G01 X18.8249 Y13.9228
G01 X18.9276 Y13.8556
G01 X19.0278 Y13.7841
G01 X19.1249 Y13.7085
G01 X19.2188 Y13.6290
G01 X19.3088 Y13.5461
G01 X19.3957 Y13.4592
G01 X19.4794 Y13.3683
G01 X19.5588 Y13.2746
G01 X19.6342 Y13.1777
G01 X19.7055 Y13.0779
G01 X19.7726 Y12.9751
G01 X19.8358 Y12.8691
G01 X19.8943 Y12.7610
G01 X19.9482 Y12.6509
G01 X19.9975 Y12.5384
G01 X20.0423 Y12.4236
G01 X20.0822 Y12.3075
G01 X20.1171 Y12.1900
G01 X20.1473 Y12.0706
G01 X20.1725 Y11.9503
G01 X20.1928 Y11.8287
G01 X20.2081 Y11.7067
G01 X20.2182 Y11.5848
G01 X20.2232 Y11.4620
G01 X20.2232 Y11.3386
G00 X20.2232 Y11.3386
G01 F1.00
G01 Z-1.2000
G01 F35.00
G01 X20.2182 Y11.2158
G01 X20.2081 Y11.0938
G01 X20.1928 Y10.9719
G01 X20.1725 Y10.8503
G01 X20.1473 Y10.7300
G01 X20.1171 Y10.6107
G01 X20.0821 Y10.4930
G01 X20.0423 Y10.3770
G01 X19.9975 Y10.2623
G01 X19.9482 Y10.1497
G01 X19.8943 Y10.0396
G01 X19.8357 Y9.9313
G01 X19.7726 Y9.8254
G01 X19.7055 Y9.7227
G01 X19.6342 Y9.6228
G01 X19.5588 Y9.5260
G01 X19.4792 Y9.4320
G01 X19.3959 Y9.3416
G01 X19.3090 Y9.2547
G01 X19.2186 Y9.1714
G01 X19.1246 Y9.0918
G01 X19.0278 Y9.0164
G01 X18.9279 Y8.9451
G01 X18.8252 Y8.8780
G01 X18.7193 Y8.8149
G01 X18.6110 Y8.7563
G01 X18.5009 Y8.7024
G01 X18.3883 Y8.6531
G01 X18.2740 Y8.6085
G01 X18.1576 Y8.5686
G01 X18.0395 Y8.5334
G01 X17.9206 Y8.5033
G01 X17.8003 Y8.4781
G01 X17.6787 Y8.4578
G01 X17.5568 Y8.4425
G01 X17.4348 Y8.4324
G01 X17.3120 Y8.4274
G01 X17.1886 Y8.4274
G01 X17.0658 Y8.4324
G01 X16.9439 Y8.4425
G01 X16.8219 Y8.4578
G01 X16.7003 Y8.4781
G01 X16.5800 Y8.5033
G01 X16.4610 Y8.5334
G01 X16.3431 Y8.5685
G01 X16.2267 Y8.6085
G01 X16.1122 Y8.6531
G01 X15.9997 Y8.7024
G01 X15.8896 Y8.7563
G01 X15.7815 Y8.8148
G01 X15.6757 Y8.8778
G01 X15.5728 Y8.9451
G01 X15.4727 Y9.0165
G01 X15.3760 Y9.0918
G01 X15.2823 Y9.1712
G01 X15.1914 Y9.2549
G01 X15.1045 Y9.3418
G01 X15.0216 Y9.4318
G01 X14.9421 Y9.5257
G01 X14.8665 Y9.6228
G01 X14.7950 Y9.7230
G01 X14.7278 Y9.8257
G01 X14.6651 Y9.9309
G01 X14.6065 Y10.0393
G01 X14.5525 Y10.1497
G01 X14.5030 Y10.2627
G01 X14.4583 Y10.3770
G01 X14.4186 Y10.4930
G01 X14.3834 Y10.6111
G01 X14.3533 Y10.7300
G01 X14.3281 Y10.8503
G01 X14.3078 Y10.9714
G01 X14.2926 Y11.0934
G01 X14.2825 Y11.2162
G01 X14.2774 Y11.3390
G01 X14.2774 Y11.4616
G01 X14.2825 Y11.5844
G01 X14.2926 Y11.7071
G01 X14.3078 Y11.8291
G01 X14.3281 Y11.9503
G01 X14.3533 Y12.0706
G01 X14.3834 Y12.1896
G01 X14.4185 Y12.3075
G01 X14.4583 Y12.4236
G01 X14.5031 Y12.5381
G01 X14.5525 Y12.6509
G01 X14.6065 Y12.7613
G01 X14.6650 Y12.8695
G01 X14.7278 Y12.9748
G01 X14.7950 Y13.0776
G01 X14.8665 Y13.1777
G01 X14.9421 Y13.2748
G01 X15.0214 Y13.3685
G01 X15.1047 Y13.4589
G01 X15.1917 Y13.5459
G01 X15.2821 Y13.6292
G01 X15.3758 Y13.7085
G01 X15.4727 Y13.7840
G01 X15.5731 Y13.8556
G01 X15.6760 Y13.9229
G01 X15.7811 Y13.9856
G01 X15.8893 Y14.0441
G01 X15.9997 Y14.0981
G01 X16.1125 Y14.1475
G01 X16.2270 Y14.1923
G01 X16.3431 Y14.2321
G01 X16.4610 Y14.2672
G01 X16.5800 Y14.2973
G01 X16.7003 Y14.3225
G01 X16.8215 Y14.3428
G01 X16.9435 Y14.3580
G01 X17.0662 Y14.3681
G01 X17.1890 Y14.3732
G01 X17.3116 Y14.3732
G01 X17.4344 Y14.3681
G01 X17.5572 Y14.3580
G01 X17.6792 Y14.3428
G01 X17.8003 Y14.3225
G01 X17.9206 Y14.2973
G01 X18.0395 Y14.2672
G01 X18.1576 Y14.2320
G01 X18.2736 Y14.1923
G01 X18.3879 Y14.1476
G01 X18.5009 Y14.0981
G01 X18.6113 Y14.0441
G01 X18.7197 Y13.9855
G01 X18.8249 Y13.9228
G01 X18.9276 Y13.8556
G01 X19.0278 Y13.7841
G01 X19.1249 Y13.7085
G01 X19.2188 Y13.6290
G01 X19.3088 Y13.5461
G01 X19.3957 Y13.4592
G01 X19.4794 Y13.3683
G01 X19.5588 Y13.2746
G01 X19.6342 Y13.1777
G01 X19.7055 Y13.0779
G01 X19.7726 Y12.9751
G01 X19.8358 Y12.8691
G01 X19.8943 Y12.7610
G01 X19.9482 Y12.6509
G01 X19.9975 Y12.5384
G01 X20.0423 Y12.4236
G01 X20.0822 Y12.3075
G01 X20.1171 Y12.1900
G01 X20.1473 Y12.0706
G01 X20.1725 Y11.9503
G01 X20.1928 Y11.8287
G01 X20.2081 Y11.7067
G01 X20.2182 Y11.5848
G01 X20.2232 Y11.4620
G01 X20.2232 Y11.3386
G00 X20.2232 Y11.3386
G01 F1.00
G01 Z-1.5000
G01 F35.00
G01 X20.2182 Y11.2158
G01 X20.2081 Y11.0938
G01 X20.1928 Y10.9719
G01 X20.1725 Y10.8503
G01 X20.1473 Y10.7300
G01 X20.1171 Y10.6107
G01 X20.0821 Y10.4930
G01 X20.0423 Y10.3770
G01 X19.9975 Y10.2623
G01 X19.9482 Y10.1497
G01 X19.8943 Y10.0396
G01 X19.8357 Y9.9313
G01 X19.7726 Y9.8254
G01 X19.7055 Y9.7227
G01 X19.6342 Y9.6228
G01 X19.5588 Y9.5260
G01 X19.4792 Y9.4320
G01 X19.3959 Y9.3416
G01 X19.3090 Y9.2547
G01 X19.2186 Y9.1714
G01 X19.1246 Y9.0918
G01 X19.0278 Y9.0164
G01 X18.9279 Y8.9451
G01 X18.8252 Y8.8780
G01 X18.7193 Y8.8149
G01 X18.6110 Y8.7563
G01 X18.5009 Y8.7024
G01 X18.3883 Y8.6531
G01 X18.2740 Y8.6085
G01 X18.1576 Y8.5686
G01 X18.0395 Y8.5334
G01 X17.9206 Y8.5033
G01 X17.8003 Y8.4781
G01 X17.6787 Y8.4578
G01 X17.5568 Y8.4425
G01 X17.4348 Y8.4324
G01 X17.3120 Y8.4274
G01 X17.1886 Y8.4274
G01 X17.0658 Y8.4324
G01 X16.9439 Y8.4425
G01 X16.8219 Y8.4578
G01 X16.7003 Y8.4781
G01 X16.5800 Y8.5033
G01 X16.4610 Y8.5334
G01 X16.3431 Y8.5685
G01 X16.2267 Y8.6085
G01 X16.1122 Y8.6531
G01 X15.9997 Y8.7024
G01 X15.8896 Y8.7563
G01 X15.7815 Y8.8148
G01 X15.6757 Y8.8778
G01 X15.5728 Y8.9451
G01 X15.4727 Y9.0165
G01 X15.3760 Y9.0918
G01 X15.2823 Y9.1712
G01 X15.1914 Y9.2549
G01 X15.1045 Y9.3418
G01 X15.0216 Y9.4318
G01 X14.9421 Y9.5257
G01 X14.8665 Y9.6228
G01 X14.7950 Y9.7230
G01 X14.7278 Y9.8257
G01 X14.6651 Y9.9309
G01 X14.6065 Y10.0393
G01 X14.5525 Y10.1497
G01 X14.5030 Y10.2627
G01 X14.4583 Y10.3770
G01 X14.4186 Y10.4930
G01 X14.3834 Y10.6111
G01 X14.3533 Y10.7300
G01 X14.3281 Y10.8503
G01 X14.3078 Y10.9714
G01 X14.2926 Y11.0934
G01 X14.2825 Y11.2162
G01 X14.2774 Y11.3390
G01 X14.2774 Y11.4616
G01 X14.2825 Y11.5844
G01 X14.2926 Y11.7071
G01 X14.3078 Y11.8291
G01 X14.3281 Y11.9503
G01 X14.3533 Y12.0706
G01 X14.3834 Y12.1896
G01 X14.4185 Y12.3075
G01 X14.4583 Y12.4236
G01 X14.5031 Y12.5381
G01 X14.5525 Y12.6509
G01 X14.6065 Y12.7613
G01 X14.6650 Y12.8695
G01 X14.7278 Y12.9748
G01 X14.7950 Y13.0776
G01 X14.8665 Y13.1777
G01 X14.9421 Y13.2748
G01 X15.0214 Y13.3685
G01 X15.1047 Y13.4589
G01 X15.1917 Y13.5459
G01 X15.2821 Y13.6292
G01 X15.3758 Y13.7085
G01 X15.4727 Y13.7840
G01 X15.5731 Y13.8556
G01 X15.6760 Y13.9229
G01 X15.7811 Y13.9856
G01 X15.8893 Y14.0441
G01 X15.9997 Y14.0981
G01 X16.1125 Y14.1475
G01 X16.2270 Y14.1923
G01 X16.3431 Y14.2321
G01 X16.4610 Y14.2672
G01 X16.5800 Y14.2973
G01 X16.7003 Y14.3225
G01 X16.8215 Y14.3428
G01 X16.9435 Y14.3580
G01 X17.0662 Y14.3681
G01 X17.1890 Y14.3732
G01 X17.3116 Y14.3732
G01 X17.4344 Y14.3681
G01 X17.5572 Y14.3580
G01 X17.6792 Y14.3428
G01 X17.8003 Y14.3225
G01 X17.9206 Y14.2973
G01 X18.0395 Y14.2672
G01 X18.1576 Y14.2320
G01 X18.2736 Y14.1923
G01 X18.3879 Y14.1476
G01 X18.5009 Y14.0981
G01 X18.6113 Y14.0441
G01 X18.7197 Y13.9855
G01 X18.8249 Y13.9228
G01 X18.9276 Y13.8556
G01 X19.0278 Y13.7841
G01 X19.1249 Y13.7085
G01 X19.2188 Y13.6290
G01 X19.3088 Y13.5461
G01 X19.3957 Y13.4592
G01 X19.4794 Y13.3683
G01 X19.5588 Y13.2746
G01 X19.6342 Y13.1777
G01 X19.7055 Y13.0779
G01 X19.7726 Y12.9751
G01 X19.8358 Y12.8691
G01 X19.8943 Y12.7610
G01 X19.9482 Y12.6509
G01 X19.9975 Y12.5384
G01 X20.0423 Y12.4236
G01 X20.0822 Y12.3075
G01 X20.1171 Y12.1900
G01 X20.1473 Y12.0706
G01 X20.1725 Y11.9503
G01 X20.1928 Y11.8287
G01 X20.2081 Y11.7067
G01 X20.2182 Y11.5848
G01 X20.2232 Y11.4620
G01 X20.2232 Y11.3386
G00 X20.2232 Y11.3386
G01 F1.00
G01 Z-1.8000
G01 F35.00
G01 X20.2182 Y11.2158
G01 X20.2081 Y11.0938
G01 X20.1928 Y10.9719
G01 X20.1725 Y10.8503
G01 X20.1473 Y10.7300
G01 X20.1171 Y10.6107
G01 X20.0821 Y10.4930
G01 X20.0423 Y10.3770
G01 X19.9975 Y10.2623
G01 X19.9482 Y10.1497
G01 X19.8943 Y10.0396
G01 X19.8357 Y9.9313
G01 X19.7726 Y9.8254
G01 X19.7055 Y9.7227
G01 X19.6342 Y9.6228
G01 X19.5588 Y9.5260
G01 X19.4792 Y9.4320
G01 X19.3959 Y9.3416
G01 X19.3090 Y9.2547
G01 X19.2186 Y9.1714
G01 X19.1246 Y9.0918
G01 X19.0278 Y9.0164
G01 X18.9279 Y8.9451
G01 X18.8252 Y8.8780
G01 X18.7193 Y8.8149
G01 X18.6110 Y8.7563
G01 X18.5009 Y8.7024
G01 X18.3883 Y8.6531
G01 X18.2740 Y8.6085
G01 X18.1576 Y8.5686
G01 X18.0395 Y8.5334
G01 X17.9206 Y8.5033
G01 X17.8003 Y8.4781
G01 X17.6787 Y8.4578
G01 X17.5568 Y8.4425
G01 X17.4348 Y8.4324
G01 X17.3120 Y8.4274
G01 X17.1886 Y8.4274
G01 X17.0658 Y8.4324
G01 X16.9439 Y8.4425
G01 X16.8219 Y8.4578
G01 X16.7003 Y8.4781
G01 X16.5800 Y8.5033
G01 X16.4610 Y8.5334
G01 X16.3431 Y8.5685
G01 X16.2267 Y8.6085
G01 X16.1122 Y8.6531
G01 X15.9997 Y8.7024
G01 X15.8896 Y8.7563
G01 X15.7815 Y8.8148
G01 X15.6757 Y8.8778
G01 X15.5728 Y8.9451
G01 X15.4727 Y9.0165
G01 X15.3760 Y9.0918
G01 X15.2823 Y9.1712
G01 X15.1914 Y9.2549
G01 X15.1045 Y9.3418
G01 X15.0216 Y9.4318
G01 X14.9421 Y9.5257
G01 X14.8665 Y9.6228
G01 X14.7950 Y9.7230
G01 X14.7278 Y9.8257
G01 X14.6651 Y9.9309
G01 X14.6065 Y10.0393
G01 X14.5525 Y10.1497
G01 X14.5030 Y10.2627
G01 X14.4583 Y10.3770
G01 X14.4186 Y10.4930
G01 X14.3834 Y10.6111
G01 X14.3533 Y10.7300
G01 X14.3281 Y10.8503
G01 X14.3078 Y10.9714
G01 X14.2926 Y11.0934
G01 X14.2825 Y11.2162
G01 X14.2774 Y11.3390
G01 X14.2774 Y11.4616
G01 X14.2825 Y11.5844
G01 X14.2926 Y11.7071
G01 X14.3078 Y11.8291
G01 X14.3281 Y11.9503
G01 X14.3533 Y12.0706
G01 X14.3834 Y12.1896
G01 X14.4185 Y12.3075
G01 X14.4583 Y12.4236
G01 X14.5031 Y12.5381
G01 X14.5525 Y12.6509
G01 X14.6065 Y12.7613
G01 X14.6650 Y12.8695
G01 X14.7278 Y12.9748
G01 X14.7950 Y13.0776
G01 X14.8665 Y13.1777
G01 X14.9421 Y13.2748
G01 X15.0214 Y13.3685
G01 X15.1047 Y13.4589
G01 X15.1917 Y13.5459
G01 X15.2821 Y13.6292
G01 X15.3758 Y13.7085
G01 X15.4727 Y13.7840
G01 X15.5731 Y13.8556
G01 X15.6760 Y13.9229
G01 X15.7811 Y13.9856
G01 X15.8893 Y14.0441
G01 X15.9997 Y14.0981
G01 X16.1125 Y14.1475
G01 X16.2270 Y14.1923
G01 X16.3431 Y14.2321
G01 X16.4610 Y14.2672
G01 X16.5800 Y14.2973
G01 X16.7003 Y14.3225
G01 X16.8215 Y14.3428
G01 X16.9435 Y14.3580
G01 X17.0662 Y14.3681
G01 X17.1890 Y14.3732
G01 X17.3116 Y14.3732
G01 X17.4344 Y14.3681
G01 X17.5572 Y14.3580
G01 X17.6792 Y14.3428
G01 X17.8003 Y14.3225
G01 X17.9206 Y14.2973
G01 X18.0395 Y14.2672
G01 X18.1576 Y14.2320
G01 X18.2736 Y14.1923
G01 X18.3879 Y14.1476
G01 X18.5009 Y14.0981
G01 X18.6113 Y14.0441
G01 X18.7197 Y13.9855
G01 X18.8249 Y13.9228
G01 X18.9276 Y13.8556
G01 X19.0278 Y13.7841
G01 X19.1249 Y13.7085
G01 X19.2188 Y13.6290
G01 X19.3088 Y13.5461
G01 X19.3957 Y13.4592
G01 X19.4794 Y13.3683
G01 X19.5588 Y13.2746
G01 X19.6342 Y13.1777
G01 X19.7055 Y13.0779
G01 X19.7726 Y12.9751
G01 X19.8358 Y12.8691
G01 X19.8943 Y12.7610
G01 X19.9482 Y12.6509
G01 X19.9975 Y12.5384
G01 X20.0423 Y12.4236
G01 X20.0822 Y12.3075
G01 X20.1171 Y12.1900
G01 X20.1473 Y12.0706
G01 X20.1725 Y11.9503
G01 X20.1928 Y11.8287
G01 X20.2081 Y11.7067
G01 X20.2182 Y11.5848
G01 X20.2232 Y11.4620
G01 X20.2232 Y11.3386
G00 X20.2232 Y11.3386
G01 F1.00
G01 Z-1.8500
G01 F35.00
G01 X20.2182 Y11.2158
G01 X20.2081 Y11.0938
G01 X20.1928 Y10.9719
G01 X20.1725 Y10.8503
G01 X20.1473 Y10.7300
G01 X20.1171 Y10.6107
G01 X20.0821 Y10.4930
G01 X20.0423 Y10.3770
G01 X19.9975 Y10.2623
G01 X19.9482 Y10.1497
G01 X19.8943 Y10.0396
G01 X19.8357 Y9.9313
G01 X19.7726 Y9.8254
G01 X19.7055 Y9.7227
G01 X19.6342 Y9.6228
G01 X19.5588 Y9.5260
G01 X19.4792 Y9.4320
G01 X19.3959 Y9.3416
G01 X19.3090 Y9.2547
G01 X19.2186 Y9.1714
G01 X19.1246 Y9.0918
G01 X19.0278 Y9.0164
G01 X18.9279 Y8.9451
G01 X18.8252 Y8.8780
G01 X18.7193 Y8.8149
G01 X18.6110 Y8.7563
G01 X18.5009 Y8.7024
G01 X18.3883 Y8.6531
G01 X18.2740 Y8.6085
G01 X18.1576 Y8.5686
G01 X18.0395 Y8.5334
G01 X17.9206 Y8.5033
G01 X17.8003 Y8.4781
G01 X17.6787 Y8.4578
G01 X17.5568 Y8.4425
G01 X17.4348 Y8.4324
G01 X17.3120 Y8.4274
G01 X17.1886 Y8.4274
G01 X17.0658 Y8.4324
G01 X16.9439 Y8.4425
G01 X16.8219 Y8.4578
G01 X16.7003 Y8.4781
G01 X16.5800 Y8.5033
G01 X16.4610 Y8.5334
G01 X16.3431 Y8.5685
G01 X16.2267 Y8.6085
G01 X16.1122 Y8.6531
G01 X15.9997 Y8.7024
G01 X15.8896 Y8.7563
G01 X15.7815 Y8.8148
G01 X15.6757 Y8.8778
G01 X15.5728 Y8.9451
G01 X15.4727 Y9.0165
G01 X15.3760 Y9.0918
G01 X15.2823 Y9.1712
G01 X15.1914 Y9.2549
G01 X15.1045 Y9.3418
G01 X15.0216 Y9.4318
G01 X14.9421 Y9.5257
G01 X14.8665 Y9.6228
G01 X14.7950 Y9.7230
G01 X14.7278 Y9.8257
G01 X14.6651 Y9.9309
G01 X14.6065 Y10.0393
G01 X14.5525 Y10.1497
G01 X14.5030 Y10.2627
G01 X14.4583 Y10.3770
G01 X14.4186 Y10.4930
G01 X14.3834 Y10.6111
G01 X14.3533 Y10.7300
G01 X14.3281 Y10.8503
G01 X14.3078 Y10.9714
G01 X14.2926 Y11.0934
G01 X14.2825 Y11.2162
G01 X14.2774 Y11.3390
G01 X14.2774 Y11.4616
G01 X14.2825 Y11.5844
G01 X14.2926 Y11.7071
G01 X14.3078 Y11.8291
G01 X14.3281 Y11.9503
G01 X14.3533 Y12.0706
G01 X14.3834 Y12.1896
G01 X14.4185 Y12.3075
G01 X14.4583 Y12.4236
G01 X14.5031 Y12.5381
G01 X14.5525 Y12.6509
G01 X14.6065 Y12.7613
G01 X14.6650 Y12.8695
G01 X14.7278 Y12.9748
G01 X14.7950 Y13.0776
G01 X14.8665 Y13.1777
G01 X14.9421 Y13.2748
G01 X15.0214 Y13.3685
G01 X15.1047 Y13.4589
G01 X15.1917 Y13.5459
G01 X15.2821 Y13.6292
G01 X15.3758 Y13.7085
G01 X15.4727 Y13.7840
G01 X15.5731 Y13.8556
G01 X15.6760 Y13.9229
G01 X15.7811 Y13.9856
G01 X15.8893 Y14.0441
G01 X15.9997 Y14.0981
G01 X16.1125 Y14.1475
G01 X16.2270 Y14.1923
G01 X16.3431 Y14.2321
G01 X16.4610 Y14.2672
G01 X16.5800 Y14.2973
G01 X16.7003 Y14.3225
G01 X16.8215 Y14.3428
G01 X16.9435 Y14.3580
G01 X17.0662 Y14.3681
G01 X17.1890 Y14.3732
G01 X17.3116 Y14.3732
G01 X17.4344 Y14.3681
G01 X17.5572 Y14.3580
G01 X17.6792 Y14.3428
G01 X17.8003 Y14.3225
G01 X17.9206 Y14.2973
G01 X18.0395 Y14.2672
G01 X18.1576 Y14.2320
G01 X18.2736 Y14.1923
G01 X18.3879 Y14.1476
G01 X18.5009 Y14.0981
G01 X18.6113 Y14.0441
G01 X18.7197 Y13.9855
G01 X18.8249 Y13.9228
G01 X18.9276 Y13.8556
G01 X19.0278 Y13.7841
G01 X19.1249 Y13.7085
G01 X19.2188 Y13.6290
G01 X19.3088 Y13.5461
G01 X19.3957 Y13.4592
G01 X19.4794 Y13.3683
G01 X19.5588 Y13.2746
G01 X19.6342 Y13.1777
G01 X19.7055 Y13.0779
G01 X19.7726 Y12.9751
G01 X19.8358 Y12.8691
G01 X19.8943 Y12.7610
G01 X19.9482 Y12.6509
G01 X19.9975 Y12.5384
G01 X20.0423 Y12.4236
G01 X20.0822 Y12.3075
G01 X20.1171 Y12.1900
G01 X20.1473 Y12.0706
G01 X20.1725 Y11.9503
G01 X20.1928 Y11.8287
G01 X20.2081 Y11.7067
G01 X20.2182 Y11.5848
G01 X20.2232 Y11.4620
G01 X20.2232 Y11.3386
G00 Z5.0000
M05
G00 Z5.0000
G00 Z15.00


