(G-CODE GENERATED BY FLATCAM v8.994 - www.flatcam.org - Version Date: 2020/11/7)

(Name: drill_1_16.xln_cnc)
(Type: G-code from Geometry)
(Units: MM)

(Created on Saturday, 04 March 2023 at 20:15)

(This preprocessor is the default preprocessor used by FlatCAM.)
(It is made to work with MACH3 compatible motion controllers.)


(TOOLS DIAMETER: )
(Tool: 1 -> Dia: 2.5)
(Tool: 2 -> Dia: 3.1)

(FEEDRATE Z: )
(Tool: 1 -> Feedrate: 10.0)
(Tool: 2 -> Feedrate: 10.0)

(FEEDRATE RAPIDS: )
(Tool: 1 -> Feedrate Rapids: 1500)
(Tool: 2 -> Feedrate Rapids: 1500)

(Z_CUT: )
(Tool: 1 -> Z_Cut: -1.9)
(Tool: 2 -> Z_Cut: -1.9)

(Tools Offset: )
(Tool: 1 -> Offset Z: 0.0)
(Tool: 2 -> Offset Z: 0.0)

(Z_MOVE: )
(Tool: 1 -> Z_Move: 5.0)
(Tool: 2 -> Z_Move: 5.0)

(Z Toolchange: 15 mm)
(X,Y Toolchange: 0.0000, 0.0000 mm)
(Z Start: None mm)
(Z End: 15.0 mm)
(X,Y End: None mm)
(Steps per circle: 64)
(Preprocessor Excellon: default)

(X range:    2.7010 ...   31.8000  mm)
(Y range:    3.8490 ...   18.6480  mm)

(Spindle Speed: 0 RPM)
G21
G90
G94

G01 F10.00

M5
G00 Z15.0000
T1
G00 X0.0000 Y0.0000                
M6
(MSG, Change to Tool Dia = 2.5000 ||| Total drills for tool T1 = 8)
M0
G00 Z15.0000

G01 F10.00
M03
G00 X17.2500 Y17.3980
G01 Z-1.9000
G01 Z0
G00 Z5.0000
G00 X22.4450 Y14.4030
G01 Z-1.9000
G01 Z0
G00 Z5.0000
G00 X30.2500 Y5.3990
G01 Z-1.9000
G01 Z0
G00 Z5.0000
G00 X22.4460 Y8.4000
G01 Z-1.9000
G01 Z0
G00 Z5.0000
G00 X17.2500 Y5.4030
G01 Z-1.9000
G01 Z0
G00 Z5.0000
G00 X12.0550 Y8.4000
G01 Z-1.9000
G01 Z0
G00 Z5.0000
G00 X4.2510 Y5.3990
G01 Z-1.9000
G01 Z0
G00 Z5.0000
G00 X12.0560 Y14.3980
G01 Z-1.9000
G01 Z0
G00 Z5.0000
M05
G00 Z15.00


