(G-CODE GENERATED BY FLATCAM v8.994 - www.flatcam.org - Version Date: 2020/11/7)

(Name: profile.gbr_edit_1_iso_combined_cnc)
(Type: G-code from Geometry)
(Units: MM)

(Created on Saturday, 04 March 2023 at 20:14)

(This preprocessor is the default preprocessor used by FlatCAM.)
(It is made to work with MACH3 compatible motion controllers.)

(TOOL DIAMETER: 3.0 mm)
(Feedrate_XY: 20.0 mm/min)
(Feedrate_Z: 10.0 mm/min)
(Feedrate rapids 1500.0 mm/min)

(Z_Cut: -1.85 mm)
(DepthPerCut: 0.3 mm <=>7 passes)
(Z_Move: 5.0 mm)
(Z Start: None mm)
(Z End: 15.0 mm)
(X,Y End: None mm)
(Steps per circle: 64)
(Preprocessor Geometry: default)

(X range:   -1.6271 ...   36.1271  mm)
(Y range:   -1.6271 ...   24.7124  mm)

(Spindle Speed: 0.0 RPM)
G21
G90
G94

G01 F20.00

M5
G00 Z15.0000
G00 X0.0000 Y0.0000
T2
M6    
(MSG, Change to Tool Dia = 3.0000)
M0
G00 Z15.0000

M03
G01 F20.00
G00 X-1.6271 Y7.5000
G01 F10.00
G01 Z-0.3000
G01 F20.00
G01 X-1.6271 Y0.0000
G01 X-1.6266 Y-0.0368
G01 X-1.6253 Y-0.0736
G01 X-1.6226 Y-0.1194
G01 X-1.6196 Y-0.1560
G01 X-1.6156 Y-0.1926
G01 X-1.6102 Y-0.2326
G01 X-1.6013 Y-0.2885
G01 X-1.5943 Y-0.3247
G01 X-1.5865 Y-0.3606
G01 X-1.5766 Y-0.4014
G01 X-1.5626 Y-0.4534
G01 X-1.5537 Y-0.4832
G01 X-1.5441 Y-0.5128
G01 X-1.5339 Y-0.5422
G01 X-1.5187 Y-0.5837
G01 X-1.5052 Y-0.6179
G01 X-1.4908 Y-0.6518
G01 X-1.4680 Y-0.7012
G01 X-1.4567 Y-0.7246
G01 X-1.4400 Y-0.7574
G01 X-1.4225 Y-0.7898
G01 X-1.3922 Y-0.8417
G01 X-1.3697 Y-0.8782
G01 X-1.3495 Y-0.9090
G01 X-1.3285 Y-0.9393
G01 X-1.3105 Y-0.9641
G01 X-1.2727 Y-1.0136
G01 X-1.2522 Y-1.0389
G01 X-1.2312 Y-1.0636
G01 X-1.2013 Y-1.0972
G01 X-1.1705 Y-1.1301
G01 X-1.1387 Y-1.1621
G01 X-1.1181 Y-1.1819
G01 X-1.0879 Y-1.2096
G01 X-1.0636 Y-1.2312
G01 X-1.0389 Y-1.2522
G01 X-1.0136 Y-1.2727
G01 X-0.9641 Y-1.3105
G01 X-0.9206 Y-1.3416
G01 X-0.8946 Y-1.3590
G01 X-0.8684 Y-1.3759
G01 X-0.8311 Y-1.3987
G01 X-0.7992 Y-1.4172
G01 X-0.7670 Y-1.4349
G01 X-0.7343 Y-1.4519
G01 X-0.6900 Y-1.4734
G01 X-0.6542 Y-1.4897
G01 X-0.6203 Y-1.5042
G01 X-0.5861 Y-1.5178
G01 X-0.5422 Y-1.5339
G01 X-0.4958 Y-1.5497
G01 X-0.4607 Y-1.5605
G01 X-0.4252 Y-1.5705
G01 X-0.4014 Y-1.5766
G01 X-0.3454 Y-1.5900
G01 X-0.3093 Y-1.5974
G01 X-0.2731 Y-1.6039
G01 X-0.2326 Y-1.6102
G01 X-0.2037 Y-1.6142
G01 X-0.1671 Y-1.6185
G01 X-0.1305 Y-1.6218
G01 X-0.0861 Y-1.6246
G01 X-0.0368 Y-1.6266
G01 X0.0000 Y-1.6271
G01 X34.5000 Y-1.6271
G01 X34.5368 Y-1.6266
G01 X34.5861 Y-1.6246
G01 X34.6228 Y-1.6224
G01 X34.6595 Y-1.6192
G01 X34.6961 Y-1.6152
G01 X34.7326 Y-1.6102
G01 X34.7812 Y-1.6025
G01 X34.8174 Y-1.5958
G01 X34.8534 Y-1.5882
G01 X34.8893 Y-1.5797
G01 X34.9370 Y-1.5673
G01 X34.9723 Y-1.5570
G01 X35.0074 Y-1.5459
G01 X35.0540 Y-1.5297
G01 X35.0885 Y-1.5169
G01 X35.1227 Y-1.5032
G01 X35.1565 Y-1.4887
G01 X35.1900 Y-1.4734
G01 X35.2343 Y-1.4519
G01 X35.2670 Y-1.4349
G01 X35.2992 Y-1.4172
G01 X35.3417 Y-1.3922
G01 X35.3731 Y-1.3729
G01 X35.4039 Y-1.3529
G01 X35.4343 Y-1.3320
G01 X35.4742 Y-1.3030
G01 X35.5035 Y-1.2807
G01 X35.5322 Y-1.2577
G01 X35.5604 Y-1.2340
G01 X35.5972 Y-1.2013
G01 X35.6242 Y-1.1762
G01 X35.6505 Y-1.1505
G01 X35.6762 Y-1.1242
G01 X35.7013 Y-1.0972
G01 X35.7340 Y-1.0604
G01 X35.7577 Y-1.0322
G01 X35.7807 Y-1.0035
G01 X35.8030 Y-0.9742
G01 X35.8320 Y-0.9343
G01 X35.8529 Y-0.9039
G01 X35.8729 Y-0.8731
G01 X35.8987 Y-0.8311
G01 X35.9172 Y-0.7992
G01 X35.9349 Y-0.7670
G01 X35.9519 Y-0.7343
G01 X35.9680 Y-0.7012
G01 X35.9887 Y-0.6565
G01 X36.0032 Y-0.6226
G01 X36.0169 Y-0.5885
G01 X36.0339 Y-0.5422
G01 X36.0459 Y-0.5074
G01 X36.0570 Y-0.4723
G01 X36.0673 Y-0.4370
G01 X36.0797 Y-0.3893
G01 X36.0882 Y-0.3534
G01 X36.0958 Y-0.3174
G01 X36.1025 Y-0.2812
G01 X36.1084 Y-0.2449
G01 X36.1152 Y-0.1961
G01 X36.1192 Y-0.1595
G01 X36.1224 Y-0.1228
G01 X36.1246 Y-0.0861
G01 X36.1266 Y-0.0368
G01 X36.1271 Y0.0000
G01 X36.1271 Y7.5000
G01 X36.1264 Y7.5447
G01 X36.1235 Y7.6045
G01 X36.1202 Y7.6491
G01 X36.1155 Y7.6936
G01 X36.1095 Y7.7379
G01 X36.0995 Y7.7969
G01 X36.0909 Y7.8408
G01 X36.0810 Y7.8844
G01 X36.0348 Y8.0744
G01 X36.0214 Y8.1257
G01 X36.0115 Y8.1598
G01 X36.0037 Y8.1851
G01 X35.9087 Y8.4825
G01 X35.8984 Y8.5136
G01 X35.8874 Y8.5446
G01 X35.8718 Y8.5857
G01 X35.8595 Y8.6161
G01 X35.7388 Y8.9042
G01 X35.7258 Y8.9342
G01 X35.7076 Y8.9738
G01 X35.6934 Y9.0031
G01 X35.6785 Y9.0322
G01 X35.5333 Y9.3086
G01 X35.5177 Y9.3375
G01 X35.5015 Y9.3661
G01 X35.4790 Y9.4040
G01 X35.4615 Y9.4318
G01 X35.2926 Y9.6945
G01 X35.2747 Y9.7217
G01 X35.2562 Y9.7485
G01 X35.2307 Y9.7840
G01 X35.2111 Y9.8099
G01 X35.0201 Y10.0569
G01 X34.9998 Y10.0826
G01 X34.9788 Y10.1079
G01 X34.9502 Y10.1413
G01 X34.9282 Y10.1656
G01 X34.7163 Y10.3950
G01 X34.6938 Y10.4188
G01 X34.6709 Y10.4421
G01 X34.6395 Y10.4727
G01 X34.6156 Y10.4949
G01 X34.3846 Y10.7049
G01 X34.3602 Y10.7266
G01 X34.3268 Y10.7549
G01 X34.3015 Y10.7755
G01 X34.2757 Y10.7956
G01 X34.0272 Y10.9848
G01 X34.0009 Y11.0043
G01 X33.9650 Y11.0297
G01 X33.9379 Y11.0481
G01 X33.9103 Y11.0660
G01 X33.6463 Y11.2327
G01 X33.6184 Y11.2498
G01 X33.5806 Y11.2719
G01 X33.5520 Y11.2878
G01 X33.5099 Y11.3099
G01 X33.2335 Y11.6168
G01 X31.4265 Y13.8580
G01 X29.8365 Y16.2260
G01 X28.4247 Y18.7858
G01 X28.4013 Y18.8267
G01 X28.3851 Y18.8537
G01 X28.3250 Y18.9483
G01 X28.2918 Y18.9972
G01 X27.7416 Y19.7776
G01 X27.7224 Y19.8042
G01 X27.6959 Y19.8391
G01 X27.6756 Y19.8648
G01 X27.6548 Y19.8900
G01 X27.0386 Y20.6195
G01 X27.0172 Y20.6443
G01 X26.9953 Y20.6685
G01 X26.9654 Y20.7005
G01 X26.9424 Y20.7238
G01 X26.2651 Y21.3968
G01 X26.2416 Y21.4196
G01 X26.2094 Y21.4494
G01 X26.1849 Y21.4712
G01 X26.1600 Y21.4925
G01 X25.4265 Y22.1038
G01 X25.4012 Y22.1244
G01 X25.3754 Y22.1445
G01 X25.3404 Y22.1707
G01 X25.3138 Y22.1897
G01 X24.5299 Y22.7349
G01 X24.5028 Y22.7533
G01 X24.4753 Y22.7711
G01 X24.4381 Y22.7942
G01 X24.4099 Y22.8108
G01 X23.5815 Y23.2855
G01 X23.5529 Y23.3015
G01 X23.5240 Y23.3168
G01 X23.4850 Y23.3365
G01 X23.4554 Y23.3506
G01 X22.5887 Y23.7514
G01 X22.5588 Y23.7648
G01 X22.5287 Y23.7776
G01 X22.4879 Y23.7939
G01 X22.4572 Y23.8054
G01 X21.5589 Y24.1290
G01 X21.5281 Y24.1397
G01 X21.4864 Y24.1531
G01 X21.4551 Y24.1625
G01 X21.4236 Y24.1712
G01 X20.5005 Y24.4154
G01 X20.4688 Y24.4234
G01 X20.4260 Y24.4331
G01 X20.3939 Y24.4397
G01 X20.3616 Y24.4457
G01 X19.4207 Y24.6084
G01 X19.3885 Y24.6136
G01 X19.3561 Y24.6181
G01 X19.3127 Y24.6233
G01 X19.2802 Y24.6264
G01 X18.3287 Y24.7066
G01 X18.2960 Y24.7090
G01 X18.2633 Y24.7107
G01 X18.2195 Y24.7121
G01 X18.1867 Y24.7124
G01 X17.2319 Y24.7093
G01 X17.1992 Y24.7088
G01 X17.1665 Y24.7076
G01 X17.1227 Y24.7052
G01 X17.0901 Y24.7026
G01 X16.1392 Y24.6163
G01 X16.1067 Y24.6130
G01 X16.0742 Y24.6090
G01 X16.0308 Y24.6027
G01 X15.9985 Y24.5973
G01 X15.0587 Y24.4284
G01 X15.0266 Y24.4223
G01 X14.9946 Y24.4154
G01 X14.9520 Y24.4055
G01 X14.9203 Y24.3973
G01 X13.9988 Y24.1472
G01 X13.9674 Y24.1383
G01 X13.9255 Y24.1253
G01 X13.8945 Y24.1150
G01 X13.8637 Y24.1041
G01 X12.9675 Y23.7747
G01 X12.9368 Y23.7630
G01 X12.9065 Y23.7507
G01 X12.8661 Y23.7335
G01 X12.8363 Y23.7199
G01 X11.9722 Y23.3135
G01 X11.9428 Y23.2992
G01 X11.9136 Y23.2843
G01 X11.8750 Y23.2636
G01 X11.8466 Y23.2475
G01 X11.0213 Y22.7674
G01 X10.9932 Y22.7506
G01 X10.9655 Y22.7333
G01 X10.9288 Y22.7094
G01 X10.9019 Y22.6908
G01 X10.1215 Y22.1406
G01 X10.0949 Y22.1215
G01 X10.0688 Y22.1017
G01 X10.0344 Y22.0747
G01 X10.0092 Y22.0539
G01 X9.2797 Y21.4378
G01 X9.2549 Y21.4164
G01 X9.2306 Y21.3945
G01 X9.1986 Y21.3645
G01 X9.1753 Y21.3415
G01 X8.5023 Y20.6642
G01 X8.4795 Y20.6407
G01 X8.4572 Y20.6168
G01 X8.4279 Y20.5841
G01 X8.4067 Y20.5592
G01 X7.7953 Y19.8257
G01 X7.7746 Y19.8003
G01 X7.7478 Y19.7657
G01 X7.7282 Y19.7395
G01 X7.7093 Y19.7128
G01 X7.1642 Y18.9289
G01 X7.1482 Y18.9055
G01 X7.1275 Y18.8737
G01 X7.1125 Y18.8497
G01 X7.0979 Y18.8255
G01 X7.0837 Y18.8009
G01 X7.0655 Y18.7677
G01 X7.0523 Y18.7426
G01 X7.0396 Y18.7173
G01 X6.4029 Y17.4210
G01 X5.6310 Y16.1348
G01 X4.7516 Y14.9229
G01 X3.7700 Y13.7923
G01 X2.6935 Y12.7515
G01 X1.6685 Y11.9205
G01 X1.4243 Y11.8136
G01 X1.3944 Y11.8001
G01 X1.3548 Y11.7810
G01 X1.3255 Y11.7662
G01 X1.2965 Y11.7508
G01 X1.0060 Y11.5920
G01 X0.9775 Y11.5760
G01 X0.9398 Y11.5537
G01 X0.9121 Y11.5364
G01 X0.8847 Y11.5186
G01 X0.6091 Y11.3351
G01 X0.5820 Y11.3167
G01 X0.5554 Y11.2977
G01 X0.5202 Y11.2715
G01 X0.4944 Y11.2513
G01 X0.2359 Y11.0445
G01 X0.2105 Y11.0238
G01 X0.1856 Y11.0025
G01 X0.1528 Y10.9733
G01 X0.1289 Y10.9510
G01 X-0.1106 Y10.7224
G01 X-0.1340 Y10.6996
G01 X-0.1646 Y10.6682
G01 X-0.1870 Y10.6444
G01 X-0.2088 Y10.6201
G01 X-0.4275 Y10.3715
G01 X-0.4488 Y10.3468
G01 X-0.4765 Y10.3129
G01 X-0.4967 Y10.2873
G01 X-0.5163 Y10.2612
G01 X-0.7125 Y9.9946
G01 X-0.7317 Y9.9680
G01 X-0.7503 Y9.9409
G01 X-0.7744 Y9.9042
G01 X-0.7918 Y9.8764
G01 X-0.9640 Y9.5936
G01 X-0.9807 Y9.5655
G01 X-0.9968 Y9.5370
G01 X-1.0176 Y9.4985
G01 X-1.0324 Y9.4693
G01 X-1.1793 Y9.1726
G01 X-1.1935 Y9.1432
G01 X-1.2071 Y9.1134
G01 X-1.2245 Y9.0732
G01 X-1.2367 Y9.0428
G01 X-1.3572 Y8.7344
G01 X-1.3687 Y8.7039
G01 X-1.3832 Y8.6626
G01 X-1.3934 Y8.6316
G01 X-1.4030 Y8.6003
G01 X-1.4962 Y8.2826
G01 X-1.5051 Y8.2511
G01 X-1.5132 Y8.2193
G01 X-1.5234 Y8.1766
G01 X-1.5302 Y8.1445
G01 X-1.5953 Y7.8199
G01 X-1.6021 Y7.7835
G01 X-1.6081 Y7.7468
G01 X-1.6150 Y7.6976
G01 X-1.6191 Y7.6608
G01 X-1.6223 Y7.6238
G01 X-1.6252 Y7.5742
G01 X-1.6266 Y7.5371
G01 X-1.6271 Y7.5000
G00 X-1.6271 Y7.5000
G01 F10.00
G01 Z-0.6000
G01 F20.00
G01 X-1.6271 Y0.0000
G01 X-1.6266 Y-0.0368
G01 X-1.6253 Y-0.0736
G01 X-1.6226 Y-0.1194
G01 X-1.6196 Y-0.1560
G01 X-1.6156 Y-0.1926
G01 X-1.6102 Y-0.2326
G01 X-1.6013 Y-0.2885
G01 X-1.5943 Y-0.3247
G01 X-1.5865 Y-0.3606
G01 X-1.5766 Y-0.4014
G01 X-1.5626 Y-0.4534
G01 X-1.5537 Y-0.4832
G01 X-1.5441 Y-0.5128
G01 X-1.5339 Y-0.5422
G01 X-1.5187 Y-0.5837
G01 X-1.5052 Y-0.6179
G01 X-1.4908 Y-0.6518
G01 X-1.4680 Y-0.7012
G01 X-1.4567 Y-0.7246
G01 X-1.4400 Y-0.7574
G01 X-1.4225 Y-0.7898
G01 X-1.3922 Y-0.8417
G01 X-1.3697 Y-0.8782
G01 X-1.3495 Y-0.9090
G01 X-1.3285 Y-0.9393
G01 X-1.3105 Y-0.9641
G01 X-1.2727 Y-1.0136
G01 X-1.2522 Y-1.0389
G01 X-1.2312 Y-1.0636
G01 X-1.2013 Y-1.0972
G01 X-1.1705 Y-1.1301
G01 X-1.1387 Y-1.1621
G01 X-1.1181 Y-1.1819
G01 X-1.0879 Y-1.2096
G01 X-1.0636 Y-1.2312
G01 X-1.0389 Y-1.2522
G01 X-1.0136 Y-1.2727
G01 X-0.9641 Y-1.3105
G01 X-0.9206 Y-1.3416
G01 X-0.8946 Y-1.3590
G01 X-0.8684 Y-1.3759
G01 X-0.8311 Y-1.3987
G01 X-0.7992 Y-1.4172
G01 X-0.7670 Y-1.4349
G01 X-0.7343 Y-1.4519
G01 X-0.6900 Y-1.4734
G01 X-0.6542 Y-1.4897
G01 X-0.6203 Y-1.5042
G01 X-0.5861 Y-1.5178
G01 X-0.5422 Y-1.5339
G01 X-0.4958 Y-1.5497
G01 X-0.4607 Y-1.5605
G01 X-0.4252 Y-1.5705
G01 X-0.4014 Y-1.5766
G01 X-0.3454 Y-1.5900
G01 X-0.3093 Y-1.5974
G01 X-0.2731 Y-1.6039
G01 X-0.2326 Y-1.6102
G01 X-0.2037 Y-1.6142
G01 X-0.1671 Y-1.6185
G01 X-0.1305 Y-1.6218
G01 X-0.0861 Y-1.6246
G01 X-0.0368 Y-1.6266
G01 X0.0000 Y-1.6271
G01 X34.5000 Y-1.6271
G01 X34.5368 Y-1.6266
G01 X34.5861 Y-1.6246
G01 X34.6228 Y-1.6224
G01 X34.6595 Y-1.6192
G01 X34.6961 Y-1.6152
G01 X34.7326 Y-1.6102
G01 X34.7812 Y-1.6025
G01 X34.8174 Y-1.5958
G01 X34.8534 Y-1.5882
G01 X34.8893 Y-1.5797
G01 X34.9370 Y-1.5673
G01 X34.9723 Y-1.5570
G01 X35.0074 Y-1.5459
G01 X35.0540 Y-1.5297
G01 X35.0885 Y-1.5169
G01 X35.1227 Y-1.5032
G01 X35.1565 Y-1.4887
G01 X35.1900 Y-1.4734
G01 X35.2343 Y-1.4519
G01 X35.2670 Y-1.4349
G01 X35.2992 Y-1.4172
G01 X35.3417 Y-1.3922
G01 X35.3731 Y-1.3729
G01 X35.4039 Y-1.3529
G01 X35.4343 Y-1.3320
G01 X35.4742 Y-1.3030
G01 X35.5035 Y-1.2807
G01 X35.5322 Y-1.2577
G01 X35.5604 Y-1.2340
G01 X35.5972 Y-1.2013
G01 X35.6242 Y-1.1762
G01 X35.6505 Y-1.1505
G01 X35.6762 Y-1.1242
G01 X35.7013 Y-1.0972
G01 X35.7340 Y-1.0604
G01 X35.7577 Y-1.0322
G01 X35.7807 Y-1.0035
G01 X35.8030 Y-0.9742
G01 X35.8320 Y-0.9343
G01 X35.8529 Y-0.9039
G01 X35.8729 Y-0.8731
G01 X35.8987 Y-0.8311
G01 X35.9172 Y-0.7992
G01 X35.9349 Y-0.7670
G01 X35.9519 Y-0.7343
G01 X35.9680 Y-0.7012
G01 X35.9887 Y-0.6565
G01 X36.0032 Y-0.6226
G01 X36.0169 Y-0.5885
G01 X36.0339 Y-0.5422
G01 X36.0459 Y-0.5074
G01 X36.0570 Y-0.4723
G01 X36.0673 Y-0.4370
G01 X36.0797 Y-0.3893
G01 X36.0882 Y-0.3534
G01 X36.0958 Y-0.3174
G01 X36.1025 Y-0.2812
G01 X36.1084 Y-0.2449
G01 X36.1152 Y-0.1961
G01 X36.1192 Y-0.1595
G01 X36.1224 Y-0.1228
G01 X36.1246 Y-0.0861
G01 X36.1266 Y-0.0368
G01 X36.1271 Y0.0000
G01 X36.1271 Y7.5000
G01 X36.1264 Y7.5447
G01 X36.1235 Y7.6045
G01 X36.1202 Y7.6491
G01 X36.1155 Y7.6936
G01 X36.1095 Y7.7379
G01 X36.0995 Y7.7969
G01 X36.0909 Y7.8408
G01 X36.0810 Y7.8844
G01 X36.0348 Y8.0744
G01 X36.0214 Y8.1257
G01 X36.0115 Y8.1598
G01 X36.0037 Y8.1851
G01 X35.9087 Y8.4825
G01 X35.8984 Y8.5136
G01 X35.8874 Y8.5446
G01 X35.8718 Y8.5857
G01 X35.8595 Y8.6161
G01 X35.7388 Y8.9042
G01 X35.7258 Y8.9342
G01 X35.7076 Y8.9738
G01 X35.6934 Y9.0031
G01 X35.6785 Y9.0322
G01 X35.5333 Y9.3086
G01 X35.5177 Y9.3375
G01 X35.5015 Y9.3661
G01 X35.4790 Y9.4040
G01 X35.4615 Y9.4318
G01 X35.2926 Y9.6945
G01 X35.2747 Y9.7217
G01 X35.2562 Y9.7485
G01 X35.2307 Y9.7840
G01 X35.2111 Y9.8099
G01 X35.0201 Y10.0569
G01 X34.9998 Y10.0826
G01 X34.9788 Y10.1079
G01 X34.9502 Y10.1413
G01 X34.9282 Y10.1656
G01 X34.7163 Y10.3950
G01 X34.6938 Y10.4188
G01 X34.6709 Y10.4421
G01 X34.6395 Y10.4727
G01 X34.6156 Y10.4949
G01 X34.3846 Y10.7049
G01 X34.3602 Y10.7266
G01 X34.3268 Y10.7549
G01 X34.3015 Y10.7755
G01 X34.2757 Y10.7956
G01 X34.0272 Y10.9848
G01 X34.0009 Y11.0043
G01 X33.9650 Y11.0297
G01 X33.9379 Y11.0481
G01 X33.9103 Y11.0660
G01 X33.6463 Y11.2327
G01 X33.6184 Y11.2498
G01 X33.5806 Y11.2719
G01 X33.5520 Y11.2878
G01 X33.5099 Y11.3099
G01 X33.2335 Y11.6168
G01 X31.4265 Y13.8580
G01 X29.8365 Y16.2260
G01 X28.4247 Y18.7858
G01 X28.4013 Y18.8267
G01 X28.3851 Y18.8537
G01 X28.3250 Y18.9483
G01 X28.2918 Y18.9972
G01 X27.7416 Y19.7776
G01 X27.7224 Y19.8042
G01 X27.6959 Y19.8391
G01 X27.6756 Y19.8648
G01 X27.6548 Y19.8900
G01 X27.0386 Y20.6195
G01 X27.0172 Y20.6443
G01 X26.9953 Y20.6685
G01 X26.9654 Y20.7005
G01 X26.9424 Y20.7238
G01 X26.2651 Y21.3968
G01 X26.2416 Y21.4196
G01 X26.2094 Y21.4494
G01 X26.1849 Y21.4712
G01 X26.1600 Y21.4925
G01 X25.4265 Y22.1038
G01 X25.4012 Y22.1244
G01 X25.3754 Y22.1445
G01 X25.3404 Y22.1707
G01 X25.3138 Y22.1897
G01 X24.5299 Y22.7349
G01 X24.5028 Y22.7533
G01 X24.4753 Y22.7711
G01 X24.4381 Y22.7942
G01 X24.4099 Y22.8108
G01 X23.5815 Y23.2855
G01 X23.5529 Y23.3015
G01 X23.5240 Y23.3168
G01 X23.4850 Y23.3365
G01 X23.4554 Y23.3506
G01 X22.5887 Y23.7514
G01 X22.5588 Y23.7648
G01 X22.5287 Y23.7776
G01 X22.4879 Y23.7939
G01 X22.4572 Y23.8054
G01 X21.5589 Y24.1290
G01 X21.5281 Y24.1397
G01 X21.4864 Y24.1531
G01 X21.4551 Y24.1625
G01 X21.4236 Y24.1712
G01 X20.5005 Y24.4154
G01 X20.4688 Y24.4234
G01 X20.4260 Y24.4331
G01 X20.3939 Y24.4397
G01 X20.3616 Y24.4457
G01 X19.4207 Y24.6084
G01 X19.3885 Y24.6136
G01 X19.3561 Y24.6181
G01 X19.3127 Y24.6233
G01 X19.2802 Y24.6264
G01 X18.3287 Y24.7066
G01 X18.2960 Y24.7090
G01 X18.2633 Y24.7107
G01 X18.2195 Y24.7121
G01 X18.1867 Y24.7124
G01 X17.2319 Y24.7093
G01 X17.1992 Y24.7088
G01 X17.1665 Y24.7076
G01 X17.1227 Y24.7052
G01 X17.0901 Y24.7026
G01 X16.1392 Y24.6163
G01 X16.1067 Y24.6130
G01 X16.0742 Y24.6090
G01 X16.0308 Y24.6027
G01 X15.9985 Y24.5973
G01 X15.0587 Y24.4284
G01 X15.0266 Y24.4223
G01 X14.9946 Y24.4154
G01 X14.9520 Y24.4055
G01 X14.9203 Y24.3973
G01 X13.9988 Y24.1472
G01 X13.9674 Y24.1383
G01 X13.9255 Y24.1253
G01 X13.8945 Y24.1150
G01 X13.8637 Y24.1041
G01 X12.9675 Y23.7747
G01 X12.9368 Y23.7630
G01 X12.9065 Y23.7507
G01 X12.8661 Y23.7335
G01 X12.8363 Y23.7199
G01 X11.9722 Y23.3135
G01 X11.9428 Y23.2992
G01 X11.9136 Y23.2843
G01 X11.8750 Y23.2636
G01 X11.8466 Y23.2475
G01 X11.0213 Y22.7674
G01 X10.9932 Y22.7506
G01 X10.9655 Y22.7333
G01 X10.9288 Y22.7094
G01 X10.9019 Y22.6908
G01 X10.1215 Y22.1406
G01 X10.0949 Y22.1215
G01 X10.0688 Y22.1017
G01 X10.0344 Y22.0747
G01 X10.0092 Y22.0539
G01 X9.2797 Y21.4378
G01 X9.2549 Y21.4164
G01 X9.2306 Y21.3945
G01 X9.1986 Y21.3645
G01 X9.1753 Y21.3415
G01 X8.5023 Y20.6642
G01 X8.4795 Y20.6407
G01 X8.4572 Y20.6168
G01 X8.4279 Y20.5841
G01 X8.4067 Y20.5592
G01 X7.7953 Y19.8257
G01 X7.7746 Y19.8003
G01 X7.7478 Y19.7657
G01 X7.7282 Y19.7395
G01 X7.7093 Y19.7128
G01 X7.1642 Y18.9289
G01 X7.1482 Y18.9055
G01 X7.1275 Y18.8737
G01 X7.1125 Y18.8497
G01 X7.0979 Y18.8255
G01 X7.0837 Y18.8009
G01 X7.0655 Y18.7677
G01 X7.0523 Y18.7426
G01 X7.0396 Y18.7173
G01 X6.4029 Y17.4210
G01 X5.6310 Y16.1348
G01 X4.7516 Y14.9229
G01 X3.7700 Y13.7923
G01 X2.6935 Y12.7515
G01 X1.6685 Y11.9205
G01 X1.4243 Y11.8136
G01 X1.3944 Y11.8001
G01 X1.3548 Y11.7810
G01 X1.3255 Y11.7662
G01 X1.2965 Y11.7508
G01 X1.0060 Y11.5920
G01 X0.9775 Y11.5760
G01 X0.9398 Y11.5537
G01 X0.9121 Y11.5364
G01 X0.8847 Y11.5186
G01 X0.6091 Y11.3351
G01 X0.5820 Y11.3167
G01 X0.5554 Y11.2977
G01 X0.5202 Y11.2715
G01 X0.4944 Y11.2513
G01 X0.2359 Y11.0445
G01 X0.2105 Y11.0238
G01 X0.1856 Y11.0025
G01 X0.1528 Y10.9733
G01 X0.1289 Y10.9510
G01 X-0.1106 Y10.7224
G01 X-0.1340 Y10.6996
G01 X-0.1646 Y10.6682
G01 X-0.1870 Y10.6444
G01 X-0.2088 Y10.6201
G01 X-0.4275 Y10.3715
G01 X-0.4488 Y10.3468
G01 X-0.4765 Y10.3129
G01 X-0.4967 Y10.2873
G01 X-0.5163 Y10.2612
G01 X-0.7125 Y9.9946
G01 X-0.7317 Y9.9680
G01 X-0.7503 Y9.9409
G01 X-0.7744 Y9.9042
G01 X-0.7918 Y9.8764
G01 X-0.9640 Y9.5936
G01 X-0.9807 Y9.5655
G01 X-0.9968 Y9.5370
G01 X-1.0176 Y9.4985
G01 X-1.0324 Y9.4693
G01 X-1.1793 Y9.1726
G01 X-1.1935 Y9.1432
G01 X-1.2071 Y9.1134
G01 X-1.2245 Y9.0732
G01 X-1.2367 Y9.0428
G01 X-1.3572 Y8.7344
G01 X-1.3687 Y8.7039
G01 X-1.3832 Y8.6626
G01 X-1.3934 Y8.6316
G01 X-1.4030 Y8.6003
G01 X-1.4962 Y8.2826
G01 X-1.5051 Y8.2511
G01 X-1.5132 Y8.2193
G01 X-1.5234 Y8.1766
G01 X-1.5302 Y8.1445
G01 X-1.5953 Y7.8199
G01 X-1.6021 Y7.7835
G01 X-1.6081 Y7.7468
G01 X-1.6150 Y7.6976
G01 X-1.6191 Y7.6608
G01 X-1.6223 Y7.6238
G01 X-1.6252 Y7.5742
G01 X-1.6266 Y7.5371
G01 X-1.6271 Y7.5000
G00 X-1.6271 Y7.5000
G01 F10.00
G01 Z-0.9000
G01 F20.00
G01 X-1.6271 Y0.0000
G01 X-1.6266 Y-0.0368
G01 X-1.6253 Y-0.0736
G01 X-1.6226 Y-0.1194
G01 X-1.6196 Y-0.1560
G01 X-1.6156 Y-0.1926
G01 X-1.6102 Y-0.2326
G01 X-1.6013 Y-0.2885
G01 X-1.5943 Y-0.3247
G01 X-1.5865 Y-0.3606
G01 X-1.5766 Y-0.4014
G01 X-1.5626 Y-0.4534
G01 X-1.5537 Y-0.4832
G01 X-1.5441 Y-0.5128
G01 X-1.5339 Y-0.5422
G01 X-1.5187 Y-0.5837
G01 X-1.5052 Y-0.6179
G01 X-1.4908 Y-0.6518
G01 X-1.4680 Y-0.7012
G01 X-1.4567 Y-0.7246
G01 X-1.4400 Y-0.7574
G01 X-1.4225 Y-0.7898
G01 X-1.3922 Y-0.8417
G01 X-1.3697 Y-0.8782
G01 X-1.3495 Y-0.9090
G01 X-1.3285 Y-0.9393
G01 X-1.3105 Y-0.9641
G01 X-1.2727 Y-1.0136
G01 X-1.2522 Y-1.0389
G01 X-1.2312 Y-1.0636
G01 X-1.2013 Y-1.0972
G01 X-1.1705 Y-1.1301
G01 X-1.1387 Y-1.1621
G01 X-1.1181 Y-1.1819
G01 X-1.0879 Y-1.2096
G01 X-1.0636 Y-1.2312
G01 X-1.0389 Y-1.2522
G01 X-1.0136 Y-1.2727
G01 X-0.9641 Y-1.3105
G01 X-0.9206 Y-1.3416
G01 X-0.8946 Y-1.3590
G01 X-0.8684 Y-1.3759
G01 X-0.8311 Y-1.3987
G01 X-0.7992 Y-1.4172
G01 X-0.7670 Y-1.4349
G01 X-0.7343 Y-1.4519
G01 X-0.6900 Y-1.4734
G01 X-0.6542 Y-1.4897
G01 X-0.6203 Y-1.5042
G01 X-0.5861 Y-1.5178
G01 X-0.5422 Y-1.5339
G01 X-0.4958 Y-1.5497
G01 X-0.4607 Y-1.5605
G01 X-0.4252 Y-1.5705
G01 X-0.4014 Y-1.5766
G01 X-0.3454 Y-1.5900
G01 X-0.3093 Y-1.5974
G01 X-0.2731 Y-1.6039
G01 X-0.2326 Y-1.6102
G01 X-0.2037 Y-1.6142
G01 X-0.1671 Y-1.6185
G01 X-0.1305 Y-1.6218
G01 X-0.0861 Y-1.6246
G01 X-0.0368 Y-1.6266
G01 X0.0000 Y-1.6271
G01 X34.5000 Y-1.6271
G01 X34.5368 Y-1.6266
G01 X34.5861 Y-1.6246
G01 X34.6228 Y-1.6224
G01 X34.6595 Y-1.6192
G01 X34.6961 Y-1.6152
G01 X34.7326 Y-1.6102
G01 X34.7812 Y-1.6025
G01 X34.8174 Y-1.5958
G01 X34.8534 Y-1.5882
G01 X34.8893 Y-1.5797
G01 X34.9370 Y-1.5673
G01 X34.9723 Y-1.5570
G01 X35.0074 Y-1.5459
G01 X35.0540 Y-1.5297
G01 X35.0885 Y-1.5169
G01 X35.1227 Y-1.5032
G01 X35.1565 Y-1.4887
G01 X35.1900 Y-1.4734
G01 X35.2343 Y-1.4519
G01 X35.2670 Y-1.4349
G01 X35.2992 Y-1.4172
G01 X35.3417 Y-1.3922
G01 X35.3731 Y-1.3729
G01 X35.4039 Y-1.3529
G01 X35.4343 Y-1.3320
G01 X35.4742 Y-1.3030
G01 X35.5035 Y-1.2807
G01 X35.5322 Y-1.2577
G01 X35.5604 Y-1.2340
G01 X35.5972 Y-1.2013
G01 X35.6242 Y-1.1762
G01 X35.6505 Y-1.1505
G01 X35.6762 Y-1.1242
G01 X35.7013 Y-1.0972
G01 X35.7340 Y-1.0604
G01 X35.7577 Y-1.0322
G01 X35.7807 Y-1.0035
G01 X35.8030 Y-0.9742
G01 X35.8320 Y-0.9343
G01 X35.8529 Y-0.9039
G01 X35.8729 Y-0.8731
G01 X35.8987 Y-0.8311
G01 X35.9172 Y-0.7992
G01 X35.9349 Y-0.7670
G01 X35.9519 Y-0.7343
G01 X35.9680 Y-0.7012
G01 X35.9887 Y-0.6565
G01 X36.0032 Y-0.6226
G01 X36.0169 Y-0.5885
G01 X36.0339 Y-0.5422
G01 X36.0459 Y-0.5074
G01 X36.0570 Y-0.4723
G01 X36.0673 Y-0.4370
G01 X36.0797 Y-0.3893
G01 X36.0882 Y-0.3534
G01 X36.0958 Y-0.3174
G01 X36.1025 Y-0.2812
G01 X36.1084 Y-0.2449
G01 X36.1152 Y-0.1961
G01 X36.1192 Y-0.1595
G01 X36.1224 Y-0.1228
G01 X36.1246 Y-0.0861
G01 X36.1266 Y-0.0368
G01 X36.1271 Y0.0000
G01 X36.1271 Y7.5000
G01 X36.1264 Y7.5447
G01 X36.1235 Y7.6045
G01 X36.1202 Y7.6491
G01 X36.1155 Y7.6936
G01 X36.1095 Y7.7379
G01 X36.0995 Y7.7969
G01 X36.0909 Y7.8408
G01 X36.0810 Y7.8844
G01 X36.0348 Y8.0744
G01 X36.0214 Y8.1257
G01 X36.0115 Y8.1598
G01 X36.0037 Y8.1851
G01 X35.9087 Y8.4825
G01 X35.8984 Y8.5136
G01 X35.8874 Y8.5446
G01 X35.8718 Y8.5857
G01 X35.8595 Y8.6161
G01 X35.7388 Y8.9042
G01 X35.7258 Y8.9342
G01 X35.7076 Y8.9738
G01 X35.6934 Y9.0031
G01 X35.6785 Y9.0322
G01 X35.5333 Y9.3086
G01 X35.5177 Y9.3375
G01 X35.5015 Y9.3661
G01 X35.4790 Y9.4040
G01 X35.4615 Y9.4318
G01 X35.2926 Y9.6945
G01 X35.2747 Y9.7217
G01 X35.2562 Y9.7485
G01 X35.2307 Y9.7840
G01 X35.2111 Y9.8099
G01 X35.0201 Y10.0569
G01 X34.9998 Y10.0826
G01 X34.9788 Y10.1079
G01 X34.9502 Y10.1413
G01 X34.9282 Y10.1656
G01 X34.7163 Y10.3950
G01 X34.6938 Y10.4188
G01 X34.6709 Y10.4421
G01 X34.6395 Y10.4727
G01 X34.6156 Y10.4949
G01 X34.3846 Y10.7049
G01 X34.3602 Y10.7266
G01 X34.3268 Y10.7549
G01 X34.3015 Y10.7755
G01 X34.2757 Y10.7956
G01 X34.0272 Y10.9848
G01 X34.0009 Y11.0043
G01 X33.9650 Y11.0297
G01 X33.9379 Y11.0481
G01 X33.9103 Y11.0660
G01 X33.6463 Y11.2327
G01 X33.6184 Y11.2498
G01 X33.5806 Y11.2719
G01 X33.5520 Y11.2878
G01 X33.5099 Y11.3099
G01 X33.2335 Y11.6168
G01 X31.4265 Y13.8580
G01 X29.8365 Y16.2260
G01 X28.4247 Y18.7858
G01 X28.4013 Y18.8267
G01 X28.3851 Y18.8537
G01 X28.3250 Y18.9483
G01 X28.2918 Y18.9972
G01 X27.7416 Y19.7776
G01 X27.7224 Y19.8042
G01 X27.6959 Y19.8391
G01 X27.6756 Y19.8648
G01 X27.6548 Y19.8900
G01 X27.0386 Y20.6195
G01 X27.0172 Y20.6443
G01 X26.9953 Y20.6685
G01 X26.9654 Y20.7005
G01 X26.9424 Y20.7238
G01 X26.2651 Y21.3968
G01 X26.2416 Y21.4196
G01 X26.2094 Y21.4494
G01 X26.1849 Y21.4712
G01 X26.1600 Y21.4925
G01 X25.4265 Y22.1038
G01 X25.4012 Y22.1244
G01 X25.3754 Y22.1445
G01 X25.3404 Y22.1707
G01 X25.3138 Y22.1897
G01 X24.5299 Y22.7349
G01 X24.5028 Y22.7533
G01 X24.4753 Y22.7711
G01 X24.4381 Y22.7942
G01 X24.4099 Y22.8108
G01 X23.5815 Y23.2855
G01 X23.5529 Y23.3015
G01 X23.5240 Y23.3168
G01 X23.4850 Y23.3365
G01 X23.4554 Y23.3506
G01 X22.5887 Y23.7514
G01 X22.5588 Y23.7648
G01 X22.5287 Y23.7776
G01 X22.4879 Y23.7939
G01 X22.4572 Y23.8054
G01 X21.5589 Y24.1290
G01 X21.5281 Y24.1397
G01 X21.4864 Y24.1531
G01 X21.4551 Y24.1625
G01 X21.4236 Y24.1712
G01 X20.5005 Y24.4154
G01 X20.4688 Y24.4234
G01 X20.4260 Y24.4331
G01 X20.3939 Y24.4397
G01 X20.3616 Y24.4457
G01 X19.4207 Y24.6084
G01 X19.3885 Y24.6136
G01 X19.3561 Y24.6181
G01 X19.3127 Y24.6233
G01 X19.2802 Y24.6264
G01 X18.3287 Y24.7066
G01 X18.2960 Y24.7090
G01 X18.2633 Y24.7107
G01 X18.2195 Y24.7121
G01 X18.1867 Y24.7124
G01 X17.2319 Y24.7093
G01 X17.1992 Y24.7088
G01 X17.1665 Y24.7076
G01 X17.1227 Y24.7052
G01 X17.0901 Y24.7026
G01 X16.1392 Y24.6163
G01 X16.1067 Y24.6130
G01 X16.0742 Y24.6090
G01 X16.0308 Y24.6027
G01 X15.9985 Y24.5973
G01 X15.0587 Y24.4284
G01 X15.0266 Y24.4223
G01 X14.9946 Y24.4154
G01 X14.9520 Y24.4055
G01 X14.9203 Y24.3973
G01 X13.9988 Y24.1472
G01 X13.9674 Y24.1383
G01 X13.9255 Y24.1253
G01 X13.8945 Y24.1150
G01 X13.8637 Y24.1041
G01 X12.9675 Y23.7747
G01 X12.9368 Y23.7630
G01 X12.9065 Y23.7507
G01 X12.8661 Y23.7335
G01 X12.8363 Y23.7199
G01 X11.9722 Y23.3135
G01 X11.9428 Y23.2992
G01 X11.9136 Y23.2843
G01 X11.8750 Y23.2636
G01 X11.8466 Y23.2475
G01 X11.0213 Y22.7674
G01 X10.9932 Y22.7506
G01 X10.9655 Y22.7333
G01 X10.9288 Y22.7094
G01 X10.9019 Y22.6908
G01 X10.1215 Y22.1406
G01 X10.0949 Y22.1215
G01 X10.0688 Y22.1017
G01 X10.0344 Y22.0747
G01 X10.0092 Y22.0539
G01 X9.2797 Y21.4378
G01 X9.2549 Y21.4164
G01 X9.2306 Y21.3945
G01 X9.1986 Y21.3645
G01 X9.1753 Y21.3415
G01 X8.5023 Y20.6642
G01 X8.4795 Y20.6407
G01 X8.4572 Y20.6168
G01 X8.4279 Y20.5841
G01 X8.4067 Y20.5592
G01 X7.7953 Y19.8257
G01 X7.7746 Y19.8003
G01 X7.7478 Y19.7657
G01 X7.7282 Y19.7395
G01 X7.7093 Y19.7128
G01 X7.1642 Y18.9289
G01 X7.1482 Y18.9055
G01 X7.1275 Y18.8737
G01 X7.1125 Y18.8497
G01 X7.0979 Y18.8255
G01 X7.0837 Y18.8009
G01 X7.0655 Y18.7677
G01 X7.0523 Y18.7426
G01 X7.0396 Y18.7173
G01 X6.4029 Y17.4210
G01 X5.6310 Y16.1348
G01 X4.7516 Y14.9229
G01 X3.7700 Y13.7923
G01 X2.6935 Y12.7515
G01 X1.6685 Y11.9205
G01 X1.4243 Y11.8136
G01 X1.3944 Y11.8001
G01 X1.3548 Y11.7810
G01 X1.3255 Y11.7662
G01 X1.2965 Y11.7508
G01 X1.0060 Y11.5920
G01 X0.9775 Y11.5760
G01 X0.9398 Y11.5537
G01 X0.9121 Y11.5364
G01 X0.8847 Y11.5186
G01 X0.6091 Y11.3351
G01 X0.5820 Y11.3167
G01 X0.5554 Y11.2977
G01 X0.5202 Y11.2715
G01 X0.4944 Y11.2513
G01 X0.2359 Y11.0445
G01 X0.2105 Y11.0238
G01 X0.1856 Y11.0025
G01 X0.1528 Y10.9733
G01 X0.1289 Y10.9510
G01 X-0.1106 Y10.7224
G01 X-0.1340 Y10.6996
G01 X-0.1646 Y10.6682
G01 X-0.1870 Y10.6444
G01 X-0.2088 Y10.6201
G01 X-0.4275 Y10.3715
G01 X-0.4488 Y10.3468
G01 X-0.4765 Y10.3129
G01 X-0.4967 Y10.2873
G01 X-0.5163 Y10.2612
G01 X-0.7125 Y9.9946
G01 X-0.7317 Y9.9680
G01 X-0.7503 Y9.9409
G01 X-0.7744 Y9.9042
G01 X-0.7918 Y9.8764
G01 X-0.9640 Y9.5936
G01 X-0.9807 Y9.5655
G01 X-0.9968 Y9.5370
G01 X-1.0176 Y9.4985
G01 X-1.0324 Y9.4693
G01 X-1.1793 Y9.1726
G01 X-1.1935 Y9.1432
G01 X-1.2071 Y9.1134
G01 X-1.2245 Y9.0732
G01 X-1.2367 Y9.0428
G01 X-1.3572 Y8.7344
G01 X-1.3687 Y8.7039
G01 X-1.3832 Y8.6626
G01 X-1.3934 Y8.6316
G01 X-1.4030 Y8.6003
G01 X-1.4962 Y8.2826
G01 X-1.5051 Y8.2511
G01 X-1.5132 Y8.2193
G01 X-1.5234 Y8.1766
G01 X-1.5302 Y8.1445
G01 X-1.5953 Y7.8199
G01 X-1.6021 Y7.7835
G01 X-1.6081 Y7.7468
G01 X-1.6150 Y7.6976
G01 X-1.6191 Y7.6608
G01 X-1.6223 Y7.6238
G01 X-1.6252 Y7.5742
G01 X-1.6266 Y7.5371
G01 X-1.6271 Y7.5000
G00 X-1.6271 Y7.5000
G01 F10.00
G01 Z-1.2000
G01 F20.00
G01 X-1.6271 Y0.0000
G01 X-1.6266 Y-0.0368
G01 X-1.6253 Y-0.0736
G01 X-1.6226 Y-0.1194
G01 X-1.6196 Y-0.1560
G01 X-1.6156 Y-0.1926
G01 X-1.6102 Y-0.2326
G01 X-1.6013 Y-0.2885
G01 X-1.5943 Y-0.3247
G01 X-1.5865 Y-0.3606
G01 X-1.5766 Y-0.4014
G01 X-1.5626 Y-0.4534
G01 X-1.5537 Y-0.4832
G01 X-1.5441 Y-0.5128
G01 X-1.5339 Y-0.5422
G01 X-1.5187 Y-0.5837
G01 X-1.5052 Y-0.6179
G01 X-1.4908 Y-0.6518
G01 X-1.4680 Y-0.7012
G01 X-1.4567 Y-0.7246
G01 X-1.4400 Y-0.7574
G01 X-1.4225 Y-0.7898
G01 X-1.3922 Y-0.8417
G01 X-1.3697 Y-0.8782
G01 X-1.3495 Y-0.9090
G01 X-1.3285 Y-0.9393
G01 X-1.3105 Y-0.9641
G01 X-1.2727 Y-1.0136
G01 X-1.2522 Y-1.0389
G01 X-1.2312 Y-1.0636
G01 X-1.2013 Y-1.0972
G01 X-1.1705 Y-1.1301
G01 X-1.1387 Y-1.1621
G01 X-1.1181 Y-1.1819
G01 X-1.0879 Y-1.2096
G01 X-1.0636 Y-1.2312
G01 X-1.0389 Y-1.2522
G01 X-1.0136 Y-1.2727
G01 X-0.9641 Y-1.3105
G01 X-0.9206 Y-1.3416
G01 X-0.8946 Y-1.3590
G01 X-0.8684 Y-1.3759
G01 X-0.8311 Y-1.3987
G01 X-0.7992 Y-1.4172
G01 X-0.7670 Y-1.4349
G01 X-0.7343 Y-1.4519
G01 X-0.6900 Y-1.4734
G01 X-0.6542 Y-1.4897
G01 X-0.6203 Y-1.5042
G01 X-0.5861 Y-1.5178
G01 X-0.5422 Y-1.5339
G01 X-0.4958 Y-1.5497
G01 X-0.4607 Y-1.5605
G01 X-0.4252 Y-1.5705
G01 X-0.4014 Y-1.5766
G01 X-0.3454 Y-1.5900
G01 X-0.3093 Y-1.5974
G01 X-0.2731 Y-1.6039
G01 X-0.2326 Y-1.6102
G01 X-0.2037 Y-1.6142
G01 X-0.1671 Y-1.6185
G01 X-0.1305 Y-1.6218
G01 X-0.0861 Y-1.6246
G01 X-0.0368 Y-1.6266
G01 X0.0000 Y-1.6271
G01 X34.5000 Y-1.6271
G01 X34.5368 Y-1.6266
G01 X34.5861 Y-1.6246
G01 X34.6228 Y-1.6224
G01 X34.6595 Y-1.6192
G01 X34.6961 Y-1.6152
G01 X34.7326 Y-1.6102
G01 X34.7812 Y-1.6025
G01 X34.8174 Y-1.5958
G01 X34.8534 Y-1.5882
G01 X34.8893 Y-1.5797
G01 X34.9370 Y-1.5673
G01 X34.9723 Y-1.5570
G01 X35.0074 Y-1.5459
G01 X35.0540 Y-1.5297
G01 X35.0885 Y-1.5169
G01 X35.1227 Y-1.5032
G01 X35.1565 Y-1.4887
G01 X35.1900 Y-1.4734
G01 X35.2343 Y-1.4519
G01 X35.2670 Y-1.4349
G01 X35.2992 Y-1.4172
G01 X35.3417 Y-1.3922
G01 X35.3731 Y-1.3729
G01 X35.4039 Y-1.3529
G01 X35.4343 Y-1.3320
G01 X35.4742 Y-1.3030
G01 X35.5035 Y-1.2807
G01 X35.5322 Y-1.2577
G01 X35.5604 Y-1.2340
G01 X35.5972 Y-1.2013
G01 X35.6242 Y-1.1762
G01 X35.6505 Y-1.1505
G01 X35.6762 Y-1.1242
G01 X35.7013 Y-1.0972
G01 X35.7340 Y-1.0604
G01 X35.7577 Y-1.0322
G01 X35.7807 Y-1.0035
G01 X35.8030 Y-0.9742
G01 X35.8320 Y-0.9343
G01 X35.8529 Y-0.9039
G01 X35.8729 Y-0.8731
G01 X35.8987 Y-0.8311
G01 X35.9172 Y-0.7992
G01 X35.9349 Y-0.7670
G01 X35.9519 Y-0.7343
G01 X35.9680 Y-0.7012
G01 X35.9887 Y-0.6565
G01 X36.0032 Y-0.6226
G01 X36.0169 Y-0.5885
G01 X36.0339 Y-0.5422
G01 X36.0459 Y-0.5074
G01 X36.0570 Y-0.4723
G01 X36.0673 Y-0.4370
G01 X36.0797 Y-0.3893
G01 X36.0882 Y-0.3534
G01 X36.0958 Y-0.3174
G01 X36.1025 Y-0.2812
G01 X36.1084 Y-0.2449
G01 X36.1152 Y-0.1961
G01 X36.1192 Y-0.1595
G01 X36.1224 Y-0.1228
G01 X36.1246 Y-0.0861
G01 X36.1266 Y-0.0368
G01 X36.1271 Y0.0000
G01 X36.1271 Y7.5000
G01 X36.1264 Y7.5447
G01 X36.1235 Y7.6045
G01 X36.1202 Y7.6491
G01 X36.1155 Y7.6936
G01 X36.1095 Y7.7379
G01 X36.0995 Y7.7969
G01 X36.0909 Y7.8408
G01 X36.0810 Y7.8844
G01 X36.0348 Y8.0744
G01 X36.0214 Y8.1257
G01 X36.0115 Y8.1598
G01 X36.0037 Y8.1851
G01 X35.9087 Y8.4825
G01 X35.8984 Y8.5136
G01 X35.8874 Y8.5446
G01 X35.8718 Y8.5857
G01 X35.8595 Y8.6161
G01 X35.7388 Y8.9042
G01 X35.7258 Y8.9342
G01 X35.7076 Y8.9738
G01 X35.6934 Y9.0031
G01 X35.6785 Y9.0322
G01 X35.5333 Y9.3086
G01 X35.5177 Y9.3375
G01 X35.5015 Y9.3661
G01 X35.4790 Y9.4040
G01 X35.4615 Y9.4318
G01 X35.2926 Y9.6945
G01 X35.2747 Y9.7217
G01 X35.2562 Y9.7485
G01 X35.2307 Y9.7840
G01 X35.2111 Y9.8099
G01 X35.0201 Y10.0569
G01 X34.9998 Y10.0826
G01 X34.9788 Y10.1079
G01 X34.9502 Y10.1413
G01 X34.9282 Y10.1656
G01 X34.7163 Y10.3950
G01 X34.6938 Y10.4188
G01 X34.6709 Y10.4421
G01 X34.6395 Y10.4727
G01 X34.6156 Y10.4949
G01 X34.3846 Y10.7049
G01 X34.3602 Y10.7266
G01 X34.3268 Y10.7549
G01 X34.3015 Y10.7755
G01 X34.2757 Y10.7956
G01 X34.0272 Y10.9848
G01 X34.0009 Y11.0043
G01 X33.9650 Y11.0297
G01 X33.9379 Y11.0481
G01 X33.9103 Y11.0660
G01 X33.6463 Y11.2327
G01 X33.6184 Y11.2498
G01 X33.5806 Y11.2719
G01 X33.5520 Y11.2878
G01 X33.5099 Y11.3099
G01 X33.2335 Y11.6168
G01 X31.4265 Y13.8580
G01 X29.8365 Y16.2260
G01 X28.4247 Y18.7858
G01 X28.4013 Y18.8267
G01 X28.3851 Y18.8537
G01 X28.3250 Y18.9483
G01 X28.2918 Y18.9972
G01 X27.7416 Y19.7776
G01 X27.7224 Y19.8042
G01 X27.6959 Y19.8391
G01 X27.6756 Y19.8648
G01 X27.6548 Y19.8900
G01 X27.0386 Y20.6195
G01 X27.0172 Y20.6443
G01 X26.9953 Y20.6685
G01 X26.9654 Y20.7005
G01 X26.9424 Y20.7238
G01 X26.2651 Y21.3968
G01 X26.2416 Y21.4196
G01 X26.2094 Y21.4494
G01 X26.1849 Y21.4712
G01 X26.1600 Y21.4925
G01 X25.4265 Y22.1038
G01 X25.4012 Y22.1244
G01 X25.3754 Y22.1445
G01 X25.3404 Y22.1707
G01 X25.3138 Y22.1897
G01 X24.5299 Y22.7349
G01 X24.5028 Y22.7533
G01 X24.4753 Y22.7711
G01 X24.4381 Y22.7942
G01 X24.4099 Y22.8108
G01 X23.5815 Y23.2855
G01 X23.5529 Y23.3015
G01 X23.5240 Y23.3168
G01 X23.4850 Y23.3365
G01 X23.4554 Y23.3506
G01 X22.5887 Y23.7514
G01 X22.5588 Y23.7648
G01 X22.5287 Y23.7776
G01 X22.4879 Y23.7939
G01 X22.4572 Y23.8054
G01 X21.5589 Y24.1290
G01 X21.5281 Y24.1397
G01 X21.4864 Y24.1531
G01 X21.4551 Y24.1625
G01 X21.4236 Y24.1712
G01 X20.5005 Y24.4154
G01 X20.4688 Y24.4234
G01 X20.4260 Y24.4331
G01 X20.3939 Y24.4397
G01 X20.3616 Y24.4457
G01 X19.4207 Y24.6084
G01 X19.3885 Y24.6136
G01 X19.3561 Y24.6181
G01 X19.3127 Y24.6233
G01 X19.2802 Y24.6264
G01 X18.3287 Y24.7066
G01 X18.2960 Y24.7090
G01 X18.2633 Y24.7107
G01 X18.2195 Y24.7121
G01 X18.1867 Y24.7124
G01 X17.2319 Y24.7093
G01 X17.1992 Y24.7088
G01 X17.1665 Y24.7076
G01 X17.1227 Y24.7052
G01 X17.0901 Y24.7026
G01 X16.1392 Y24.6163
G01 X16.1067 Y24.6130
G01 X16.0742 Y24.6090
G01 X16.0308 Y24.6027
G01 X15.9985 Y24.5973
G01 X15.0587 Y24.4284
G01 X15.0266 Y24.4223
G01 X14.9946 Y24.4154
G01 X14.9520 Y24.4055
G01 X14.9203 Y24.3973
G01 X13.9988 Y24.1472
G01 X13.9674 Y24.1383
G01 X13.9255 Y24.1253
G01 X13.8945 Y24.1150
G01 X13.8637 Y24.1041
G01 X12.9675 Y23.7747
G01 X12.9368 Y23.7630
G01 X12.9065 Y23.7507
G01 X12.8661 Y23.7335
G01 X12.8363 Y23.7199
G01 X11.9722 Y23.3135
G01 X11.9428 Y23.2992
G01 X11.9136 Y23.2843
G01 X11.8750 Y23.2636
G01 X11.8466 Y23.2475
G01 X11.0213 Y22.7674
G01 X10.9932 Y22.7506
G01 X10.9655 Y22.7333
G01 X10.9288 Y22.7094
G01 X10.9019 Y22.6908
G01 X10.1215 Y22.1406
G01 X10.0949 Y22.1215
G01 X10.0688 Y22.1017
G01 X10.0344 Y22.0747
G01 X10.0092 Y22.0539
G01 X9.2797 Y21.4378
G01 X9.2549 Y21.4164
G01 X9.2306 Y21.3945
G01 X9.1986 Y21.3645
G01 X9.1753 Y21.3415
G01 X8.5023 Y20.6642
G01 X8.4795 Y20.6407
G01 X8.4572 Y20.6168
G01 X8.4279 Y20.5841
G01 X8.4067 Y20.5592
G01 X7.7953 Y19.8257
G01 X7.7746 Y19.8003
G01 X7.7478 Y19.7657
G01 X7.7282 Y19.7395
G01 X7.7093 Y19.7128
G01 X7.1642 Y18.9289
G01 X7.1482 Y18.9055
G01 X7.1275 Y18.8737
G01 X7.1125 Y18.8497
G01 X7.0979 Y18.8255
G01 X7.0837 Y18.8009
G01 X7.0655 Y18.7677
G01 X7.0523 Y18.7426
G01 X7.0396 Y18.7173
G01 X6.4029 Y17.4210
G01 X5.6310 Y16.1348
G01 X4.7516 Y14.9229
G01 X3.7700 Y13.7923
G01 X2.6935 Y12.7515
G01 X1.6685 Y11.9205
G01 X1.4243 Y11.8136
G01 X1.3944 Y11.8001
G01 X1.3548 Y11.7810
G01 X1.3255 Y11.7662
G01 X1.2965 Y11.7508
G01 X1.0060 Y11.5920
G01 X0.9775 Y11.5760
G01 X0.9398 Y11.5537
G01 X0.9121 Y11.5364
G01 X0.8847 Y11.5186
G01 X0.6091 Y11.3351
G01 X0.5820 Y11.3167
G01 X0.5554 Y11.2977
G01 X0.5202 Y11.2715
G01 X0.4944 Y11.2513
G01 X0.2359 Y11.0445
G01 X0.2105 Y11.0238
G01 X0.1856 Y11.0025
G01 X0.1528 Y10.9733
G01 X0.1289 Y10.9510
G01 X-0.1106 Y10.7224
G01 X-0.1340 Y10.6996
G01 X-0.1646 Y10.6682
G01 X-0.1870 Y10.6444
G01 X-0.2088 Y10.6201
G01 X-0.4275 Y10.3715
G01 X-0.4488 Y10.3468
G01 X-0.4765 Y10.3129
G01 X-0.4967 Y10.2873
G01 X-0.5163 Y10.2612
G01 X-0.7125 Y9.9946
G01 X-0.7317 Y9.9680
G01 X-0.7503 Y9.9409
G01 X-0.7744 Y9.9042
G01 X-0.7918 Y9.8764
G01 X-0.9640 Y9.5936
G01 X-0.9807 Y9.5655
G01 X-0.9968 Y9.5370
G01 X-1.0176 Y9.4985
G01 X-1.0324 Y9.4693
G01 X-1.1793 Y9.1726
G01 X-1.1935 Y9.1432
G01 X-1.2071 Y9.1134
G01 X-1.2245 Y9.0732
G01 X-1.2367 Y9.0428
G01 X-1.3572 Y8.7344
G01 X-1.3687 Y8.7039
G01 X-1.3832 Y8.6626
G01 X-1.3934 Y8.6316
G01 X-1.4030 Y8.6003
G01 X-1.4962 Y8.2826
G01 X-1.5051 Y8.2511
G01 X-1.5132 Y8.2193
G01 X-1.5234 Y8.1766
G01 X-1.5302 Y8.1445
G01 X-1.5953 Y7.8199
G01 X-1.6021 Y7.7835
G01 X-1.6081 Y7.7468
G01 X-1.6150 Y7.6976
G01 X-1.6191 Y7.6608
G01 X-1.6223 Y7.6238
G01 X-1.6252 Y7.5742
G01 X-1.6266 Y7.5371
G01 X-1.6271 Y7.5000
G00 X-1.6271 Y7.5000
G01 F10.00
G01 Z-1.5000
G01 F20.00
G01 X-1.6271 Y0.0000
G01 X-1.6266 Y-0.0368
G01 X-1.6253 Y-0.0736
G01 X-1.6226 Y-0.1194
G01 X-1.6196 Y-0.1560
G01 X-1.6156 Y-0.1926
G01 X-1.6102 Y-0.2326
G01 X-1.6013 Y-0.2885
G01 X-1.5943 Y-0.3247
G01 X-1.5865 Y-0.3606
G01 X-1.5766 Y-0.4014
G01 X-1.5626 Y-0.4534
G01 X-1.5537 Y-0.4832
G01 X-1.5441 Y-0.5128
G01 X-1.5339 Y-0.5422
G01 X-1.5187 Y-0.5837
G01 X-1.5052 Y-0.6179
G01 X-1.4908 Y-0.6518
G01 X-1.4680 Y-0.7012
G01 X-1.4567 Y-0.7246
G01 X-1.4400 Y-0.7574
G01 X-1.4225 Y-0.7898
G01 X-1.3922 Y-0.8417
G01 X-1.3697 Y-0.8782
G01 X-1.3495 Y-0.9090
G01 X-1.3285 Y-0.9393
G01 X-1.3105 Y-0.9641
G01 X-1.2727 Y-1.0136
G01 X-1.2522 Y-1.0389
G01 X-1.2312 Y-1.0636
G01 X-1.2013 Y-1.0972
G01 X-1.1705 Y-1.1301
G01 X-1.1387 Y-1.1621
G01 X-1.1181 Y-1.1819
G01 X-1.0879 Y-1.2096
G01 X-1.0636 Y-1.2312
G01 X-1.0389 Y-1.2522
G01 X-1.0136 Y-1.2727
G01 X-0.9641 Y-1.3105
G01 X-0.9206 Y-1.3416
G01 X-0.8946 Y-1.3590
G01 X-0.8684 Y-1.3759
G01 X-0.8311 Y-1.3987
G01 X-0.7992 Y-1.4172
G01 X-0.7670 Y-1.4349
G01 X-0.7343 Y-1.4519
G01 X-0.6900 Y-1.4734
G01 X-0.6542 Y-1.4897
G01 X-0.6203 Y-1.5042
G01 X-0.5861 Y-1.5178
G01 X-0.5422 Y-1.5339
G01 X-0.4958 Y-1.5497
G01 X-0.4607 Y-1.5605
G01 X-0.4252 Y-1.5705
G01 X-0.4014 Y-1.5766
G01 X-0.3454 Y-1.5900
G01 X-0.3093 Y-1.5974
G01 X-0.2731 Y-1.6039
G01 X-0.2326 Y-1.6102
G01 X-0.2037 Y-1.6142
G01 X-0.1671 Y-1.6185
G01 X-0.1305 Y-1.6218
G01 X-0.0861 Y-1.6246
G01 X-0.0368 Y-1.6266
G01 X0.0000 Y-1.6271
G01 X34.5000 Y-1.6271
G01 X34.5368 Y-1.6266
G01 X34.5861 Y-1.6246
G01 X34.6228 Y-1.6224
G01 X34.6595 Y-1.6192
G01 X34.6961 Y-1.6152
G01 X34.7326 Y-1.6102
G01 X34.7812 Y-1.6025
G01 X34.8174 Y-1.5958
G01 X34.8534 Y-1.5882
G01 X34.8893 Y-1.5797
G01 X34.9370 Y-1.5673
G01 X34.9723 Y-1.5570
G01 X35.0074 Y-1.5459
G01 X35.0540 Y-1.5297
G01 X35.0885 Y-1.5169
G01 X35.1227 Y-1.5032
G01 X35.1565 Y-1.4887
G01 X35.1900 Y-1.4734
G01 X35.2343 Y-1.4519
G01 X35.2670 Y-1.4349
G01 X35.2992 Y-1.4172
G01 X35.3417 Y-1.3922
G01 X35.3731 Y-1.3729
G01 X35.4039 Y-1.3529
G01 X35.4343 Y-1.3320
G01 X35.4742 Y-1.3030
G01 X35.5035 Y-1.2807
G01 X35.5322 Y-1.2577
G01 X35.5604 Y-1.2340
G01 X35.5972 Y-1.2013
G01 X35.6242 Y-1.1762
G01 X35.6505 Y-1.1505
G01 X35.6762 Y-1.1242
G01 X35.7013 Y-1.0972
G01 X35.7340 Y-1.0604
G01 X35.7577 Y-1.0322
G01 X35.7807 Y-1.0035
G01 X35.8030 Y-0.9742
G01 X35.8320 Y-0.9343
G01 X35.8529 Y-0.9039
G01 X35.8729 Y-0.8731
G01 X35.8987 Y-0.8311
G01 X35.9172 Y-0.7992
G01 X35.9349 Y-0.7670
G01 X35.9519 Y-0.7343
G01 X35.9680 Y-0.7012
G01 X35.9887 Y-0.6565
G01 X36.0032 Y-0.6226
G01 X36.0169 Y-0.5885
G01 X36.0339 Y-0.5422
G01 X36.0459 Y-0.5074
G01 X36.0570 Y-0.4723
G01 X36.0673 Y-0.4370
G01 X36.0797 Y-0.3893
G01 X36.0882 Y-0.3534
G01 X36.0958 Y-0.3174
G01 X36.1025 Y-0.2812
G01 X36.1084 Y-0.2449
G01 X36.1152 Y-0.1961
G01 X36.1192 Y-0.1595
G01 X36.1224 Y-0.1228
G01 X36.1246 Y-0.0861
G01 X36.1266 Y-0.0368
G01 X36.1271 Y0.0000
G01 X36.1271 Y7.5000
G01 X36.1264 Y7.5447
G01 X36.1235 Y7.6045
G01 X36.1202 Y7.6491
G01 X36.1155 Y7.6936
G01 X36.1095 Y7.7379
G01 X36.0995 Y7.7969
G01 X36.0909 Y7.8408
G01 X36.0810 Y7.8844
G01 X36.0348 Y8.0744
G01 X36.0214 Y8.1257
G01 X36.0115 Y8.1598
G01 X36.0037 Y8.1851
G01 X35.9087 Y8.4825
G01 X35.8984 Y8.5136
G01 X35.8874 Y8.5446
G01 X35.8718 Y8.5857
G01 X35.8595 Y8.6161
G01 X35.7388 Y8.9042
G01 X35.7258 Y8.9342
G01 X35.7076 Y8.9738
G01 X35.6934 Y9.0031
G01 X35.6785 Y9.0322
G01 X35.5333 Y9.3086
G01 X35.5177 Y9.3375
G01 X35.5015 Y9.3661
G01 X35.4790 Y9.4040
G01 X35.4615 Y9.4318
G01 X35.2926 Y9.6945
G01 X35.2747 Y9.7217
G01 X35.2562 Y9.7485
G01 X35.2307 Y9.7840
G01 X35.2111 Y9.8099
G01 X35.0201 Y10.0569
G01 X34.9998 Y10.0826
G01 X34.9788 Y10.1079
G01 X34.9502 Y10.1413
G01 X34.9282 Y10.1656
G01 X34.7163 Y10.3950
G01 X34.6938 Y10.4188
G01 X34.6709 Y10.4421
G01 X34.6395 Y10.4727
G01 X34.6156 Y10.4949
G01 X34.3846 Y10.7049
G01 X34.3602 Y10.7266
G01 X34.3268 Y10.7549
G01 X34.3015 Y10.7755
G01 X34.2757 Y10.7956
G01 X34.0272 Y10.9848
G01 X34.0009 Y11.0043
G01 X33.9650 Y11.0297
G01 X33.9379 Y11.0481
G01 X33.9103 Y11.0660
G01 X33.6463 Y11.2327
G01 X33.6184 Y11.2498
G01 X33.5806 Y11.2719
G01 X33.5520 Y11.2878
G01 X33.5099 Y11.3099
G01 X33.2335 Y11.6168
G01 X31.4265 Y13.8580
G01 X29.8365 Y16.2260
G01 X28.4247 Y18.7858
G01 X28.4013 Y18.8267
G01 X28.3851 Y18.8537
G01 X28.3250 Y18.9483
G01 X28.2918 Y18.9972
G01 X27.7416 Y19.7776
G01 X27.7224 Y19.8042
G01 X27.6959 Y19.8391
G01 X27.6756 Y19.8648
G01 X27.6548 Y19.8900
G01 X27.0386 Y20.6195
G01 X27.0172 Y20.6443
G01 X26.9953 Y20.6685
G01 X26.9654 Y20.7005
G01 X26.9424 Y20.7238
G01 X26.2651 Y21.3968
G01 X26.2416 Y21.4196
G01 X26.2094 Y21.4494
G01 X26.1849 Y21.4712
G01 X26.1600 Y21.4925
G01 X25.4265 Y22.1038
G01 X25.4012 Y22.1244
G01 X25.3754 Y22.1445
G01 X25.3404 Y22.1707
G01 X25.3138 Y22.1897
G01 X24.5299 Y22.7349
G01 X24.5028 Y22.7533
G01 X24.4753 Y22.7711
G01 X24.4381 Y22.7942
G01 X24.4099 Y22.8108
G01 X23.5815 Y23.2855
G01 X23.5529 Y23.3015
G01 X23.5240 Y23.3168
G01 X23.4850 Y23.3365
G01 X23.4554 Y23.3506
G01 X22.5887 Y23.7514
G01 X22.5588 Y23.7648
G01 X22.5287 Y23.7776
G01 X22.4879 Y23.7939
G01 X22.4572 Y23.8054
G01 X21.5589 Y24.1290
G01 X21.5281 Y24.1397
G01 X21.4864 Y24.1531
G01 X21.4551 Y24.1625
G01 X21.4236 Y24.1712
G01 X20.5005 Y24.4154
G01 X20.4688 Y24.4234
G01 X20.4260 Y24.4331
G01 X20.3939 Y24.4397
G01 X20.3616 Y24.4457
G01 X19.4207 Y24.6084
G01 X19.3885 Y24.6136
G01 X19.3561 Y24.6181
G01 X19.3127 Y24.6233
G01 X19.2802 Y24.6264
G01 X18.3287 Y24.7066
G01 X18.2960 Y24.7090
G01 X18.2633 Y24.7107
G01 X18.2195 Y24.7121
G01 X18.1867 Y24.7124
G01 X17.2319 Y24.7093
G01 X17.1992 Y24.7088
G01 X17.1665 Y24.7076
G01 X17.1227 Y24.7052
G01 X17.0901 Y24.7026
G01 X16.1392 Y24.6163
G01 X16.1067 Y24.6130
G01 X16.0742 Y24.6090
G01 X16.0308 Y24.6027
G01 X15.9985 Y24.5973
G01 X15.0587 Y24.4284
G01 X15.0266 Y24.4223
G01 X14.9946 Y24.4154
G01 X14.9520 Y24.4055
G01 X14.9203 Y24.3973
G01 X13.9988 Y24.1472
G01 X13.9674 Y24.1383
G01 X13.9255 Y24.1253
G01 X13.8945 Y24.1150
G01 X13.8637 Y24.1041
G01 X12.9675 Y23.7747
G01 X12.9368 Y23.7630
G01 X12.9065 Y23.7507
G01 X12.8661 Y23.7335
G01 X12.8363 Y23.7199
G01 X11.9722 Y23.3135
G01 X11.9428 Y23.2992
G01 X11.9136 Y23.2843
G01 X11.8750 Y23.2636
G01 X11.8466 Y23.2475
G01 X11.0213 Y22.7674
G01 X10.9932 Y22.7506
G01 X10.9655 Y22.7333
G01 X10.9288 Y22.7094
G01 X10.9019 Y22.6908
G01 X10.1215 Y22.1406
G01 X10.0949 Y22.1215
G01 X10.0688 Y22.1017
G01 X10.0344 Y22.0747
G01 X10.0092 Y22.0539
G01 X9.2797 Y21.4378
G01 X9.2549 Y21.4164
G01 X9.2306 Y21.3945
G01 X9.1986 Y21.3645
G01 X9.1753 Y21.3415
G01 X8.5023 Y20.6642
G01 X8.4795 Y20.6407
G01 X8.4572 Y20.6168
G01 X8.4279 Y20.5841
G01 X8.4067 Y20.5592
G01 X7.7953 Y19.8257
G01 X7.7746 Y19.8003
G01 X7.7478 Y19.7657
G01 X7.7282 Y19.7395
G01 X7.7093 Y19.7128
G01 X7.1642 Y18.9289
G01 X7.1482 Y18.9055
G01 X7.1275 Y18.8737
G01 X7.1125 Y18.8497
G01 X7.0979 Y18.8255
G01 X7.0837 Y18.8009
G01 X7.0655 Y18.7677
G01 X7.0523 Y18.7426
G01 X7.0396 Y18.7173
G01 X6.4029 Y17.4210
G01 X5.6310 Y16.1348
G01 X4.7516 Y14.9229
G01 X3.7700 Y13.7923
G01 X2.6935 Y12.7515
G01 X1.6685 Y11.9205
G01 X1.4243 Y11.8136
G01 X1.3944 Y11.8001
G01 X1.3548 Y11.7810
G01 X1.3255 Y11.7662
G01 X1.2965 Y11.7508
G01 X1.0060 Y11.5920
G01 X0.9775 Y11.5760
G01 X0.9398 Y11.5537
G01 X0.9121 Y11.5364
G01 X0.8847 Y11.5186
G01 X0.6091 Y11.3351
G01 X0.5820 Y11.3167
G01 X0.5554 Y11.2977
G01 X0.5202 Y11.2715
G01 X0.4944 Y11.2513
G01 X0.2359 Y11.0445
G01 X0.2105 Y11.0238
G01 X0.1856 Y11.0025
G01 X0.1528 Y10.9733
G01 X0.1289 Y10.9510
G01 X-0.1106 Y10.7224
G01 X-0.1340 Y10.6996
G01 X-0.1646 Y10.6682
G01 X-0.1870 Y10.6444
G01 X-0.2088 Y10.6201
G01 X-0.4275 Y10.3715
G01 X-0.4488 Y10.3468
G01 X-0.4765 Y10.3129
G01 X-0.4967 Y10.2873
G01 X-0.5163 Y10.2612
G01 X-0.7125 Y9.9946
G01 X-0.7317 Y9.9680
G01 X-0.7503 Y9.9409
G01 X-0.7744 Y9.9042
G01 X-0.7918 Y9.8764
G01 X-0.9640 Y9.5936
G01 X-0.9807 Y9.5655
G01 X-0.9968 Y9.5370
G01 X-1.0176 Y9.4985
G01 X-1.0324 Y9.4693
G01 X-1.1793 Y9.1726
G01 X-1.1935 Y9.1432
G01 X-1.2071 Y9.1134
G01 X-1.2245 Y9.0732
G01 X-1.2367 Y9.0428
G01 X-1.3572 Y8.7344
G01 X-1.3687 Y8.7039
G01 X-1.3832 Y8.6626
G01 X-1.3934 Y8.6316
G01 X-1.4030 Y8.6003
G01 X-1.4962 Y8.2826
G01 X-1.5051 Y8.2511
G01 X-1.5132 Y8.2193
G01 X-1.5234 Y8.1766
G01 X-1.5302 Y8.1445
G01 X-1.5953 Y7.8199
G01 X-1.6021 Y7.7835
G01 X-1.6081 Y7.7468
G01 X-1.6150 Y7.6976
G01 X-1.6191 Y7.6608
G01 X-1.6223 Y7.6238
G01 X-1.6252 Y7.5742
G01 X-1.6266 Y7.5371
G01 X-1.6271 Y7.5000
G00 X-1.6271 Y7.5000
G01 F10.00
G01 Z-1.8000
G01 F20.00
G01 X-1.6271 Y0.0000
G01 X-1.6266 Y-0.0368
G01 X-1.6253 Y-0.0736
G01 X-1.6226 Y-0.1194
G01 X-1.6196 Y-0.1560
G01 X-1.6156 Y-0.1926
G01 X-1.6102 Y-0.2326
G01 X-1.6013 Y-0.2885
G01 X-1.5943 Y-0.3247
G01 X-1.5865 Y-0.3606
G01 X-1.5766 Y-0.4014
G01 X-1.5626 Y-0.4534
G01 X-1.5537 Y-0.4832
G01 X-1.5441 Y-0.5128
G01 X-1.5339 Y-0.5422
G01 X-1.5187 Y-0.5837
G01 X-1.5052 Y-0.6179
G01 X-1.4908 Y-0.6518
G01 X-1.4680 Y-0.7012
G01 X-1.4567 Y-0.7246
G01 X-1.4400 Y-0.7574
G01 X-1.4225 Y-0.7898
G01 X-1.3922 Y-0.8417
G01 X-1.3697 Y-0.8782
G01 X-1.3495 Y-0.9090
G01 X-1.3285 Y-0.9393
G01 X-1.3105 Y-0.9641
G01 X-1.2727 Y-1.0136
G01 X-1.2522 Y-1.0389
G01 X-1.2312 Y-1.0636
G01 X-1.2013 Y-1.0972
G01 X-1.1705 Y-1.1301
G01 X-1.1387 Y-1.1621
G01 X-1.1181 Y-1.1819
G01 X-1.0879 Y-1.2096
G01 X-1.0636 Y-1.2312
G01 X-1.0389 Y-1.2522
G01 X-1.0136 Y-1.2727
G01 X-0.9641 Y-1.3105
G01 X-0.9206 Y-1.3416
G01 X-0.8946 Y-1.3590
G01 X-0.8684 Y-1.3759
G01 X-0.8311 Y-1.3987
G01 X-0.7992 Y-1.4172
G01 X-0.7670 Y-1.4349
G01 X-0.7343 Y-1.4519
G01 X-0.6900 Y-1.4734
G01 X-0.6542 Y-1.4897
G01 X-0.6203 Y-1.5042
G01 X-0.5861 Y-1.5178
G01 X-0.5422 Y-1.5339
G01 X-0.4958 Y-1.5497
G01 X-0.4607 Y-1.5605
G01 X-0.4252 Y-1.5705
G01 X-0.4014 Y-1.5766
G01 X-0.3454 Y-1.5900
G01 X-0.3093 Y-1.5974
G01 X-0.2731 Y-1.6039
G01 X-0.2326 Y-1.6102
G01 X-0.2037 Y-1.6142
G01 X-0.1671 Y-1.6185
G01 X-0.1305 Y-1.6218
G01 X-0.0861 Y-1.6246
G01 X-0.0368 Y-1.6266
G01 X0.0000 Y-1.6271
G01 X34.5000 Y-1.6271
G01 X34.5368 Y-1.6266
G01 X34.5861 Y-1.6246
G01 X34.6228 Y-1.6224
G01 X34.6595 Y-1.6192
G01 X34.6961 Y-1.6152
G01 X34.7326 Y-1.6102
G01 X34.7812 Y-1.6025
G01 X34.8174 Y-1.5958
G01 X34.8534 Y-1.5882
G01 X34.8893 Y-1.5797
G01 X34.9370 Y-1.5673
G01 X34.9723 Y-1.5570
G01 X35.0074 Y-1.5459
G01 X35.0540 Y-1.5297
G01 X35.0885 Y-1.5169
G01 X35.1227 Y-1.5032
G01 X35.1565 Y-1.4887
G01 X35.1900 Y-1.4734
G01 X35.2343 Y-1.4519
G01 X35.2670 Y-1.4349
G01 X35.2992 Y-1.4172
G01 X35.3417 Y-1.3922
G01 X35.3731 Y-1.3729
G01 X35.4039 Y-1.3529
G01 X35.4343 Y-1.3320
G01 X35.4742 Y-1.3030
G01 X35.5035 Y-1.2807
G01 X35.5322 Y-1.2577
G01 X35.5604 Y-1.2340
G01 X35.5972 Y-1.2013
G01 X35.6242 Y-1.1762
G01 X35.6505 Y-1.1505
G01 X35.6762 Y-1.1242
G01 X35.7013 Y-1.0972
G01 X35.7340 Y-1.0604
G01 X35.7577 Y-1.0322
G01 X35.7807 Y-1.0035
G01 X35.8030 Y-0.9742
G01 X35.8320 Y-0.9343
G01 X35.8529 Y-0.9039
G01 X35.8729 Y-0.8731
G01 X35.8987 Y-0.8311
G01 X35.9172 Y-0.7992
G01 X35.9349 Y-0.7670
G01 X35.9519 Y-0.7343
G01 X35.9680 Y-0.7012
G01 X35.9887 Y-0.6565
G01 X36.0032 Y-0.6226
G01 X36.0169 Y-0.5885
G01 X36.0339 Y-0.5422
G01 X36.0459 Y-0.5074
G01 X36.0570 Y-0.4723
G01 X36.0673 Y-0.4370
G01 X36.0797 Y-0.3893
G01 X36.0882 Y-0.3534
G01 X36.0958 Y-0.3174
G01 X36.1025 Y-0.2812
G01 X36.1084 Y-0.2449
G01 X36.1152 Y-0.1961
G01 X36.1192 Y-0.1595
G01 X36.1224 Y-0.1228
G01 X36.1246 Y-0.0861
G01 X36.1266 Y-0.0368
G01 X36.1271 Y0.0000
G01 X36.1271 Y7.5000
G01 X36.1264 Y7.5447
G01 X36.1235 Y7.6045
G01 X36.1202 Y7.6491
G01 X36.1155 Y7.6936
G01 X36.1095 Y7.7379
G01 X36.0995 Y7.7969
G01 X36.0909 Y7.8408
G01 X36.0810 Y7.8844
G01 X36.0348 Y8.0744
G01 X36.0214 Y8.1257
G01 X36.0115 Y8.1598
G01 X36.0037 Y8.1851
G01 X35.9087 Y8.4825
G01 X35.8984 Y8.5136
G01 X35.8874 Y8.5446
G01 X35.8718 Y8.5857
G01 X35.8595 Y8.6161
G01 X35.7388 Y8.9042
G01 X35.7258 Y8.9342
G01 X35.7076 Y8.9738
G01 X35.6934 Y9.0031
G01 X35.6785 Y9.0322
G01 X35.5333 Y9.3086
G01 X35.5177 Y9.3375
G01 X35.5015 Y9.3661
G01 X35.4790 Y9.4040
G01 X35.4615 Y9.4318
G01 X35.2926 Y9.6945
G01 X35.2747 Y9.7217
G01 X35.2562 Y9.7485
G01 X35.2307 Y9.7840
G01 X35.2111 Y9.8099
G01 X35.0201 Y10.0569
G01 X34.9998 Y10.0826
G01 X34.9788 Y10.1079
G01 X34.9502 Y10.1413
G01 X34.9282 Y10.1656
G01 X34.7163 Y10.3950
G01 X34.6938 Y10.4188
G01 X34.6709 Y10.4421
G01 X34.6395 Y10.4727
G01 X34.6156 Y10.4949
G01 X34.3846 Y10.7049
G01 X34.3602 Y10.7266
G01 X34.3268 Y10.7549
G01 X34.3015 Y10.7755
G01 X34.2757 Y10.7956
G01 X34.0272 Y10.9848
G01 X34.0009 Y11.0043
G01 X33.9650 Y11.0297
G01 X33.9379 Y11.0481
G01 X33.9103 Y11.0660
G01 X33.6463 Y11.2327
G01 X33.6184 Y11.2498
G01 X33.5806 Y11.2719
G01 X33.5520 Y11.2878
G01 X33.5099 Y11.3099
G01 X33.2335 Y11.6168
G01 X31.4265 Y13.8580
G01 X29.8365 Y16.2260
G01 X28.4247 Y18.7858
G01 X28.4013 Y18.8267
G01 X28.3851 Y18.8537
G01 X28.3250 Y18.9483
G01 X28.2918 Y18.9972
G01 X27.7416 Y19.7776
G01 X27.7224 Y19.8042
G01 X27.6959 Y19.8391
G01 X27.6756 Y19.8648
G01 X27.6548 Y19.8900
G01 X27.0386 Y20.6195
G01 X27.0172 Y20.6443
G01 X26.9953 Y20.6685
G01 X26.9654 Y20.7005
G01 X26.9424 Y20.7238
G01 X26.2651 Y21.3968
G01 X26.2416 Y21.4196
G01 X26.2094 Y21.4494
G01 X26.1849 Y21.4712
G01 X26.1600 Y21.4925
G01 X25.4265 Y22.1038
G01 X25.4012 Y22.1244
G01 X25.3754 Y22.1445
G01 X25.3404 Y22.1707
G01 X25.3138 Y22.1897
G01 X24.5299 Y22.7349
G01 X24.5028 Y22.7533
G01 X24.4753 Y22.7711
G01 X24.4381 Y22.7942
G01 X24.4099 Y22.8108
G01 X23.5815 Y23.2855
G01 X23.5529 Y23.3015
G01 X23.5240 Y23.3168
G01 X23.4850 Y23.3365
G01 X23.4554 Y23.3506
G01 X22.5887 Y23.7514
G01 X22.5588 Y23.7648
G01 X22.5287 Y23.7776
G01 X22.4879 Y23.7939
G01 X22.4572 Y23.8054
G01 X21.5589 Y24.1290
G01 X21.5281 Y24.1397
G01 X21.4864 Y24.1531
G01 X21.4551 Y24.1625
G01 X21.4236 Y24.1712
G01 X20.5005 Y24.4154
G01 X20.4688 Y24.4234
G01 X20.4260 Y24.4331
G01 X20.3939 Y24.4397
G01 X20.3616 Y24.4457
G01 X19.4207 Y24.6084
G01 X19.3885 Y24.6136
G01 X19.3561 Y24.6181
G01 X19.3127 Y24.6233
G01 X19.2802 Y24.6264
G01 X18.3287 Y24.7066
G01 X18.2960 Y24.7090
G01 X18.2633 Y24.7107
G01 X18.2195 Y24.7121
G01 X18.1867 Y24.7124
G01 X17.2319 Y24.7093
G01 X17.1992 Y24.7088
G01 X17.1665 Y24.7076
G01 X17.1227 Y24.7052
G01 X17.0901 Y24.7026
G01 X16.1392 Y24.6163
G01 X16.1067 Y24.6130
G01 X16.0742 Y24.6090
G01 X16.0308 Y24.6027
G01 X15.9985 Y24.5973
G01 X15.0587 Y24.4284
G01 X15.0266 Y24.4223
G01 X14.9946 Y24.4154
G01 X14.9520 Y24.4055
G01 X14.9203 Y24.3973
G01 X13.9988 Y24.1472
G01 X13.9674 Y24.1383
G01 X13.9255 Y24.1253
G01 X13.8945 Y24.1150
G01 X13.8637 Y24.1041
G01 X12.9675 Y23.7747
G01 X12.9368 Y23.7630
G01 X12.9065 Y23.7507
G01 X12.8661 Y23.7335
G01 X12.8363 Y23.7199
G01 X11.9722 Y23.3135
G01 X11.9428 Y23.2992
G01 X11.9136 Y23.2843
G01 X11.8750 Y23.2636
G01 X11.8466 Y23.2475
G01 X11.0213 Y22.7674
G01 X10.9932 Y22.7506
G01 X10.9655 Y22.7333
G01 X10.9288 Y22.7094
G01 X10.9019 Y22.6908
G01 X10.1215 Y22.1406
G01 X10.0949 Y22.1215
G01 X10.0688 Y22.1017
G01 X10.0344 Y22.0747
G01 X10.0092 Y22.0539
G01 X9.2797 Y21.4378
G01 X9.2549 Y21.4164
G01 X9.2306 Y21.3945
G01 X9.1986 Y21.3645
G01 X9.1753 Y21.3415
G01 X8.5023 Y20.6642
G01 X8.4795 Y20.6407
G01 X8.4572 Y20.6168
G01 X8.4279 Y20.5841
G01 X8.4067 Y20.5592
G01 X7.7953 Y19.8257
G01 X7.7746 Y19.8003
G01 X7.7478 Y19.7657
G01 X7.7282 Y19.7395
G01 X7.7093 Y19.7128
G01 X7.1642 Y18.9289
G01 X7.1482 Y18.9055
G01 X7.1275 Y18.8737
G01 X7.1125 Y18.8497
G01 X7.0979 Y18.8255
G01 X7.0837 Y18.8009
G01 X7.0655 Y18.7677
G01 X7.0523 Y18.7426
G01 X7.0396 Y18.7173
G01 X6.4029 Y17.4210
G01 X5.6310 Y16.1348
G01 X4.7516 Y14.9229
G01 X3.7700 Y13.7923
G01 X2.6935 Y12.7515
G01 X1.6685 Y11.9205
G01 X1.4243 Y11.8136
G01 X1.3944 Y11.8001
G01 X1.3548 Y11.7810
G01 X1.3255 Y11.7662
G01 X1.2965 Y11.7508
G01 X1.0060 Y11.5920
G01 X0.9775 Y11.5760
G01 X0.9398 Y11.5537
G01 X0.9121 Y11.5364
G01 X0.8847 Y11.5186
G01 X0.6091 Y11.3351
G01 X0.5820 Y11.3167
G01 X0.5554 Y11.2977
G01 X0.5202 Y11.2715
G01 X0.4944 Y11.2513
G01 X0.2359 Y11.0445
G01 X0.2105 Y11.0238
G01 X0.1856 Y11.0025
G01 X0.1528 Y10.9733
G01 X0.1289 Y10.9510
G01 X-0.1106 Y10.7224
G01 X-0.1340 Y10.6996
G01 X-0.1646 Y10.6682
G01 X-0.1870 Y10.6444
G01 X-0.2088 Y10.6201
G01 X-0.4275 Y10.3715
G01 X-0.4488 Y10.3468
G01 X-0.4765 Y10.3129
G01 X-0.4967 Y10.2873
G01 X-0.5163 Y10.2612
G01 X-0.7125 Y9.9946
G01 X-0.7317 Y9.9680
G01 X-0.7503 Y9.9409
G01 X-0.7744 Y9.9042
G01 X-0.7918 Y9.8764
G01 X-0.9640 Y9.5936
G01 X-0.9807 Y9.5655
G01 X-0.9968 Y9.5370
G01 X-1.0176 Y9.4985
G01 X-1.0324 Y9.4693
G01 X-1.1793 Y9.1726
G01 X-1.1935 Y9.1432
G01 X-1.2071 Y9.1134
G01 X-1.2245 Y9.0732
G01 X-1.2367 Y9.0428
G01 X-1.3572 Y8.7344
G01 X-1.3687 Y8.7039
G01 X-1.3832 Y8.6626
G01 X-1.3934 Y8.6316
G01 X-1.4030 Y8.6003
G01 X-1.4962 Y8.2826
G01 X-1.5051 Y8.2511
G01 X-1.5132 Y8.2193
G01 X-1.5234 Y8.1766
G01 X-1.5302 Y8.1445
G01 X-1.5953 Y7.8199
G01 X-1.6021 Y7.7835
G01 X-1.6081 Y7.7468
G01 X-1.6150 Y7.6976
G01 X-1.6191 Y7.6608
G01 X-1.6223 Y7.6238
G01 X-1.6252 Y7.5742
G01 X-1.6266 Y7.5371
G01 X-1.6271 Y7.5000
G00 X-1.6271 Y7.5000
G01 F10.00
G01 Z-1.8500
G01 F20.00
G01 X-1.6271 Y0.0000
G01 X-1.6266 Y-0.0368
G01 X-1.6253 Y-0.0736
G01 X-1.6226 Y-0.1194
G01 X-1.6196 Y-0.1560
G01 X-1.6156 Y-0.1926
G01 X-1.6102 Y-0.2326
G01 X-1.6013 Y-0.2885
G01 X-1.5943 Y-0.3247
G01 X-1.5865 Y-0.3606
G01 X-1.5766 Y-0.4014
G01 X-1.5626 Y-0.4534
G01 X-1.5537 Y-0.4832
G01 X-1.5441 Y-0.5128
G01 X-1.5339 Y-0.5422
G01 X-1.5187 Y-0.5837
G01 X-1.5052 Y-0.6179
G01 X-1.4908 Y-0.6518
G01 X-1.4680 Y-0.7012
G01 X-1.4567 Y-0.7246
G01 X-1.4400 Y-0.7574
G01 X-1.4225 Y-0.7898
G01 X-1.3922 Y-0.8417
G01 X-1.3697 Y-0.8782
G01 X-1.3495 Y-0.9090
G01 X-1.3285 Y-0.9393
G01 X-1.3105 Y-0.9641
G01 X-1.2727 Y-1.0136
G01 X-1.2522 Y-1.0389
G01 X-1.2312 Y-1.0636
G01 X-1.2013 Y-1.0972
G01 X-1.1705 Y-1.1301
G01 X-1.1387 Y-1.1621
G01 X-1.1181 Y-1.1819
G01 X-1.0879 Y-1.2096
G01 X-1.0636 Y-1.2312
G01 X-1.0389 Y-1.2522
G01 X-1.0136 Y-1.2727
G01 X-0.9641 Y-1.3105
G01 X-0.9206 Y-1.3416
G01 X-0.8946 Y-1.3590
G01 X-0.8684 Y-1.3759
G01 X-0.8311 Y-1.3987
G01 X-0.7992 Y-1.4172
G01 X-0.7670 Y-1.4349
G01 X-0.7343 Y-1.4519
G01 X-0.6900 Y-1.4734
G01 X-0.6542 Y-1.4897
G01 X-0.6203 Y-1.5042
G01 X-0.5861 Y-1.5178
G01 X-0.5422 Y-1.5339
G01 X-0.4958 Y-1.5497
G01 X-0.4607 Y-1.5605
G01 X-0.4252 Y-1.5705
G01 X-0.4014 Y-1.5766
G01 X-0.3454 Y-1.5900
G01 X-0.3093 Y-1.5974
G01 X-0.2731 Y-1.6039
G01 X-0.2326 Y-1.6102
G01 X-0.2037 Y-1.6142
G01 X-0.1671 Y-1.6185
G01 X-0.1305 Y-1.6218
G01 X-0.0861 Y-1.6246
G01 X-0.0368 Y-1.6266
G01 X0.0000 Y-1.6271
G01 X34.5000 Y-1.6271
G01 X34.5368 Y-1.6266
G01 X34.5861 Y-1.6246
G01 X34.6228 Y-1.6224
G01 X34.6595 Y-1.6192
G01 X34.6961 Y-1.6152
G01 X34.7326 Y-1.6102
G01 X34.7812 Y-1.6025
G01 X34.8174 Y-1.5958
G01 X34.8534 Y-1.5882
G01 X34.8893 Y-1.5797
G01 X34.9370 Y-1.5673
G01 X34.9723 Y-1.5570
G01 X35.0074 Y-1.5459
G01 X35.0540 Y-1.5297
G01 X35.0885 Y-1.5169
G01 X35.1227 Y-1.5032
G01 X35.1565 Y-1.4887
G01 X35.1900 Y-1.4734
G01 X35.2343 Y-1.4519
G01 X35.2670 Y-1.4349
G01 X35.2992 Y-1.4172
G01 X35.3417 Y-1.3922
G01 X35.3731 Y-1.3729
G01 X35.4039 Y-1.3529
G01 X35.4343 Y-1.3320
G01 X35.4742 Y-1.3030
G01 X35.5035 Y-1.2807
G01 X35.5322 Y-1.2577
G01 X35.5604 Y-1.2340
G01 X35.5972 Y-1.2013
G01 X35.6242 Y-1.1762
G01 X35.6505 Y-1.1505
G01 X35.6762 Y-1.1242
G01 X35.7013 Y-1.0972
G01 X35.7340 Y-1.0604
G01 X35.7577 Y-1.0322
G01 X35.7807 Y-1.0035
G01 X35.8030 Y-0.9742
G01 X35.8320 Y-0.9343
G01 X35.8529 Y-0.9039
G01 X35.8729 Y-0.8731
G01 X35.8987 Y-0.8311
G01 X35.9172 Y-0.7992
G01 X35.9349 Y-0.7670
G01 X35.9519 Y-0.7343
G01 X35.9680 Y-0.7012
G01 X35.9887 Y-0.6565
G01 X36.0032 Y-0.6226
G01 X36.0169 Y-0.5885
G01 X36.0339 Y-0.5422
G01 X36.0459 Y-0.5074
G01 X36.0570 Y-0.4723
G01 X36.0673 Y-0.4370
G01 X36.0797 Y-0.3893
G01 X36.0882 Y-0.3534
G01 X36.0958 Y-0.3174
G01 X36.1025 Y-0.2812
G01 X36.1084 Y-0.2449
G01 X36.1152 Y-0.1961
G01 X36.1192 Y-0.1595
G01 X36.1224 Y-0.1228
G01 X36.1246 Y-0.0861
G01 X36.1266 Y-0.0368
G01 X36.1271 Y0.0000
G01 X36.1271 Y7.5000
G01 X36.1264 Y7.5447
G01 X36.1235 Y7.6045
G01 X36.1202 Y7.6491
G01 X36.1155 Y7.6936
G01 X36.1095 Y7.7379
G01 X36.0995 Y7.7969
G01 X36.0909 Y7.8408
G01 X36.0810 Y7.8844
G01 X36.0348 Y8.0744
G01 X36.0214 Y8.1257
G01 X36.0115 Y8.1598
G01 X36.0037 Y8.1851
G01 X35.9087 Y8.4825
G01 X35.8984 Y8.5136
G01 X35.8874 Y8.5446
G01 X35.8718 Y8.5857
G01 X35.8595 Y8.6161
G01 X35.7388 Y8.9042
G01 X35.7258 Y8.9342
G01 X35.7076 Y8.9738
G01 X35.6934 Y9.0031
G01 X35.6785 Y9.0322
G01 X35.5333 Y9.3086
G01 X35.5177 Y9.3375
G01 X35.5015 Y9.3661
G01 X35.4790 Y9.4040
G01 X35.4615 Y9.4318
G01 X35.2926 Y9.6945
G01 X35.2747 Y9.7217
G01 X35.2562 Y9.7485
G01 X35.2307 Y9.7840
G01 X35.2111 Y9.8099
G01 X35.0201 Y10.0569
G01 X34.9998 Y10.0826
G01 X34.9788 Y10.1079
G01 X34.9502 Y10.1413
G01 X34.9282 Y10.1656
G01 X34.7163 Y10.3950
G01 X34.6938 Y10.4188
G01 X34.6709 Y10.4421
G01 X34.6395 Y10.4727
G01 X34.6156 Y10.4949
G01 X34.3846 Y10.7049
G01 X34.3602 Y10.7266
G01 X34.3268 Y10.7549
G01 X34.3015 Y10.7755
G01 X34.2757 Y10.7956
G01 X34.0272 Y10.9848
G01 X34.0009 Y11.0043
G01 X33.9650 Y11.0297
G01 X33.9379 Y11.0481
G01 X33.9103 Y11.0660
G01 X33.6463 Y11.2327
G01 X33.6184 Y11.2498
G01 X33.5806 Y11.2719
G01 X33.5520 Y11.2878
G01 X33.5099 Y11.3099
G01 X33.2335 Y11.6168
G01 X31.4265 Y13.8580
G01 X29.8365 Y16.2260
G01 X28.4247 Y18.7858
G01 X28.4013 Y18.8267
G01 X28.3851 Y18.8537
G01 X28.3250 Y18.9483
G01 X28.2918 Y18.9972
G01 X27.7416 Y19.7776
G01 X27.7224 Y19.8042
G01 X27.6959 Y19.8391
G01 X27.6756 Y19.8648
G01 X27.6548 Y19.8900
G01 X27.0386 Y20.6195
G01 X27.0172 Y20.6443
G01 X26.9953 Y20.6685
G01 X26.9654 Y20.7005
G01 X26.9424 Y20.7238
G01 X26.2651 Y21.3968
G01 X26.2416 Y21.4196
G01 X26.2094 Y21.4494
G01 X26.1849 Y21.4712
G01 X26.1600 Y21.4925
G01 X25.4265 Y22.1038
G01 X25.4012 Y22.1244
G01 X25.3754 Y22.1445
G01 X25.3404 Y22.1707
G01 X25.3138 Y22.1897
G01 X24.5299 Y22.7349
G01 X24.5028 Y22.7533
G01 X24.4753 Y22.7711
G01 X24.4381 Y22.7942
G01 X24.4099 Y22.8108
G01 X23.5815 Y23.2855
G01 X23.5529 Y23.3015
G01 X23.5240 Y23.3168
G01 X23.4850 Y23.3365
G01 X23.4554 Y23.3506
G01 X22.5887 Y23.7514
G01 X22.5588 Y23.7648
G01 X22.5287 Y23.7776
G01 X22.4879 Y23.7939
G01 X22.4572 Y23.8054
G01 X21.5589 Y24.1290
G01 X21.5281 Y24.1397
G01 X21.4864 Y24.1531
G01 X21.4551 Y24.1625
G01 X21.4236 Y24.1712
G01 X20.5005 Y24.4154
G01 X20.4688 Y24.4234
G01 X20.4260 Y24.4331
G01 X20.3939 Y24.4397
G01 X20.3616 Y24.4457
G01 X19.4207 Y24.6084
G01 X19.3885 Y24.6136
G01 X19.3561 Y24.6181
G01 X19.3127 Y24.6233
G01 X19.2802 Y24.6264
G01 X18.3287 Y24.7066
G01 X18.2960 Y24.7090
G01 X18.2633 Y24.7107
G01 X18.2195 Y24.7121
G01 X18.1867 Y24.7124
G01 X17.2319 Y24.7093
G01 X17.1992 Y24.7088
G01 X17.1665 Y24.7076
G01 X17.1227 Y24.7052
G01 X17.0901 Y24.7026
G01 X16.1392 Y24.6163
G01 X16.1067 Y24.6130
G01 X16.0742 Y24.6090
G01 X16.0308 Y24.6027
G01 X15.9985 Y24.5973
G01 X15.0587 Y24.4284
G01 X15.0266 Y24.4223
G01 X14.9946 Y24.4154
G01 X14.9520 Y24.4055
G01 X14.9203 Y24.3973
G01 X13.9988 Y24.1472
G01 X13.9674 Y24.1383
G01 X13.9255 Y24.1253
G01 X13.8945 Y24.1150
G01 X13.8637 Y24.1041
G01 X12.9675 Y23.7747
G01 X12.9368 Y23.7630
G01 X12.9065 Y23.7507
G01 X12.8661 Y23.7335
G01 X12.8363 Y23.7199
G01 X11.9722 Y23.3135
G01 X11.9428 Y23.2992
G01 X11.9136 Y23.2843
G01 X11.8750 Y23.2636
G01 X11.8466 Y23.2475
G01 X11.0213 Y22.7674
G01 X10.9932 Y22.7506
G01 X10.9655 Y22.7333
G01 X10.9288 Y22.7094
G01 X10.9019 Y22.6908
G01 X10.1215 Y22.1406
G01 X10.0949 Y22.1215
G01 X10.0688 Y22.1017
G01 X10.0344 Y22.0747
G01 X10.0092 Y22.0539
G01 X9.2797 Y21.4378
G01 X9.2549 Y21.4164
G01 X9.2306 Y21.3945
G01 X9.1986 Y21.3645
G01 X9.1753 Y21.3415
G01 X8.5023 Y20.6642
G01 X8.4795 Y20.6407
G01 X8.4572 Y20.6168
G01 X8.4279 Y20.5841
G01 X8.4067 Y20.5592
G01 X7.7953 Y19.8257
G01 X7.7746 Y19.8003
G01 X7.7478 Y19.7657
G01 X7.7282 Y19.7395
G01 X7.7093 Y19.7128
G01 X7.1642 Y18.9289
G01 X7.1482 Y18.9055
G01 X7.1275 Y18.8737
G01 X7.1125 Y18.8497
G01 X7.0979 Y18.8255
G01 X7.0837 Y18.8009
G01 X7.0655 Y18.7677
G01 X7.0523 Y18.7426
G01 X7.0396 Y18.7173
G01 X6.4029 Y17.4210
G01 X5.6310 Y16.1348
G01 X4.7516 Y14.9229
G01 X3.7700 Y13.7923
G01 X2.6935 Y12.7515
G01 X1.6685 Y11.9205
G01 X1.4243 Y11.8136
G01 X1.3944 Y11.8001
G01 X1.3548 Y11.7810
G01 X1.3255 Y11.7662
G01 X1.2965 Y11.7508
G01 X1.0060 Y11.5920
G01 X0.9775 Y11.5760
G01 X0.9398 Y11.5537
G01 X0.9121 Y11.5364
G01 X0.8847 Y11.5186
G01 X0.6091 Y11.3351
G01 X0.5820 Y11.3167
G01 X0.5554 Y11.2977
G01 X0.5202 Y11.2715
G01 X0.4944 Y11.2513
G01 X0.2359 Y11.0445
G01 X0.2105 Y11.0238
G01 X0.1856 Y11.0025
G01 X0.1528 Y10.9733
G01 X0.1289 Y10.9510
G01 X-0.1106 Y10.7224
G01 X-0.1340 Y10.6996
G01 X-0.1646 Y10.6682
G01 X-0.1870 Y10.6444
G01 X-0.2088 Y10.6201
G01 X-0.4275 Y10.3715
G01 X-0.4488 Y10.3468
G01 X-0.4765 Y10.3129
G01 X-0.4967 Y10.2873
G01 X-0.5163 Y10.2612
G01 X-0.7125 Y9.9946
G01 X-0.7317 Y9.9680
G01 X-0.7503 Y9.9409
G01 X-0.7744 Y9.9042
G01 X-0.7918 Y9.8764
G01 X-0.9640 Y9.5936
G01 X-0.9807 Y9.5655
G01 X-0.9968 Y9.5370
G01 X-1.0176 Y9.4985
G01 X-1.0324 Y9.4693
G01 X-1.1793 Y9.1726
G01 X-1.1935 Y9.1432
G01 X-1.2071 Y9.1134
G01 X-1.2245 Y9.0732
G01 X-1.2367 Y9.0428
G01 X-1.3572 Y8.7344
G01 X-1.3687 Y8.7039
G01 X-1.3832 Y8.6626
G01 X-1.3934 Y8.6316
G01 X-1.4030 Y8.6003
G01 X-1.4962 Y8.2826
G01 X-1.5051 Y8.2511
G01 X-1.5132 Y8.2193
G01 X-1.5234 Y8.1766
G01 X-1.5302 Y8.1445
G01 X-1.5953 Y7.8199
G01 X-1.6021 Y7.7835
G01 X-1.6081 Y7.7468
G01 X-1.6150 Y7.6976
G01 X-1.6191 Y7.6608
G01 X-1.6223 Y7.6238
G01 X-1.6252 Y7.5742
G01 X-1.6266 Y7.5371
G01 X-1.6271 Y7.5000
G00 Z5.0000
M05
G00 Z5.0000
G00 Z15.00


