(G-CODE GENERATED BY FLATCAM v8.994 - www.flatcam.org - Version Date: 2020/11/7)

(Name: drill_1_16.xln_cnc)
(Type: G-code from Geometry)
(Units: MM)

(Created on Sunday, 16 April 2023 at 11:51)

(This preprocessor is the default preprocessor used by FlatCAM.)
(It is made to work with MACH3 compatible motion controllers.)


(TOOLS DIAMETER: )
(Tool: 1 -> Dia: 2.35)
(Tool: 2 -> Dia: 3.1)
(Tool: 3 -> Dia: 6.45)

(FEEDRATE Z: )
(Tool: 1 -> Feedrate: 5.0)
(Tool: 2 -> Feedrate: 5.0)
(Tool: 3 -> Feedrate: 5.0)

(FEEDRATE RAPIDS: )
(Tool: 1 -> Feedrate Rapids: 1500)
(Tool: 2 -> Feedrate Rapids: 1500)
(Tool: 3 -> Feedrate Rapids: 1500)

(Z_CUT: )
(Tool: 1 -> Z_Cut: -2.0)
(Tool: 2 -> Z_Cut: -2.0)
(Tool: 3 -> Z_Cut: -2.0)

(Tools Offset: )
(Tool: 1 -> Offset Z: 0.0)
(Tool: 2 -> Offset Z: 0.0)
(Tool: 3 -> Offset Z: 0.0)

(Z_MOVE: )
(Tool: 1 -> Z_Move: 10.0)
(Tool: 2 -> Z_Move: 10.0)
(Tool: 3 -> Z_Move: 10.0)

(Z Toolchange: 10.0 mm)
(X,Y Toolchange: 0.0000, 0.0000 mm)
(Z Start: None mm)
(Z End: 10.0 mm)
(X,Y End: None mm)
(Steps per circle: 64)
(Preprocessor Excellon: default)

(X range:  -13.6000 ...   13.6000  mm)
(Y range:   -3.2250 ...    3.2250  mm)

(Spindle Speed: 0 RPM)
G21
G90
G94

G01 F5.00

M5
G00 Z10.0000
T1
G00 X0.0000 Y0.0000                
M6
(MSG, Change to Tool Dia = 2.3500 ||| Total drills for tool T1 = 5)
M0
G00 Z10.0000

G01 F5.00
M03
G00 X6.2000 Y0.0000
G01 Z-2.0000
G01 Z0
G00 Z10.0000
G00 X0.0000 Y0.0000
G01 Z-2.0000
G01 Z0
G00 Z10.0000
G00 X-6.2000 Y0.0000
G01 Z-2.0000
G01 Z0
G00 Z10.0000
G00 X-12.0500 Y-1.5000
G01 Z-2.0000
G01 Z0
G00 Z10.0000
G00 X12.0500 Y-1.5000
G01 Z-2.0000
G01 Z0
G00 Z10.0000
M05
G00 Z10.00


