(G-CODE GENERATED BY FLATCAM v8.994 - www.flatcam.org - Version Date: 2020/11/7)

(Name: profile.gbr_edit_iso_combined_cnc)
(Type: G-code from Geometry)
(Units: MM)

(Created on Sunday, 16 April 2023 at 11:14)

(This preprocessor is the default preprocessor used by FlatCAM.)
(It is made to work with MACH3 compatible motion controllers.)

(TOOL DIAMETER: 3.175 mm)
(Feedrate_XY: 10.0 mm/min)
(Feedrate_Z: 10.0 mm/min)
(Feedrate rapids 1500.0 mm/min)

(Z_Cut: -2.0 mm)
(Z_Move: 5.0 mm)
(Z Start: None mm)
(Z End: 15.0 mm)
(X,Y End: None mm)
(Steps per circle: 64)
(Preprocessor Geometry: default)

(X range:  -20.7047 ...   20.7046  mm)
(Y range:   -8.2048 ...    8.2047  mm)

(Spindle Speed: 0.0 RPM)
G21
G90
G94

G01 F10.00

M5
G00 Z15.0000
G00 X0.0000 Y0.0000
T2
M6    
(MSG, Change to Tool Dia = 3.1750)
M0
G00 Z15.0000

M03
G01 F10.00
G00 X1.5104 Y-0.0369
G01 F10.00
G01 Z-2.0000
G01 F10.00
G01 X1.5068 Y-0.1111
G01 X1.4995 Y-0.1852
G01 X1.4886 Y-0.2584
G01 X1.4742 Y-0.3308
G01 X1.4561 Y-0.4031
G01 X1.4347 Y-0.4739
G01 X1.4097 Y-0.5435
G01 X1.3813 Y-0.6122
G01 X1.3494 Y-0.6795
G01 X1.3145 Y-0.7450
G01 X1.2767 Y-0.8081
G01 X1.2354 Y-0.8698
G01 X1.1911 Y-0.9295
G01 X1.1441 Y-0.9867
G01 X1.0942 Y-1.0418
G01 X1.0418 Y-1.0942
G01 X0.9867 Y-1.1441
G01 X0.9295 Y-1.1911
G01 X0.8698 Y-1.2354
G01 X0.8081 Y-1.2767
G01 X0.7450 Y-1.3145
G01 X0.6795 Y-1.3494
G01 X0.6122 Y-1.3813
G01 X0.5435 Y-1.4097
G01 X0.4739 Y-1.4347
G01 X0.4031 Y-1.4561
G01 X0.3308 Y-1.4742
G01 X0.2584 Y-1.4886
G01 X0.1852 Y-1.4995
G01 X0.1111 Y-1.5068
G01 X0.0369 Y-1.5104
G01 X-0.0369 Y-1.5104
G01 X-0.1111 Y-1.5068
G01 X-0.1852 Y-1.4995
G01 X-0.2584 Y-1.4886
G01 X-0.3308 Y-1.4742
G01 X-0.4031 Y-1.4561
G01 X-0.4739 Y-1.4347
G01 X-0.5435 Y-1.4097
G01 X-0.6122 Y-1.3813
G01 X-0.6795 Y-1.3494
G01 X-0.7450 Y-1.3145
G01 X-0.8081 Y-1.2767
G01 X-0.8698 Y-1.2354
G01 X-0.9295 Y-1.1911
G01 X-0.9867 Y-1.1441
G01 X-1.0418 Y-1.0942
G01 X-1.0942 Y-1.0418
G01 X-1.1441 Y-0.9867
G01 X-1.1911 Y-0.9295
G01 X-1.2354 Y-0.8698
G01 X-1.2767 Y-0.8081
G01 X-1.3145 Y-0.7450
G01 X-1.3494 Y-0.6795
G01 X-1.3813 Y-0.6122
G01 X-1.4097 Y-0.5435
G01 X-1.4347 Y-0.4739
G01 X-1.4561 Y-0.4031
G01 X-1.4742 Y-0.3308
G01 X-1.4886 Y-0.2584
G01 X-1.4995 Y-0.1852
G01 X-1.5068 Y-0.1111
G01 X-1.5104 Y-0.0369
G01 X-1.5104 Y0.0369
G01 X-1.5068 Y0.1111
G01 X-1.4995 Y0.1852
G01 X-1.4886 Y0.2584
G01 X-1.4742 Y0.3308
G01 X-1.4561 Y0.4031
G01 X-1.4347 Y0.4739
G01 X-1.4097 Y0.5435
G01 X-1.3813 Y0.6122
G01 X-1.3494 Y0.6795
G01 X-1.3145 Y0.7450
G01 X-1.2767 Y0.8081
G01 X-1.2354 Y0.8698
G01 X-1.1911 Y0.9295
G01 X-1.1441 Y0.9867
G01 X-1.0942 Y1.0418
G01 X-1.0418 Y1.0942
G01 X-0.9867 Y1.1441
G01 X-0.9295 Y1.1911
G01 X-0.8698 Y1.2354
G01 X-0.8081 Y1.2767
G01 X-0.7450 Y1.3145
G01 X-0.6795 Y1.3494
G01 X-0.6122 Y1.3813
G01 X-0.5435 Y1.4097
G01 X-0.4739 Y1.4347
G01 X-0.4031 Y1.4561
G01 X-0.3308 Y1.4742
G01 X-0.2584 Y1.4886
G01 X-0.1852 Y1.4995
G01 X-0.1111 Y1.5068
G01 X-0.0369 Y1.5104
G01 X0.0369 Y1.5104
G01 X0.1111 Y1.5068
G01 X0.1852 Y1.4995
G01 X0.2584 Y1.4886
G01 X0.3308 Y1.4742
G01 X0.4031 Y1.4561
G01 X0.4739 Y1.4347
G01 X0.5435 Y1.4097
G01 X0.6122 Y1.3813
G01 X0.6795 Y1.3494
G01 X0.7450 Y1.3145
G01 X0.8081 Y1.2767
G01 X0.8698 Y1.2354
G01 X0.9295 Y1.1911
G01 X0.9867 Y1.1441
G01 X1.0418 Y1.0942
G01 X1.0942 Y1.0418
G01 X1.1441 Y0.9867
G01 X1.1911 Y0.9295
G01 X1.2354 Y0.8698
G01 X1.2767 Y0.8081
G01 X1.3145 Y0.7450
G01 X1.3494 Y0.6795
G01 X1.3813 Y0.6122
G01 X1.4097 Y0.5435
G01 X1.4347 Y0.4739
G01 X1.4561 Y0.4031
G01 X1.4742 Y0.3308
G01 X1.4886 Y0.2584
G01 X1.4995 Y0.1852
G01 X1.5068 Y0.1111
G01 X1.5104 Y0.0369
G01 X1.5104 Y-0.0369
G00 Z5.0000
G00 X-20.7041 Y-0.0500
G01 F10.00
G01 Z-2.0000
G01 F10.00
G01 X-20.7029 Y-0.0875
G01 X-20.6773 Y-0.6531
G01 X-20.6754 Y-0.6876
G01 X-20.6717 Y-0.7331
G01 X-20.6683 Y-0.7675
G01 X-20.6641 Y-0.8018
G01 X-20.5894 Y-1.3631
G01 X-20.5844 Y-1.3974
G01 X-20.5768 Y-1.4426
G01 X-20.5703 Y-1.4767
G01 X-20.5631 Y-1.5106
G01 X-20.4397 Y-2.0631
G01 X-20.4318 Y-2.0968
G01 X-20.4203 Y-2.1410
G01 X-20.4109 Y-2.1744
G01 X-20.4008 Y-2.2075
G01 X-20.2297 Y-2.7473
G01 X-20.2189 Y-2.7802
G01 X-20.2073 Y-2.8129
G01 X-20.1913 Y-2.8557
G01 X-20.1783 Y-2.8879
G01 X-19.9608 Y-3.4106
G01 X-19.9471 Y-3.4424
G01 X-19.9328 Y-3.4739
G01 X-19.9131 Y-3.5151
G01 X-19.8974 Y-3.5459
G01 X-19.6352 Y-4.0477
G01 X-19.6189 Y-4.0782
G01 X-19.6019 Y-4.1083
G01 X-19.5786 Y-4.1476
G01 X-19.5603 Y-4.1770
G01 X-19.2554 Y-4.6541
G01 X-19.2364 Y-4.6831
G01 X-19.2168 Y-4.7117
G01 X-19.1902 Y-4.7489
G01 X-19.1693 Y-4.7767
G01 X-18.8239 Y-5.2254
G01 X-18.8025 Y-5.2526
G01 X-18.7733 Y-5.2879
G01 X-18.7507 Y-5.3141
G01 X-18.7275 Y-5.3399
G01 X-18.3443 Y-5.7567
G01 X-18.3206 Y-5.7819
G01 X-18.2964 Y-5.8066
G01 X-18.2638 Y-5.8385
G01 X-18.2386 Y-5.8621
G01 X-17.8206 Y-6.2440
G01 X-17.7948 Y-6.2671
G01 X-17.7599 Y-6.2967
G01 X-17.7331 Y-6.3187
G01 X-17.7058 Y-6.3400
G01 X-17.2561 Y-6.6840
G01 X-17.2284 Y-6.7048
G01 X-17.1911 Y-6.7312
G01 X-17.1625 Y-6.7508
G01 X-17.1334 Y-6.7696
G01 X-16.6554 Y-7.0731
G01 X-16.6260 Y-7.0914
G01 X-16.5865 Y-7.1146
G01 X-16.5562 Y-7.1315
G01 X-16.5256 Y-7.1478
G01 X-16.0230 Y-7.4084
G01 X-15.9922 Y-7.4240
G01 X-15.9509 Y-7.4436
G01 X-15.9194 Y-7.4578
G01 X-15.8876 Y-7.4713
G01 X-15.3642 Y-7.6872
G01 X-15.3320 Y-7.7001
G01 X-15.2891 Y-7.7160
G01 X-15.2563 Y-7.7275
G01 X-15.2233 Y-7.7382
G01 X-14.6830 Y-7.9076
G01 X-14.6499 Y-7.9176
G01 X-14.6166 Y-7.9269
G01 X-14.5724 Y-7.9383
G01 X-14.5387 Y-7.9461
G01 X-13.9858 Y-8.0678
G01 X-13.9519 Y-8.0748
G01 X-13.9179 Y-8.0812
G01 X-13.8728 Y-8.0887
G01 X-13.8385 Y-8.0935
G01 X-13.2770 Y-8.1666
G01 X-13.2429 Y-8.1707
G01 X-13.2087 Y-8.1740
G01 X-13.1634 Y-8.1775
G01 X-13.1291 Y-8.1794
G01 X-12.5737 Y-8.2032
G01 X-12.5173 Y-8.2047
G01 X12.5003 Y-8.2047
G01 X12.5405 Y-8.2042
G01 X12.5751 Y-8.2030
G01 X13.1408 Y-8.1783
G01 X13.1754 Y-8.1764
G01 X13.2211 Y-8.1728
G01 X13.2557 Y-8.1694
G01 X13.2901 Y-8.1653
G01 X13.8514 Y-8.0913
G01 X13.8857 Y-8.0864
G01 X13.9307 Y-8.0788
G01 X13.9647 Y-8.0724
G01 X13.9985 Y-8.0653
G01 X14.5513 Y-7.9427
G01 X14.5851 Y-7.9348
G01 X14.6186 Y-7.9262
G01 X14.6627 Y-7.9140
G01 X14.6959 Y-7.9039
G01 X15.2358 Y-7.7336
G01 X15.2687 Y-7.7229
G01 X15.3117 Y-7.7076
G01 X15.3441 Y-7.6954
G01 X15.3762 Y-7.6825
G01 X15.8993 Y-7.4658
G01 X15.9311 Y-7.4522
G01 X15.9727 Y-7.4333
G01 X16.0039 Y-7.4183
G01 X16.0347 Y-7.4027
G01 X16.5369 Y-7.1413
G01 X16.5675 Y-7.1249
G01 X16.5978 Y-7.1079
G01 X16.6373 Y-7.0846
G01 X16.6667 Y-7.0663
G01 X17.1442 Y-6.7620
G01 X17.1732 Y-6.7431
G01 X17.2018 Y-6.7236
G01 X17.2389 Y-6.6971
G01 X17.2666 Y-6.6763
G01 X17.7158 Y-6.3316
G01 X17.7430 Y-6.3103
G01 X17.7783 Y-6.2811
G01 X17.8046 Y-6.2586
G01 X17.8304 Y-6.2355
G01 X18.2478 Y-5.8530
G01 X18.2731 Y-5.8293
G01 X18.3057 Y-5.7972
G01 X18.3299 Y-5.7724
G01 X18.3536 Y-5.7471
G01 X18.7361 Y-5.3296
G01 X18.7592 Y-5.3038
G01 X18.7889 Y-5.2690
G01 X18.8109 Y-5.2423
G01 X18.8323 Y-5.2150
G01 X19.1769 Y-4.7658
G01 X19.1977 Y-4.7381
G01 X19.2178 Y-4.7100
G01 X19.2437 Y-4.6723
G01 X19.2626 Y-4.6433
G01 X19.5668 Y-4.1657
G01 X19.5851 Y-4.1363
G01 X19.6027 Y-4.1065
G01 X19.6253 Y-4.0668
G01 X19.6416 Y-4.0362
G01 X19.9030 Y-3.5340
G01 X19.9186 Y-3.5031
G01 X19.9336 Y-3.4719
G01 X19.9526 Y-3.4302
G01 X19.9662 Y-3.3983
G01 X20.1828 Y-2.8752
G01 X20.1957 Y-2.8432
G01 X20.2117 Y-2.8004
G01 X20.2231 Y-2.7678
G01 X20.2339 Y-2.7350
G01 X20.4042 Y-2.1950
G01 X20.4143 Y-2.1618
G01 X20.4236 Y-2.1284
G01 X20.4351 Y-2.0840
G01 X20.4430 Y-2.0502
G01 X20.5655 Y-1.4974
G01 X20.5726 Y-1.4635
G01 X20.5790 Y-1.4295
G01 X20.5865 Y-1.3843
G01 X20.5914 Y-1.3500
G01 X20.6652 Y-0.7887
G01 X20.6694 Y-0.7544
G01 X20.6737 Y-0.7090
G01 X20.6763 Y-0.6746
G01 X20.6782 Y-0.6401
G01 X20.7029 Y-0.0750
G01 X20.7042 Y-0.0348
G01 X20.7046 Y0.0199
G01 X20.7041 Y0.0569
G01 X20.7027 Y0.0998
G01 X20.6763 Y0.6654
G01 X20.6743 Y0.7001
G01 X20.6715 Y0.7347
G01 X20.6670 Y0.7803
G01 X20.6628 Y0.8147
G01 X20.5871 Y1.3758
G01 X20.5821 Y1.4100
G01 X20.5763 Y1.4441
G01 X20.5679 Y1.4889
G01 X20.5607 Y1.5227
G01 X20.4365 Y2.0751
G01 X20.4285 Y2.1088
G01 X20.4198 Y2.1424
G01 X20.4075 Y2.1865
G01 X20.3973 Y2.2196
G01 X20.2254 Y2.7590
G01 X20.2145 Y2.7919
G01 X20.2030 Y2.8245
G01 X20.1868 Y2.8673
G01 X20.1738 Y2.8994
G01 X19.9555 Y3.4219
G01 X19.9418 Y3.4537
G01 X19.9274 Y3.4852
G01 X19.9076 Y3.5265
G01 X19.8919 Y3.5573
G01 X19.6289 Y4.0587
G01 X19.6125 Y4.0892
G01 X19.5954 Y4.1192
G01 X19.5722 Y4.1585
G01 X19.5538 Y4.1878
G01 X19.2482 Y4.6644
G01 X19.2292 Y4.6934
G01 X19.2095 Y4.7220
G01 X19.1828 Y4.7592
G01 X19.1618 Y4.7870
G01 X18.8157 Y5.2351
G01 X18.7943 Y5.2622
G01 X18.7651 Y5.2973
G01 X18.7425 Y5.3235
G01 X18.7194 Y5.3492
G01 X18.3356 Y5.7655
G01 X18.3118 Y5.7907
G01 X18.2796 Y5.8232
G01 X18.2548 Y5.8474
G01 X18.2294 Y5.8710
G01 X17.8108 Y6.2522
G01 X17.7850 Y6.2752
G01 X17.7502 Y6.3047
G01 X17.7233 Y6.3266
G01 X17.6961 Y6.3479
G01 X17.2459 Y6.6912
G01 X17.2180 Y6.7119
G01 X17.1898 Y6.7321
G01 X17.1520 Y6.7579
G01 X17.1228 Y6.7768
G01 X16.6443 Y7.0795
G01 X16.6149 Y7.0976
G01 X16.5755 Y7.1207
G01 X16.5453 Y7.1375
G01 X16.5148 Y7.1537
G01 X16.0118 Y7.4136
G01 X15.9808 Y7.4292
G01 X15.9395 Y7.4487
G01 X15.9079 Y7.4629
G01 X15.8760 Y7.4764
G01 X15.3522 Y7.6915
G01 X15.3200 Y7.7043
G01 X15.2771 Y7.7202
G01 X15.2444 Y7.7316
G01 X15.2115 Y7.7423
G01 X14.6710 Y7.9109
G01 X14.6378 Y7.9208
G01 X14.6044 Y7.9301
G01 X14.5600 Y7.9414
G01 X14.5262 Y7.9492
G01 X13.9731 Y8.0700
G01 X13.9393 Y8.0770
G01 X13.8943 Y8.0852
G01 X13.8602 Y8.0907
G01 X13.8259 Y8.0955
G01 X13.2643 Y8.1677
G01 X13.2305 Y8.1716
G01 X13.1858 Y8.1758
G01 X13.1519 Y8.1783
G01 X13.1179 Y8.1801
G01 X12.5725 Y8.2031
G01 X12.5170 Y8.2046
G01 X-12.5003 Y8.2047
G01 X-12.5349 Y8.2043
G01 X-12.5751 Y8.2030
G01 X-13.1407 Y8.1783
G01 X-13.1753 Y8.1764
G01 X-13.2208 Y8.1728
G01 X-13.2553 Y8.1694
G01 X-13.2897 Y8.1653
G01 X-13.8511 Y8.0914
G01 X-13.8854 Y8.0865
G01 X-13.9196 Y8.0809
G01 X-13.9646 Y8.0725
G01 X-13.9985 Y8.0654
G01 X-14.5513 Y7.9428
G01 X-14.5851 Y7.9349
G01 X-14.6186 Y7.9263
G01 X-14.6627 Y7.9141
G01 X-14.6959 Y7.9040
G01 X-15.2358 Y7.7337
G01 X-15.2687 Y7.7230
G01 X-15.3117 Y7.7077
G01 X-15.3441 Y7.6955
G01 X-15.3762 Y7.6826
G01 X-15.8993 Y7.4659
G01 X-15.9312 Y7.4523
G01 X-15.9728 Y7.4333
G01 X-16.0041 Y7.4183
G01 X-16.0350 Y7.4026
G01 X-16.5372 Y7.1411
G01 X-16.5677 Y7.1248
G01 X-16.5978 Y7.1079
G01 X-16.6372 Y7.0847
G01 X-16.6665 Y7.0664
G01 X-17.1440 Y6.7622
G01 X-17.1731 Y6.7433
G01 X-17.2016 Y6.7238
G01 X-17.2389 Y6.6972
G01 X-17.2666 Y6.6764
G01 X-17.7158 Y6.3317
G01 X-17.7430 Y6.3104
G01 X-17.7783 Y6.2812
G01 X-17.8046 Y6.2587
G01 X-17.8304 Y6.2356
G01 X-18.2478 Y5.8531
G01 X-18.2731 Y5.8294
G01 X-18.3057 Y5.7973
G01 X-18.3299 Y5.7725
G01 X-18.3536 Y5.7472
G01 X-18.7361 Y5.3297
G01 X-18.7592 Y5.3040
G01 X-18.7888 Y5.2692
G01 X-18.8108 Y5.2425
G01 X-18.8321 Y5.2153
G01 X-19.1768 Y4.7661
G01 X-19.1977 Y4.7383
G01 X-19.2179 Y4.7101
G01 X-19.2438 Y4.6724
G01 X-19.2628 Y4.6433
G01 X-19.5669 Y4.1658
G01 X-19.5851 Y4.1365
G01 X-19.6082 Y4.0972
G01 X-19.6252 Y4.0671
G01 X-19.6414 Y4.0367
G01 X-19.9029 Y3.5345
G01 X-19.9186 Y3.5035
G01 X-19.9337 Y3.4722
G01 X-19.9527 Y3.4305
G01 X-19.9663 Y3.3985
G01 X-20.1829 Y2.8754
G01 X-20.1958 Y2.8433
G01 X-20.2080 Y2.8109
G01 X-20.2233 Y2.7678
G01 X-20.2341 Y2.7349
G01 X-20.4043 Y2.1949
G01 X-20.4143 Y2.1618
G01 X-20.4236 Y2.1286
G01 X-20.4350 Y2.0844
G01 X-20.4429 Y2.0507
G01 X-20.5655 Y1.4979
G01 X-20.5726 Y1.4640
G01 X-20.5790 Y1.4298
G01 X-20.5866 Y1.3846
G01 X-20.5915 Y1.3502
G01 X-20.6653 Y0.7889
G01 X-20.6694 Y0.7549
G01 X-20.6738 Y0.7099
G01 X-20.6764 Y0.6758
G01 X-20.6783 Y0.6416
G01 X-20.7030 Y0.0862
G01 X-20.7046 Y0.0276
G01 X-20.7047 Y-0.0100
G01 X-20.7041 Y-0.0500
G00 Z5.0000
M05
G00 Z5.0000
G00 Z15.00


