(G-CODE GENERATED BY FLATCAM v8.994 - www.flatcam.org - Version Date: 2020/11/7)

(Name: profile.gbr_iso_combined_cnc)
(Type: G-code from Geometry)
(Units: MM)

(Created on Tuesday, 11 April 2023 at 15:48)

(This preprocessor is the default preprocessor used by FlatCAM.)
(It is made to work with MACH3 compatible motion controllers.)

(TOOL DIAMETER: 3.175 mm)
(Feedrate_XY: 5.0 mm/min)
(Feedrate_Z: 5.0 mm/min)
(Feedrate rapids 1500.0 mm/min)

(Z_Cut: -2.4 mm)
(Z_Move: 10.0 mm)
(Z Start: None mm)
(Z End: 15.0 mm)
(X,Y End: None mm)
(Steps per circle: 64)
(Preprocessor Geometry: default)

(X range:   -0.7146 ...  130.7146  mm)
(Y range:   -1.7146 ...    5.7146  mm)

(Spindle Speed: 0.0 RPM)
G21
G90
G94

G01 F5.00

M5
G00 Z15.0000
G00 X0.0000 Y0.0000
T1
M6    
(MSG, Change to Tool Dia = 3.1750)
M0
G00 Z15.0000

M03
G01 F5.00
G00 X-0.7146 Y4.0000
G01 F5.00
G01 Z-2.4000
G01 F5.00
G01 X-0.7146 Y0.0000
G01 X-0.7141 Y-0.0390
G01 X-0.7120 Y-0.0903
G01 X-0.7097 Y-0.1292
G01 X-0.7063 Y-0.1681
G01 X-0.7020 Y-0.2068
G01 X-0.6949 Y-0.2577
G01 X-0.6888 Y-0.2962
G01 X-0.6816 Y-0.3345
G01 X-0.6735 Y-0.3726
G01 X-0.6615 Y-0.4226
G01 X-0.6516 Y-0.4603
G01 X-0.6407 Y-0.4977
G01 X-0.6290 Y-0.5349
G01 X-0.6163 Y-0.5717
G01 X-0.5985 Y-0.6200
G01 X-0.5840 Y-0.6561
G01 X-0.5687 Y-0.6919
G01 X-0.5471 Y-0.7386
G01 X-0.5301 Y-0.7737
G01 X-0.5121 Y-0.8082
G01 X-0.4933 Y-0.8424
G01 X-0.4737 Y-0.8760
G01 X-0.4469 Y-0.9199
G01 X-0.4256 Y-0.9526
G01 X-0.4036 Y-0.9847
G01 X-0.3733 Y-1.0263
G01 X-0.3497 Y-1.0573
G01 X-0.3254 Y-1.0877
G01 X-0.3003 Y-1.1175
G01 X-0.2745 Y-1.1467
G01 X-0.2396 Y-1.1845
G01 X-0.2124 Y-1.2124
G01 X-0.1845 Y-1.2396
G01 X-0.1467 Y-1.2745
G01 X-0.1175 Y-1.3003
G01 X-0.0877 Y-1.3254
G01 X-0.0573 Y-1.3497
G01 X-0.0263 Y-1.3733
G01 X0.0153 Y-1.4036
G01 X0.0474 Y-1.4256
G01 X0.0801 Y-1.4469
G01 X0.1240 Y-1.4737
G01 X0.1576 Y-1.4933
G01 X0.1918 Y-1.5121
G01 X0.2263 Y-1.5301
G01 X0.2614 Y-1.5471
G01 X0.3081 Y-1.5687
G01 X0.3439 Y-1.5840
G01 X0.3800 Y-1.5985
G01 X0.4283 Y-1.6163
G01 X0.4651 Y-1.6290
G01 X0.5023 Y-1.6407
G01 X0.5397 Y-1.6516
G01 X0.5774 Y-1.6615
G01 X0.6274 Y-1.6735
G01 X0.6655 Y-1.6816
G01 X0.7038 Y-1.6888
G01 X0.7546 Y-1.6968
G01 X0.7932 Y-1.7020
G01 X0.8319 Y-1.7063
G01 X0.8708 Y-1.7097
G01 X0.9097 Y-1.7120
G01 X0.9610 Y-1.7141
G01 X1.0000 Y-1.7146
G01 X129.0000 Y-1.7146
G01 X129.0390 Y-1.7141
G01 X129.0903 Y-1.7120
G01 X129.1292 Y-1.7097
G01 X129.1681 Y-1.7063
G01 X129.2068 Y-1.7020
G01 X129.2577 Y-1.6949
G01 X129.2962 Y-1.6888
G01 X129.3345 Y-1.6816
G01 X129.3726 Y-1.6735
G01 X129.4105 Y-1.6645
G01 X129.4603 Y-1.6516
G01 X129.4977 Y-1.6407
G01 X129.5349 Y-1.6290
G01 X129.5834 Y-1.6121
G01 X129.6200 Y-1.5985
G01 X129.6561 Y-1.5840
G01 X129.6919 Y-1.5687
G01 X129.7386 Y-1.5471
G01 X129.7737 Y-1.5301
G01 X129.8082 Y-1.5121
G01 X129.8424 Y-1.4933
G01 X129.8867 Y-1.4673
G01 X129.9199 Y-1.4469
G01 X129.9526 Y-1.4256
G01 X129.9847 Y-1.4036
G01 X130.0163 Y-1.3807
G01 X130.0573 Y-1.3497
G01 X130.0877 Y-1.3254
G01 X130.1175 Y-1.3003
G01 X130.1559 Y-1.2661
G01 X130.1845 Y-1.2396
G01 X130.2124 Y-1.2124
G01 X130.2396 Y-1.1845
G01 X130.2745 Y-1.1467
G01 X130.3003 Y-1.1175
G01 X130.3254 Y-1.0877
G01 X130.3497 Y-1.0573
G01 X130.3733 Y-1.0263
G01 X130.4036 Y-0.9847
G01 X130.4256 Y-0.9526
G01 X130.4469 Y-0.9199
G01 X130.4737 Y-0.8760
G01 X130.4933 Y-0.8424
G01 X130.5121 Y-0.8082
G01 X130.5301 Y-0.7737
G01 X130.5471 Y-0.7386
G01 X130.5687 Y-0.6919
G01 X130.5840 Y-0.6561
G01 X130.5985 Y-0.6200
G01 X130.6121 Y-0.5834
G01 X130.6290 Y-0.5349
G01 X130.6407 Y-0.4977
G01 X130.6516 Y-0.4603
G01 X130.6645 Y-0.4105
G01 X130.6735 Y-0.3726
G01 X130.6816 Y-0.3345
G01 X130.6888 Y-0.2962
G01 X130.6949 Y-0.2577
G01 X130.7020 Y-0.2068
G01 X130.7063 Y-0.1681
G01 X130.7097 Y-0.1292
G01 X130.7120 Y-0.0903
G01 X130.7141 Y-0.0390
G01 X130.7146 Y0.0000
G01 X130.7146 Y4.0000
G01 X130.7141 Y4.0390
G01 X130.7120 Y4.0903
G01 X130.7097 Y4.1292
G01 X130.7063 Y4.1681
G01 X130.7020 Y4.2068
G01 X130.6949 Y4.2577
G01 X130.6888 Y4.2962
G01 X130.6816 Y4.3345
G01 X130.6735 Y4.3726
G01 X130.6615 Y4.4226
G01 X130.6516 Y4.4603
G01 X130.6407 Y4.4977
G01 X130.6290 Y4.5349
G01 X130.6163 Y4.5717
G01 X130.5985 Y4.6200
G01 X130.5840 Y4.6561
G01 X130.5687 Y4.6919
G01 X130.5471 Y4.7386
G01 X130.5301 Y4.7737
G01 X130.5121 Y4.8082
G01 X130.4933 Y4.8424
G01 X130.4737 Y4.8760
G01 X130.4469 Y4.9199
G01 X130.4256 Y4.9526
G01 X130.4036 Y4.9847
G01 X130.3733 Y5.0263
G01 X130.3497 Y5.0573
G01 X130.3254 Y5.0877
G01 X130.3003 Y5.1175
G01 X130.2745 Y5.1467
G01 X130.2396 Y5.1845
G01 X130.2124 Y5.2124
G01 X130.1845 Y5.2396
G01 X130.1467 Y5.2745
G01 X130.1175 Y5.3003
G01 X130.0877 Y5.3254
G01 X130.0573 Y5.3497
G01 X130.0263 Y5.3733
G01 X129.9847 Y5.4036
G01 X129.9526 Y5.4256
G01 X129.9199 Y5.4469
G01 X129.8760 Y5.4737
G01 X129.8424 Y5.4933
G01 X129.8082 Y5.5121
G01 X129.7737 Y5.5301
G01 X129.7386 Y5.5471
G01 X129.6919 Y5.5687
G01 X129.6561 Y5.5840
G01 X129.6200 Y5.5985
G01 X129.5717 Y5.6163
G01 X129.5349 Y5.6290
G01 X129.4977 Y5.6407
G01 X129.4603 Y5.6516
G01 X129.4226 Y5.6615
G01 X129.3726 Y5.6735
G01 X129.3345 Y5.6816
G01 X129.2962 Y5.6888
G01 X129.2454 Y5.6968
G01 X129.2068 Y5.7020
G01 X129.1681 Y5.7063
G01 X129.1292 Y5.7097
G01 X129.0903 Y5.7120
G01 X129.0390 Y5.7141
G01 X129.0000 Y5.7146
G01 X1.0000 Y5.7146
G01 X0.9610 Y5.7141
G01 X0.9097 Y5.7120
G01 X0.8708 Y5.7097
G01 X0.8319 Y5.7063
G01 X0.7932 Y5.7020
G01 X0.7423 Y5.6949
G01 X0.7038 Y5.6888
G01 X0.6655 Y5.6816
G01 X0.6274 Y5.6735
G01 X0.5895 Y5.6645
G01 X0.5397 Y5.6516
G01 X0.5023 Y5.6407
G01 X0.4651 Y5.6290
G01 X0.4166 Y5.6121
G01 X0.3800 Y5.5985
G01 X0.3439 Y5.5840
G01 X0.3081 Y5.5687
G01 X0.2726 Y5.5525
G01 X0.2263 Y5.5301
G01 X0.1918 Y5.5121
G01 X0.1576 Y5.4933
G01 X0.1133 Y5.4673
G01 X0.0801 Y5.4469
G01 X0.0474 Y5.4256
G01 X0.0153 Y5.4036
G01 X-0.0263 Y5.3733
G01 X-0.0573 Y5.3497
G01 X-0.0877 Y5.3254
G01 X-0.1175 Y5.3003
G01 X-0.1467 Y5.2745
G01 X-0.1845 Y5.2396
G01 X-0.2124 Y5.2124
G01 X-0.2396 Y5.1845
G01 X-0.2745 Y5.1467
G01 X-0.3003 Y5.1175
G01 X-0.3254 Y5.0877
G01 X-0.3497 Y5.0573
G01 X-0.3733 Y5.0263
G01 X-0.4036 Y4.9847
G01 X-0.4256 Y4.9526
G01 X-0.4469 Y4.9199
G01 X-0.4737 Y4.8760
G01 X-0.4933 Y4.8424
G01 X-0.5121 Y4.8082
G01 X-0.5301 Y4.7737
G01 X-0.5471 Y4.7386
G01 X-0.5687 Y4.6919
G01 X-0.5840 Y4.6561
G01 X-0.5985 Y4.6200
G01 X-0.6163 Y4.5717
G01 X-0.6290 Y4.5349
G01 X-0.6407 Y4.4977
G01 X-0.6516 Y4.4603
G01 X-0.6615 Y4.4226
G01 X-0.6735 Y4.3726
G01 X-0.6816 Y4.3345
G01 X-0.6888 Y4.2962
G01 X-0.6949 Y4.2577
G01 X-0.7020 Y4.2068
G01 X-0.7063 Y4.1681
G01 X-0.7097 Y4.1292
G01 X-0.7127 Y4.0779
G01 X-0.7141 Y4.0390
G01 X-0.7146 Y4.0000
G00 Z10.0000
M05
G00 Z10.0000
G00 Z15.00


