(G-CODE GENERATED BY FLATCAM v8.994 - www.flatcam.org - Version Date: 2020/11/7)

(Name: profile.gbr_iso_combined_cnc)
(Type: G-code from Geometry)
(Units: MM)

(Created on Tuesday, 11 April 2023 at 14:35)

(This preprocessor is the default preprocessor used by FlatCAM.)
(It is made to work with MACH3 compatible motion controllers.)

(TOOL DIAMETER: 3.175 mm)
(Feedrate_XY: 6.0 mm/min)
(Feedrate_Z: 6.0 mm/min)
(Feedrate rapids 1500.0 mm/min)

(Z_Cut: -2.0 mm)
(Z_Move: 10.0 mm)
(Z Start: None mm)
(Z End: 15.0 mm)
(X,Y End: None mm)
(Steps per circle: 64)
(Preprocessor Geometry: default)

(X range:   -0.6514 ...  127.7778  mm)
(Y range:   -0.8109 ...   19.5496  mm)

(Spindle Speed: 0.0 RPM)
G21
G90
G94

G01 F6.00

M5
G00 Z15.0000
G00 X0.0000 Y0.0000
T2
M6    
(MSG, Change to Tool Dia = 3.1750)
M0
G00 Z15.0000

M03
G01 F6.00
G00 X-0.6507 Y8.5997
G01 F6.00
G01 Z-2.0000
G01 F6.00
G01 X-0.6497 Y8.5696
G01 X-0.6459 Y8.4824
G01 X-0.6440 Y8.4476
G01 X-0.6404 Y8.4019
G01 X-0.6370 Y8.3672
G01 X-0.6328 Y8.3327
G01 X-0.6214 Y8.2463
G01 X-0.6165 Y8.2121
G01 X-0.6090 Y8.1671
G01 X-0.6026 Y8.1331
G01 X-0.5955 Y8.0993
G01 X-0.5766 Y8.0141
G01 X-0.5688 Y7.9805
G01 X-0.5574 Y7.9365
G01 X-0.5481 Y7.9034
G01 X-0.5381 Y7.8704
G01 X-0.5119 Y7.7872
G01 X-0.5011 Y7.7541
G01 X-0.4895 Y7.7212
G01 X-0.4734 Y7.6782
G01 X-0.4605 Y7.6458
G01 X-0.4271 Y7.5652
G01 X-0.4135 Y7.5334
G01 X-0.3992 Y7.5019
G01 X-0.3795 Y7.4606
G01 X-0.3639 Y7.4298
G01 X-0.3236 Y7.3524
G01 X-0.3074 Y7.3222
G01 X-0.2906 Y7.2923
G01 X-0.2677 Y7.2533
G01 X-0.2496 Y7.2242
G01 X-0.2028 Y7.1506
G01 X-0.1837 Y7.1213
G01 X-0.1640 Y7.0924
G01 X-0.1372 Y7.0548
G01 X-0.1162 Y7.0268
G01 X-0.0631 Y6.9576
G01 X-0.0416 Y6.9302
G01 X-0.0195 Y6.9032
G01 X0.0105 Y6.8682
G01 X0.0338 Y6.8422
G01 X0.0928 Y6.7779
G01 X0.1163 Y6.7528
G01 X0.1482 Y6.7204
G01 X0.1728 Y6.6963
G01 X0.1980 Y6.6728
G01 X0.2623 Y6.6139
G01 X0.2880 Y6.5908
G01 X0.3142 Y6.5683
G01 X0.3494 Y6.5393
G01 X0.3766 Y6.5180
G01 X0.4458 Y6.4649
G01 X0.4735 Y6.4441
G01 X0.5016 Y6.4239
G01 X0.5392 Y6.3981
G01 X0.5682 Y6.3792
G01 X0.6418 Y6.3323
G01 X0.6712 Y6.3140
G01 X0.7106 Y6.2908
G01 X0.7408 Y6.2738
G01 X0.7714 Y6.2574
G01 X0.8488 Y6.2171
G01 X0.8796 Y6.2015
G01 X0.9209 Y6.1818
G01 X0.9524 Y6.1675
G01 X0.9842 Y6.1539
G01 X1.0648 Y6.1205
G01 X1.0972 Y6.1076
G01 X1.1298 Y6.0953
G01 X1.1731 Y6.0799
G01 X1.2062 Y6.0691
G01 X1.2894 Y6.0429
G01 X1.3500 Y6.0251
G01 X1.4026 Y6.0115
G01 X1.4528 Y5.9994
G01 X1.4970 Y5.9893
G01 X32.1743 Y-0.5532
G01 X32.2082 Y-0.5600
G01 X32.2477 Y-0.5671
G01 X33.1080 Y-0.7117
G01 X33.1422 Y-0.7171
G01 X33.1765 Y-0.7217
G01 X33.2219 Y-0.7270
G01 X33.2564 Y-0.7301
G01 X34.1261 Y-0.7992
G01 X34.1749 Y-0.8023
G01 X34.2315 Y-0.8043
G01 X34.6177 Y-0.8109
G01 X92.5087 Y-0.8109
G01 X92.5434 Y-0.8105
G01 X92.5836 Y-0.8092
G01 X93.4552 Y-0.7711
G01 X93.4898 Y-0.7692
G01 X93.5353 Y-0.7656
G01 X93.5698 Y-0.7622
G01 X93.6042 Y-0.7581
G01 X94.4691 Y-0.6442
G01 X94.5172 Y-0.6371
G01 X94.5728 Y-0.6273
G01 X94.9221 Y-0.5593
G01 X94.9521 Y-0.5532
G01 X125.6294 Y5.9893
G01 X125.6633 Y5.9970
G01 X125.7024 Y6.0066
G01 X125.7868 Y6.0285
G01 X125.8202 Y6.0375
G01 X125.8533 Y6.0473
G01 X125.8968 Y6.0610
G01 X125.9295 Y6.0722
G01 X126.0118 Y6.1014
G01 X126.0443 Y6.1134
G01 X126.0766 Y6.1260
G01 X126.1188 Y6.1435
G01 X126.1505 Y6.1576
G01 X126.2298 Y6.1938
G01 X126.2611 Y6.2085
G01 X126.3020 Y6.2289
G01 X126.3327 Y6.2450
G01 X126.3630 Y6.2617
G01 X126.4389 Y6.3047
G01 X126.4689 Y6.3222
G01 X126.5079 Y6.3461
G01 X126.5372 Y6.3649
G01 X126.5660 Y6.3843
G01 X126.6379 Y6.4338
G01 X126.6662 Y6.4537
G01 X126.7030 Y6.4810
G01 X126.7304 Y6.5022
G01 X126.7574 Y6.5240
G01 X126.8246 Y6.5795
G01 X126.8510 Y6.6018
G01 X126.8769 Y6.6246
G01 X126.9105 Y6.6554
G01 X126.9353 Y6.6793
G01 X126.9975 Y6.7405
G01 X127.0220 Y6.7652
G01 X127.0460 Y6.7904
G01 X127.0770 Y6.8242
G01 X127.0998 Y6.8504
G01 X127.1564 Y6.9168
G01 X127.1785 Y6.9433
G01 X127.1999 Y6.9702
G01 X127.2276 Y7.0062
G01 X127.2479 Y7.0340
G01 X127.2985 Y7.1050
G01 X127.3182 Y7.1333
G01 X127.3372 Y7.1620
G01 X127.3617 Y7.2003
G01 X127.3795 Y7.2298
G01 X127.4238 Y7.3050
G01 X127.4412 Y7.3354
G01 X127.4580 Y7.3661
G01 X127.4793 Y7.4071
G01 X127.4947 Y7.4385
G01 X127.5322 Y7.5173
G01 X127.5467 Y7.5486
G01 X127.5605 Y7.5802
G01 X127.5779 Y7.6223
G01 X127.5903 Y7.6544
G01 X127.6208 Y7.7361
G01 X127.6327 Y7.7690
G01 X127.6438 Y7.8022
G01 X127.6577 Y7.8462
G01 X127.6673 Y7.8798
G01 X127.6905 Y7.9639
G01 X127.6992 Y7.9969
G01 X127.7072 Y8.0301
G01 X127.7170 Y8.0740
G01 X127.7236 Y8.1075
G01 X127.7395 Y8.1933
G01 X127.7454 Y8.2277
G01 X127.7522 Y8.2732
G01 X127.7567 Y8.3078
G01 X127.7604 Y8.3425
G01 X127.7687 Y8.4293
G01 X127.7730 Y8.4848
G01 X127.7759 Y8.5494
G01 X127.7772 Y8.6011
G01 X127.7778 Y8.6442
G01 X127.7778 Y16.8350
G01 X127.7774 Y16.8696
G01 X127.7761 Y16.9096
G01 X127.7723 Y16.9968
G01 X127.7704 Y17.0316
G01 X127.7668 Y17.0773
G01 X127.7634 Y17.1120
G01 X127.7592 Y17.1465
G01 X127.7478 Y17.2329
G01 X127.7429 Y17.2671
G01 X127.7373 Y17.3012
G01 X127.7290 Y17.3461
G01 X127.7219 Y17.3799
G01 X127.7030 Y17.4651
G01 X127.6952 Y17.4987
G01 X127.6838 Y17.5427
G01 X127.6745 Y17.5758
G01 X127.6645 Y17.6088
G01 X127.6383 Y17.6920
G01 X127.6275 Y17.7251
G01 X127.6121 Y17.7684
G01 X127.5998 Y17.8010
G01 X127.5869 Y17.8334
G01 X127.5535 Y17.9140
G01 X127.5399 Y17.9458
G01 X127.5256 Y17.9773
G01 X127.5059 Y18.0186
G01 X127.4903 Y18.0494
G01 X127.4500 Y18.1268
G01 X127.4338 Y18.1570
G01 X127.4170 Y18.1869
G01 X127.3941 Y18.2259
G01 X127.3760 Y18.2550
G01 X127.3292 Y18.3286
G01 X127.3099 Y18.3582
G01 X127.2900 Y18.3874
G01 X127.2629 Y18.4254
G01 X127.2417 Y18.4536
G01 X127.1885 Y18.5228
G01 X127.1674 Y18.5497
G01 X127.1456 Y18.5761
G01 X127.1163 Y18.6105
G01 X127.0935 Y18.6359
G01 X127.0346 Y18.7002
G01 X127.0108 Y18.7256
G01 X126.9787 Y18.7583
G01 X126.9538 Y18.7826
G01 X126.9284 Y18.8064
G01 X126.8641 Y18.8653
G01 X126.8387 Y18.8881
G01 X126.8043 Y18.9174
G01 X126.7779 Y18.9392
G01 X126.7510 Y18.9603
G01 X126.6818 Y19.0135
G01 X126.6536 Y19.0347
G01 X126.6156 Y19.0618
G01 X126.5864 Y19.0817
G01 X126.5568 Y19.1010
G01 X126.4832 Y19.1478
G01 X126.4541 Y19.1659
G01 X126.4246 Y19.1833
G01 X126.3852 Y19.2056
G01 X126.3550 Y19.2218
G01 X126.2776 Y19.2621
G01 X126.2468 Y19.2777
G01 X126.2055 Y19.2974
G01 X126.1740 Y19.3117
G01 X126.1422 Y19.3253
G01 X126.0616 Y19.3587
G01 X126.0292 Y19.3716
G01 X125.9966 Y19.3839
G01 X125.9533 Y19.3993
G01 X125.9202 Y19.4101
G01 X125.8370 Y19.4363
G01 X125.8040 Y19.4463
G01 X125.7709 Y19.4556
G01 X125.7269 Y19.4670
G01 X125.6933 Y19.4748
G01 X125.6081 Y19.4937
G01 X125.5743 Y19.5008
G01 X125.5294 Y19.5091
G01 X125.4953 Y19.5147
G01 X125.4611 Y19.5196
G01 X125.3747 Y19.5310
G01 X125.3402 Y19.5352
G01 X125.2945 Y19.5396
G01 X125.2598 Y19.5422
G01 X125.2250 Y19.5441
G01 X125.1378 Y19.5479
G01 X125.1033 Y19.5491
G01 X125.0632 Y19.5496
G01 X124.2632 Y19.5496
G01 X124.2286 Y19.5492
G01 X124.1886 Y19.5479
G01 X124.1014 Y19.5441
G01 X124.0666 Y19.5422
G01 X124.0209 Y19.5386
G01 X123.9862 Y19.5352
G01 X123.9517 Y19.5310
G01 X123.8653 Y19.5196
G01 X123.8311 Y19.5147
G01 X123.7861 Y19.5072
G01 X123.7521 Y19.5008
G01 X123.7183 Y19.4937
G01 X123.6331 Y19.4748
G01 X123.5995 Y19.4670
G01 X123.5555 Y19.4556
G01 X123.5224 Y19.4463
G01 X123.4894 Y19.4363
G01 X123.4062 Y19.4101
G01 X123.3731 Y19.3993
G01 X123.3298 Y19.3839
G01 X123.2972 Y19.3716
G01 X123.2648 Y19.3587
G01 X123.1842 Y19.3253
G01 X123.1524 Y19.3117
G01 X123.1108 Y19.2927
G01 X123.0796 Y19.2777
G01 X123.0488 Y19.2621
G01 X122.9714 Y19.2218
G01 X122.9412 Y19.2056
G01 X122.9113 Y19.1888
G01 X122.8723 Y19.1659
G01 X122.8432 Y19.1478
G01 X122.7696 Y19.1010
G01 X122.7400 Y19.0817
G01 X122.7108 Y19.0618
G01 X122.6728 Y19.0347
G01 X122.6446 Y19.0135
G01 X122.5754 Y18.9603
G01 X122.5485 Y18.9392
G01 X122.5221 Y18.9174
G01 X122.4877 Y18.8881
G01 X122.4623 Y18.8653
G01 X122.3980 Y18.8064
G01 X122.3726 Y18.7826
G01 X122.3399 Y18.7505
G01 X122.3156 Y18.7256
G01 X122.2918 Y18.7002
G01 X122.2329 Y18.6359
G01 X122.2101 Y18.6105
G01 X122.1878 Y18.5845
G01 X122.1590 Y18.5497
G01 X122.1379 Y18.5228
G01 X122.0847 Y18.4536
G01 X122.0635 Y18.4254
G01 X122.0429 Y18.3966
G01 X122.0165 Y18.3582
G01 X121.9972 Y18.3286
G01 X121.9504 Y18.2550
G01 X121.9323 Y18.2259
G01 X121.9149 Y18.1964
G01 X121.8926 Y18.1570
G01 X121.8764 Y18.1268
G01 X121.8361 Y18.0494
G01 X121.8205 Y18.0186
G01 X121.8008 Y17.9773
G01 X121.7865 Y17.9458
G01 X121.7729 Y17.9140
G01 X121.7395 Y17.8334
G01 X121.7266 Y17.8010
G01 X121.7105 Y17.7580
G01 X121.6989 Y17.7251
G01 X121.6881 Y17.6920
G01 X121.6619 Y17.6088
G01 X121.6519 Y17.5758
G01 X121.6426 Y17.5427
G01 X121.6312 Y17.4987
G01 X121.6234 Y17.4651
G01 X121.6045 Y17.3799
G01 X121.5974 Y17.3461
G01 X121.5910 Y17.3121
G01 X121.5835 Y17.2671
G01 X121.5786 Y17.2329
G01 X121.5672 Y17.1465
G01 X121.5630 Y17.1120
G01 X121.5586 Y17.0663
G01 X121.5560 Y17.0316
G01 X121.5541 Y16.9968
G01 X121.5503 Y16.9096
G01 X121.5490 Y16.8696
G01 X121.5486 Y16.8350
G01 X121.5486 Y12.7152
G01 X94.7695 Y7.0040
G01 X94.4461 Y7.1427
G01 X93.7024 Y7.5415
G01 X93.4102 Y7.7222
G01 X93.3788 Y7.7410
G01 X93.3368 Y7.7649
G01 X93.3046 Y7.7823
G01 X93.2720 Y7.7990
G01 X93.2390 Y7.8149
G01 X93.1949 Y7.8348
G01 X93.1612 Y7.8492
G01 X93.1272 Y7.8628
G01 X93.0929 Y7.8756
G01 X93.0472 Y7.8914
G01 X93.0124 Y7.9026
G01 X92.9773 Y7.9130
G01 X92.9419 Y7.9226
G01 X92.8950 Y7.9341
G01 X92.8592 Y7.9420
G01 X92.8233 Y7.9492
G01 X92.7872 Y7.9555
G01 X92.7510 Y7.9609
G01 X92.7031 Y7.9672
G01 X92.6667 Y7.9710
G01 X92.6302 Y7.9739
G01 X92.5819 Y7.9766
G01 X92.5453 Y7.9778
G01 X92.5087 Y7.9783
G01 X34.6177 Y7.9783
G01 X34.5758 Y7.9777
G01 X34.5339 Y7.9761
G01 X34.4788 Y7.9726
G01 X34.4370 Y7.9687
G01 X34.3954 Y7.9638
G01 X34.3407 Y7.9556
G01 X34.2995 Y7.9484
G01 X34.2584 Y7.9402
G01 X34.2175 Y7.9309
G01 X34.1770 Y7.9205
G01 X34.1237 Y7.9055
G01 X34.0837 Y7.8930
G01 X34.0441 Y7.8794
G01 X34.0048 Y7.8648
G01 X33.9535 Y7.8443
G01 X33.9150 Y7.8277
G01 X33.8770 Y7.8100
G01 X33.8395 Y7.7913
G01 X33.7906 Y7.7655
G01 X33.7541 Y7.7449
G01 X32.9797 Y7.2934
G01 X32.3631 Y7.0027
G01 X5.5778 Y12.7152
G01 X5.5778 Y16.8350
G01 X5.5774 Y16.8696
G01 X5.5761 Y16.9096
G01 X5.5723 Y16.9968
G01 X5.5704 Y17.0316
G01 X5.5668 Y17.0773
G01 X5.5634 Y17.1120
G01 X5.5592 Y17.1465
G01 X5.5478 Y17.2329
G01 X5.5429 Y17.2671
G01 X5.5373 Y17.3012
G01 X5.5290 Y17.3461
G01 X5.5219 Y17.3799
G01 X5.5030 Y17.4651
G01 X5.4952 Y17.4987
G01 X5.4866 Y17.5320
G01 X5.4745 Y17.5758
G01 X5.4645 Y17.6088
G01 X5.4383 Y17.6920
G01 X5.4275 Y17.7251
G01 X5.4121 Y17.7684
G01 X5.3998 Y17.8010
G01 X5.3869 Y17.8334
G01 X5.3535 Y17.9140
G01 X5.3399 Y17.9458
G01 X5.3209 Y17.9874
G01 X5.3059 Y18.0186
G01 X5.2903 Y18.0494
G01 X5.2500 Y18.1268
G01 X5.2338 Y18.1570
G01 X5.2170 Y18.1869
G01 X5.1941 Y18.2259
G01 X5.1760 Y18.2550
G01 X5.1292 Y18.3286
G01 X5.1099 Y18.3582
G01 X5.0900 Y18.3874
G01 X5.0629 Y18.4254
G01 X5.0417 Y18.4536
G01 X4.9885 Y18.5228
G01 X4.9674 Y18.5497
G01 X4.9456 Y18.5761
G01 X4.9163 Y18.6105
G01 X4.8935 Y18.6359
G01 X4.8346 Y18.7002
G01 X4.8108 Y18.7256
G01 X4.7865 Y18.7505
G01 X4.7538 Y18.7826
G01 X4.7284 Y18.8064
G01 X4.6641 Y18.8653
G01 X4.6387 Y18.8881
G01 X4.6127 Y18.9104
G01 X4.5779 Y18.9392
G01 X4.5510 Y18.9603
G01 X4.4818 Y19.0135
G01 X4.4536 Y19.0347
G01 X4.4248 Y19.0553
G01 X4.3864 Y19.0817
G01 X4.3568 Y19.1010
G01 X4.2832 Y19.1478
G01 X4.2541 Y19.1659
G01 X4.2246 Y19.1833
G01 X4.1852 Y19.2056
G01 X4.1550 Y19.2218
G01 X4.0776 Y19.2621
G01 X4.0468 Y19.2777
G01 X4.0156 Y19.2927
G01 X3.9740 Y19.3117
G01 X3.9422 Y19.3253
G01 X3.8616 Y19.3587
G01 X3.8292 Y19.3716
G01 X3.7966 Y19.3839
G01 X3.7533 Y19.3993
G01 X3.7202 Y19.4101
G01 X3.6370 Y19.4363
G01 X3.6040 Y19.4463
G01 X3.5709 Y19.4556
G01 X3.5269 Y19.4670
G01 X3.4933 Y19.4748
G01 X3.4081 Y19.4937
G01 X3.3743 Y19.5008
G01 X3.3294 Y19.5091
G01 X3.2953 Y19.5147
G01 X3.2611 Y19.5196
G01 X3.1747 Y19.5310
G01 X3.1402 Y19.5352
G01 X3.1055 Y19.5386
G01 X3.0598 Y19.5422
G01 X3.0250 Y19.5441
G01 X2.9378 Y19.5479
G01 X2.9033 Y19.5491
G01 X2.8632 Y19.5496
G01 X2.0632 Y19.5496
G01 X2.0286 Y19.5492
G01 X1.9886 Y19.5479
G01 X1.9014 Y19.5441
G01 X1.8666 Y19.5422
G01 X1.8319 Y19.5396
G01 X1.7862 Y19.5352
G01 X1.7517 Y19.5310
G01 X1.6653 Y19.5196
G01 X1.6311 Y19.5147
G01 X1.5970 Y19.5091
G01 X1.5521 Y19.5008
G01 X1.5183 Y19.4937
G01 X1.4331 Y19.4748
G01 X1.3995 Y19.4670
G01 X1.3662 Y19.4584
G01 X1.3224 Y19.4463
G01 X1.2894 Y19.4363
G01 X1.2062 Y19.4101
G01 X1.1731 Y19.3993
G01 X1.1402 Y19.3877
G01 X1.0972 Y19.3716
G01 X1.0648 Y19.3587
G01 X0.9842 Y19.3253
G01 X0.9524 Y19.3117
G01 X0.9209 Y19.2974
G01 X0.8796 Y19.2777
G01 X0.8488 Y19.2621
G01 X0.7714 Y19.2218
G01 X0.7412 Y19.2056
G01 X0.7113 Y19.1888
G01 X0.6723 Y19.1659
G01 X0.6432 Y19.1478
G01 X0.5696 Y19.1010
G01 X0.5400 Y19.0817
G01 X0.5016 Y19.0553
G01 X0.4728 Y19.0347
G01 X0.4446 Y19.0135
G01 X0.3754 Y18.9603
G01 X0.3485 Y18.9392
G01 X0.3137 Y18.9104
G01 X0.2877 Y18.8881
G01 X0.2623 Y18.8653
G01 X0.1980 Y18.8064
G01 X0.1726 Y18.7826
G01 X0.1477 Y18.7583
G01 X0.1156 Y18.7256
G01 X0.0918 Y18.7002
G01 X0.0329 Y18.6359
G01 X0.0101 Y18.6105
G01 X-0.0122 Y18.5845
G01 X-0.0410 Y18.5497
G01 X-0.0621 Y18.5228
G01 X-0.1153 Y18.4536
G01 X-0.1365 Y18.4254
G01 X-0.1571 Y18.3966
G01 X-0.1835 Y18.3582
G01 X-0.2028 Y18.3286
G01 X-0.2496 Y18.2550
G01 X-0.2677 Y18.2259
G01 X-0.2851 Y18.1964
G01 X-0.3074 Y18.1570
G01 X-0.3236 Y18.1268
G01 X-0.3639 Y18.0494
G01 X-0.3795 Y18.0186
G01 X-0.3945 Y17.9874
G01 X-0.4135 Y17.9458
G01 X-0.4271 Y17.9140
G01 X-0.4605 Y17.8334
G01 X-0.4734 Y17.8010
G01 X-0.4857 Y17.7684
G01 X-0.5011 Y17.7251
G01 X-0.5119 Y17.6920
G01 X-0.5381 Y17.6088
G01 X-0.5481 Y17.5758
G01 X-0.5602 Y17.5320
G01 X-0.5688 Y17.4987
G01 X-0.5766 Y17.4651
G01 X-0.5955 Y17.3799
G01 X-0.6026 Y17.3461
G01 X-0.6109 Y17.3012
G01 X-0.6165 Y17.2671
G01 X-0.6214 Y17.2329
G01 X-0.6328 Y17.1465
G01 X-0.6370 Y17.1120
G01 X-0.6414 Y17.0663
G01 X-0.6440 Y17.0316
G01 X-0.6459 Y16.9968
G01 X-0.6497 Y16.9096
G01 X-0.6509 Y16.8751
G01 X-0.6514 Y16.8350
G01 X-0.6514 Y8.6442
G01 X-0.6507 Y8.5997
G00 Z10.0000
M05
G00 Z10.0000
G00 Z15.00


