(G-CODE GENERATED BY FLATCAM v8.994 - www.flatcam.org - Version Date: 2020/11/7)

(Name: drill_1_16.xln_cnc)
(Type: G-code from Geometry)
(Units: MM)

(Created on Saturday, 04 March 2023 at 21:32)

(This preprocessor is the default preprocessor used by FlatCAM.)
(It is made to work with MACH3 compatible motion controllers.)


(TOOLS DIAMETER: )
(Tool: 1 -> Dia: 3.0)

(FEEDRATE Z: )
(Tool: 1 -> Feedrate: 20.0)

(FEEDRATE RAPIDS: )
(Tool: 1 -> Feedrate Rapids: 1500)

(Z_CUT: )
(Tool: 1 -> Z_Cut: -1.7)

(Tools Offset: )
(Tool: 1 -> Offset Z: 0.0)

(Z_MOVE: )
(Tool: 1 -> Z_Move: 5.0)

(Z Toolchange: 15 mm)
(X,Y Toolchange: 0.0000, 0.0000 mm)
(Z Start: None mm)
(Z End: 10.0 mm)
(X,Y End: None mm)
(Steps per circle: 64)
(Preprocessor Excellon: default)

(X range:    2.5000 ...  153.5000  mm)
(Y range:    2.0000 ...    5.0000  mm)

(Spindle Speed: 0 RPM)
G21
G90
G94

G01 F20.00

M5
G00 Z15.0000
T1
G00 X0.0000 Y0.0000                
M6
(MSG, Change to Tool Dia = 3.0000 ||| Total drills for tool T1 = 10)
M0
G00 Z15.0000

G01 F20.00
M03
G00 X152.0000 Y3.5000
G01 Z-1.7000
G01 Z0
G00 Z5.0000
G00 X148.0000 Y3.5000
G01 Z-1.7000
G01 Z0
G00 Z5.0000
G00 X144.0000 Y3.5000
G01 Z-1.7000
G01 Z0
G00 Z5.0000
G00 X140.0000 Y3.5000
G01 Z-1.7000
G01 Z0
G00 Z5.0000
G00 X136.0000 Y3.5000
G01 Z-1.7000
G01 Z0
G00 Z5.0000
G00 X20.0000 Y3.5000
G01 Z-1.7000
G01 Z0
G00 Z5.0000
G00 X16.0000 Y3.5000
G01 Z-1.7000
G01 Z0
G00 Z5.0000
G00 X12.0000 Y3.5000
G01 Z-1.7000
G01 Z0
G00 Z5.0000
G00 X8.0000 Y3.5000
G01 Z-1.7000
G01 Z0
G00 Z5.0000
G00 X4.0000 Y3.5000
G01 Z-1.7000
G01 Z0
G00 Z5.0000
M05
G00 Z10.00


