(G-CODE GENERATED BY FLATCAM v8.994 - www.flatcam.org - Version Date: 2020/11/7)

(Name: profile.gbr_edit_iso_combined_cnc)
(Type: G-code from Geometry)
(Units: MM)

(Created on Saturday, 04 March 2023 at 21:31)

(This preprocessor is the default preprocessor used by FlatCAM.)
(It is made to work with MACH3 compatible motion controllers.)

(TOOL DIAMETER: 3.0 mm)
(Feedrate_XY: 10.0 mm/min)
(Feedrate_Z: 20.0 mm/min)
(Feedrate rapids 1500.0 mm/min)

(Z_Cut: -1.8 mm)
(DepthPerCut: 0.8 mm <=>3 passes)
(Z_Move: 5.0 mm)
(Z Start: None mm)
(Z End: 15.0 mm)
(X,Y End: None mm)
(Steps per circle: 64)
(Preprocessor Geometry: default)

(X range:   -0.6271 ...  156.6271  mm)
(Y range:   -1.1438 ...    8.1383  mm)

(Spindle Speed: 0.0 RPM)
G21
G90
G94

G01 F10.00

M5
G00 Z15.0000
G00 X0.0000 Y0.0000
T2
M6    
(MSG, Change to Tool Dia = 3.0000)
M0
G00 Z15.0000

M03
G01 F10.00
G00 X-0.6269 Y2.9844
G01 F20.00
G01 Z-0.8000
G01 F10.00
G01 X-0.6260 Y2.9409
G01 X-0.6236 Y2.8946
G01 X-0.6192 Y2.8405
G01 X-0.6163 Y2.8134
G01 X-0.6124 Y2.7818
G01 X-0.5801 Y2.5431
G01 X-0.5753 Y2.5109
G01 X-0.5680 Y2.4679
G01 X-0.5619 Y2.4359
G01 X-0.5550 Y2.4040
G01 X-0.5021 Y2.1690
G01 X-0.4946 Y2.1371
G01 X-0.4835 Y2.0947
G01 X-0.4745 Y2.0632
G01 X-0.4649 Y2.0319
G01 X-0.3917 Y1.8024
G01 X-0.3814 Y1.7712
G01 X-0.3704 Y1.7403
G01 X-0.3549 Y1.6992
G01 X-0.3426 Y1.6688
G01 X-0.2496 Y1.4465
G01 X-0.2367 Y1.4166
G01 X-0.2184 Y1.3770
G01 X-0.2043 Y1.3476
G01 X-0.1894 Y1.3186
G01 X-0.0775 Y1.1053
G01 X-0.0620 Y1.0764
G01 X-0.0458 Y1.0479
G01 X-0.0234 Y1.0101
G01 X-0.0060 Y0.9823
G01 X0.1241 Y0.7796
G01 X0.1421 Y0.7523
G01 X0.1607 Y0.7253
G01 X0.1862 Y0.6897
G01 X0.2060 Y0.6636
G01 X0.3533 Y0.4730
G01 X0.3736 Y0.4473
G01 X0.4016 Y0.4136
G01 X0.4229 Y0.3889
G01 X0.4449 Y0.3646
G01 X0.6083 Y0.1875
G01 X0.6307 Y0.1637
G01 X0.6537 Y0.1404
G01 X0.6850 Y0.1098
G01 X0.7089 Y0.0875
G01 X0.8870 Y-0.0746
G01 X0.9115 Y-0.0963
G01 X0.9449 Y-0.1247
G01 X0.9702 Y-0.1453
G01 X0.9960 Y-0.1655
G01 X1.1876 Y-0.3115
G01 X1.2139 Y-0.3310
G01 X1.2406 Y-0.3500
G01 X1.2768 Y-0.3747
G01 X1.3042 Y-0.3925
G01 X1.5079 Y-0.5213
G01 X1.5358 Y-0.5385
G01 X1.5640 Y-0.5550
G01 X1.6021 Y-0.5765
G01 X1.6310 Y-0.5918
G01 X1.8450 Y-0.7023
G01 X1.8743 Y-0.7170
G01 X1.9140 Y-0.7358
G01 X1.9440 Y-0.7492
G01 X1.9742 Y-0.7620
G01 X2.1971 Y-0.8534
G01 X2.2274 Y-0.8655
G01 X2.2683 Y-0.8806
G01 X2.2991 Y-0.8913
G01 X2.3302 Y-0.9013
G01 X2.5602 Y-0.9730
G01 X2.5916 Y-0.9825
G01 X2.6232 Y-0.9912
G01 X2.6658 Y-1.0021
G01 X2.6978 Y-1.0094
G01 X2.9331 Y-1.0607
G01 X2.9652 Y-1.0673
G01 X2.9974 Y-1.0733
G01 X3.0406 Y-1.0804
G01 X3.0731 Y-1.0849
G01 X3.3121 Y-1.1155
G01 X3.3445 Y-1.1193
G01 X3.3880 Y-1.1233
G01 X3.4206 Y-1.1257
G01 X3.4532 Y-1.1273
G01 X3.6939 Y-1.1370
G01 X3.7266 Y-1.1380
G01 X3.7704 Y-1.1382
G01 X3.8031 Y-1.1377
G01 X3.8357 Y-1.1366
G01 X4.0382 Y-1.1271
G01 X152.9202 Y-1.1271
G01 X153.0267 Y-1.1372
G01 X153.0703 Y-1.1399
G01 X153.1029 Y-1.1413
G01 X153.1356 Y-1.1421
G01 X153.2898 Y-1.1438
G01 X153.3224 Y-1.1438
G01 X153.3550 Y-1.1431
G01 X153.3986 Y-1.1413
G01 X153.4311 Y-1.1392
G01 X153.5849 Y-1.1275
G01 X153.6177 Y-1.1246
G01 X153.6503 Y-1.1211
G01 X153.6939 Y-1.1154
G01 X153.7264 Y-1.1105
G01 X153.8785 Y-1.0854
G01 X153.9108 Y-1.0797
G01 X153.9429 Y-1.0733
G01 X153.9858 Y-1.0639
G01 X154.0176 Y-1.0561
G01 X154.1670 Y-1.0178
G01 X154.1987 Y-1.0093
G01 X154.2302 Y-1.0001
G01 X154.2721 Y-0.9870
G01 X154.3031 Y-0.9765
G01 X154.4486 Y-0.9253
G01 X154.4792 Y-0.9142
G01 X154.5094 Y-0.9024
G01 X154.5498 Y-0.8858
G01 X154.5795 Y-0.8728
G01 X154.7200 Y-0.8092
G01 X154.7496 Y-0.7954
G01 X154.7889 Y-0.7759
G01 X154.8180 Y-0.7607
G01 X154.8467 Y-0.7450
G01 X154.9811 Y-0.6694
G01 X155.0095 Y-0.6530
G01 X155.0471 Y-0.6301
G01 X155.0748 Y-0.6124
G01 X155.1022 Y-0.5941
G01 X155.2295 Y-0.5070
G01 X155.2562 Y-0.4883
G01 X155.2825 Y-0.4690
G01 X155.3173 Y-0.4425
G01 X155.3427 Y-0.4221
G01 X155.4619 Y-0.3243
G01 X155.4871 Y-0.3031
G01 X155.5202 Y-0.2740
G01 X155.5444 Y-0.2518
G01 X155.5682 Y-0.2290
G01 X155.6784 Y-0.1211
G01 X155.7014 Y-0.0981
G01 X155.7239 Y-0.0746
G01 X155.7534 Y-0.0425
G01 X155.7749 Y-0.0181
G01 X155.8753 Y0.0989
G01 X155.8962 Y0.1239
G01 X155.9166 Y0.1493
G01 X155.9432 Y0.1836
G01 X155.9625 Y0.2100
G01 X156.0524 Y0.3353
G01 X156.0712 Y0.3621
G01 X156.0956 Y0.3988
G01 X156.1133 Y0.4266
G01 X156.1303 Y0.4546
G01 X156.2089 Y0.5873
G01 X156.2254 Y0.6159
G01 X156.2464 Y0.6544
G01 X156.2615 Y0.6835
G01 X156.2761 Y0.7130
G01 X156.3428 Y0.8521
G01 X156.3566 Y0.8817
G01 X156.3698 Y0.9117
G01 X156.3866 Y0.9520
G01 X156.3985 Y0.9826
G01 X156.4528 Y1.1269
G01 X156.4640 Y1.1576
G01 X156.4744 Y1.1883
G01 X156.4876 Y1.2297
G01 X156.4967 Y1.2610
G01 X156.5383 Y1.4095
G01 X156.5469 Y1.4412
G01 X156.5573 Y1.4843
G01 X156.5644 Y1.5165
G01 X156.5708 Y1.5488
G01 X156.5992 Y1.7004
G01 X156.6053 Y1.7347
G01 X156.6104 Y1.7689
G01 X156.6165 Y1.8150
G01 X156.6201 Y1.8495
G01 X156.6229 Y1.8841
G01 X156.6255 Y1.9306
G01 X156.6267 Y1.9653
G01 X156.6271 Y2.0000
G01 X156.6270 Y4.0165
G01 X156.6255 Y4.0709
G01 X156.6160 Y4.2888
G01 X156.6142 Y4.3217
G01 X156.6117 Y4.3542
G01 X156.6076 Y4.3978
G01 X156.6036 Y4.4305
G01 X156.5751 Y4.6467
G01 X156.5705 Y4.6791
G01 X156.5632 Y4.7222
G01 X156.5572 Y4.7544
G01 X156.5505 Y4.7863
G01 X156.5033 Y4.9992
G01 X156.4959 Y5.0310
G01 X156.4849 Y5.0734
G01 X156.4761 Y5.1046
G01 X156.4666 Y5.1362
G01 X156.4010 Y5.3443
G01 X156.3907 Y5.3756
G01 X156.3800 Y5.4062
G01 X156.3647 Y5.4472
G01 X156.3525 Y5.4776
G01 X156.2691 Y5.6790
G01 X156.2562 Y5.7091
G01 X156.2427 Y5.7389
G01 X156.2239 Y5.7784
G01 X156.2091 Y5.8076
G01 X156.1084 Y6.0011
G01 X156.0930 Y6.0300
G01 X156.0768 Y6.0587
G01 X156.0545 Y6.0966
G01 X156.0372 Y6.1244
G01 X155.9200 Y6.3083
G01 X155.9021 Y6.3357
G01 X155.8837 Y6.3626
G01 X155.8584 Y6.3982
G01 X155.8388 Y6.4243
G01 X155.7060 Y6.5974
G01 X155.6859 Y6.6231
G01 X155.6651 Y6.6484
G01 X155.6367 Y6.6817
G01 X155.6149 Y6.7060
G01 X155.4676 Y6.8668
G01 X155.4452 Y6.8908
G01 X155.4222 Y6.9143
G01 X155.3909 Y6.9451
G01 X155.3668 Y6.9676
G01 X155.2060 Y7.1149
G01 X155.1817 Y7.1367
G01 X155.1569 Y7.1580
G01 X155.1231 Y7.1858
G01 X155.0974 Y7.2060
G01 X154.9243 Y7.3388
G01 X154.8982 Y7.3584
G01 X154.8626 Y7.3837
G01 X154.8357 Y7.4022
G01 X154.8083 Y7.4200
G01 X154.6244 Y7.5372
G01 X154.5966 Y7.5546
G01 X154.5587 Y7.5768
G01 X154.5301 Y7.5930
G01 X154.5011 Y7.6084
G01 X154.3076 Y7.7091
G01 X154.2784 Y7.7239
G01 X154.2389 Y7.7427
G01 X154.2091 Y7.7562
G01 X154.1790 Y7.7691
G01 X153.9776 Y7.8525
G01 X153.9472 Y7.8647
G01 X153.9062 Y7.8800
G01 X153.8754 Y7.8908
G01 X153.8443 Y7.9010
G01 X153.6362 Y7.9666
G01 X153.6049 Y7.9761
G01 X153.5734 Y7.9849
G01 X153.5310 Y7.9959
G01 X153.4992 Y8.0033
G01 X153.2863 Y8.0505
G01 X153.2543 Y8.0572
G01 X153.2222 Y8.0632
G01 X153.1791 Y8.0705
G01 X153.1467 Y8.0751
G01 X152.9305 Y8.1036
G01 X152.8980 Y8.1075
G01 X152.8542 Y8.1117
G01 X152.8215 Y8.1142
G01 X152.7888 Y8.1160
G01 X152.5709 Y8.1255
G01 X152.5382 Y8.1266
G01 X152.5000 Y8.1271
G01 X4.0382 Y8.1271
G01 X3.8357 Y8.1366
G01 X3.8031 Y8.1377
G01 X3.7593 Y8.1383
G01 X3.7266 Y8.1380
G01 X3.6939 Y8.1370
G01 X3.4532 Y8.1273
G01 X3.4206 Y8.1257
G01 X3.3880 Y8.1233
G01 X3.3445 Y8.1193
G01 X3.3121 Y8.1155
G01 X3.0731 Y8.0849
G01 X3.0406 Y8.0804
G01 X3.0083 Y8.0752
G01 X2.9652 Y8.0673
G01 X2.9331 Y8.0607
G01 X2.6978 Y8.0094
G01 X2.6658 Y8.0021
G01 X2.6232 Y7.9912
G01 X2.5916 Y7.9825
G01 X2.5602 Y7.9730
G01 X2.3302 Y7.9013
G01 X2.2991 Y7.8913
G01 X2.2683 Y7.8806
G01 X2.2274 Y7.8655
G01 X2.1971 Y7.8534
G01 X1.9742 Y7.7620
G01 X1.9440 Y7.7492
G01 X1.9040 Y7.7311
G01 X1.8743 Y7.7170
G01 X1.8450 Y7.7023
G01 X1.6310 Y7.5918
G01 X1.6021 Y7.5765
G01 X1.5640 Y7.5550
G01 X1.5358 Y7.5385
G01 X1.5079 Y7.5213
G01 X1.3042 Y7.3925
G01 X1.2768 Y7.3747
G01 X1.2497 Y7.3563
G01 X1.2139 Y7.3310
G01 X1.1876 Y7.3115
G01 X0.9960 Y7.1655
G01 X0.9702 Y7.1453
G01 X0.9449 Y7.1247
G01 X0.9115 Y7.0964
G01 X0.8870 Y7.0746
G01 X0.7089 Y6.9125
G01 X0.6850 Y6.8902
G01 X0.6537 Y6.8596
G01 X0.6307 Y6.8363
G01 X0.6083 Y6.8125
G01 X0.4449 Y6.6354
G01 X0.4229 Y6.6111
G01 X0.4016 Y6.5864
G01 X0.3736 Y6.5527
G01 X0.3533 Y6.5270
G01 X0.2060 Y6.3364
G01 X0.1862 Y6.3103
G01 X0.1607 Y6.2747
G01 X0.1421 Y6.2477
G01 X0.1241 Y6.2204
G01 X-0.0060 Y6.0177
G01 X-0.0234 Y5.9899
G01 X-0.0402 Y5.9617
G01 X-0.0620 Y5.9236
G01 X-0.0775 Y5.8947
G01 X-0.1894 Y5.6814
G01 X-0.2043 Y5.6524
G01 X-0.2231 Y5.6130
G01 X-0.2367 Y5.5834
G01 X-0.2496 Y5.5535
G01 X-0.3426 Y5.3312
G01 X-0.3549 Y5.3008
G01 X-0.3666 Y5.2701
G01 X-0.3814 Y5.2288
G01 X-0.3917 Y5.1976
G01 X-0.4649 Y4.9681
G01 X-0.4745 Y4.9368
G01 X-0.4864 Y4.8946
G01 X-0.4946 Y4.8629
G01 X-0.5021 Y4.8310
G01 X-0.5550 Y4.5960
G01 X-0.5619 Y4.5641
G01 X-0.5680 Y4.5321
G01 X-0.5753 Y4.4891
G01 X-0.5801 Y4.4569
G01 X-0.6124 Y4.2182
G01 X-0.6183 Y4.1681
G01 X-0.6225 Y4.1178
G01 X-0.6262 Y4.0504
G01 X-0.6271 Y4.0000
G01 X-0.6269 Y2.9844
G00 X-0.6269 Y2.9844
G01 F20.00
G01 Z-1.6000
G01 F10.00
G01 X-0.6260 Y2.9409
G01 X-0.6236 Y2.8946
G01 X-0.6192 Y2.8405
G01 X-0.6163 Y2.8134
G01 X-0.6124 Y2.7818
G01 X-0.5801 Y2.5431
G01 X-0.5753 Y2.5109
G01 X-0.5680 Y2.4679
G01 X-0.5619 Y2.4359
G01 X-0.5550 Y2.4040
G01 X-0.5021 Y2.1690
G01 X-0.4946 Y2.1371
G01 X-0.4835 Y2.0947
G01 X-0.4745 Y2.0632
G01 X-0.4649 Y2.0319
G01 X-0.3917 Y1.8024
G01 X-0.3814 Y1.7712
G01 X-0.3704 Y1.7403
G01 X-0.3549 Y1.6992
G01 X-0.3426 Y1.6688
G01 X-0.2496 Y1.4465
G01 X-0.2367 Y1.4166
G01 X-0.2184 Y1.3770
G01 X-0.2043 Y1.3476
G01 X-0.1894 Y1.3186
G01 X-0.0775 Y1.1053
G01 X-0.0620 Y1.0764
G01 X-0.0458 Y1.0479
G01 X-0.0234 Y1.0101
G01 X-0.0060 Y0.9823
G01 X0.1241 Y0.7796
G01 X0.1421 Y0.7523
G01 X0.1607 Y0.7253
G01 X0.1862 Y0.6897
G01 X0.2060 Y0.6636
G01 X0.3533 Y0.4730
G01 X0.3736 Y0.4473
G01 X0.4016 Y0.4136
G01 X0.4229 Y0.3889
G01 X0.4449 Y0.3646
G01 X0.6083 Y0.1875
G01 X0.6307 Y0.1637
G01 X0.6537 Y0.1404
G01 X0.6850 Y0.1098
G01 X0.7089 Y0.0875
G01 X0.8870 Y-0.0746
G01 X0.9115 Y-0.0963
G01 X0.9449 Y-0.1247
G01 X0.9702 Y-0.1453
G01 X0.9960 Y-0.1655
G01 X1.1876 Y-0.3115
G01 X1.2139 Y-0.3310
G01 X1.2406 Y-0.3500
G01 X1.2768 Y-0.3747
G01 X1.3042 Y-0.3925
G01 X1.5079 Y-0.5213
G01 X1.5358 Y-0.5385
G01 X1.5640 Y-0.5550
G01 X1.6021 Y-0.5765
G01 X1.6310 Y-0.5918
G01 X1.8450 Y-0.7023
G01 X1.8743 Y-0.7170
G01 X1.9140 Y-0.7358
G01 X1.9440 Y-0.7492
G01 X1.9742 Y-0.7620
G01 X2.1971 Y-0.8534
G01 X2.2274 Y-0.8655
G01 X2.2683 Y-0.8806
G01 X2.2991 Y-0.8913
G01 X2.3302 Y-0.9013
G01 X2.5602 Y-0.9730
G01 X2.5916 Y-0.9825
G01 X2.6232 Y-0.9912
G01 X2.6658 Y-1.0021
G01 X2.6978 Y-1.0094
G01 X2.9331 Y-1.0607
G01 X2.9652 Y-1.0673
G01 X2.9974 Y-1.0733
G01 X3.0406 Y-1.0804
G01 X3.0731 Y-1.0849
G01 X3.3121 Y-1.1155
G01 X3.3445 Y-1.1193
G01 X3.3880 Y-1.1233
G01 X3.4206 Y-1.1257
G01 X3.4532 Y-1.1273
G01 X3.6939 Y-1.1370
G01 X3.7266 Y-1.1380
G01 X3.7704 Y-1.1382
G01 X3.8031 Y-1.1377
G01 X3.8357 Y-1.1366
G01 X4.0382 Y-1.1271
G01 X152.9202 Y-1.1271
G01 X153.0267 Y-1.1372
G01 X153.0703 Y-1.1399
G01 X153.1029 Y-1.1413
G01 X153.1356 Y-1.1421
G01 X153.2898 Y-1.1438
G01 X153.3224 Y-1.1438
G01 X153.3550 Y-1.1431
G01 X153.3986 Y-1.1413
G01 X153.4311 Y-1.1392
G01 X153.5849 Y-1.1275
G01 X153.6177 Y-1.1246
G01 X153.6503 Y-1.1211
G01 X153.6939 Y-1.1154
G01 X153.7264 Y-1.1105
G01 X153.8785 Y-1.0854
G01 X153.9108 Y-1.0797
G01 X153.9429 Y-1.0733
G01 X153.9858 Y-1.0639
G01 X154.0176 Y-1.0561
G01 X154.1670 Y-1.0178
G01 X154.1987 Y-1.0093
G01 X154.2302 Y-1.0001
G01 X154.2721 Y-0.9870
G01 X154.3031 Y-0.9765
G01 X154.4486 Y-0.9253
G01 X154.4792 Y-0.9142
G01 X154.5094 Y-0.9024
G01 X154.5498 Y-0.8858
G01 X154.5795 Y-0.8728
G01 X154.7200 Y-0.8092
G01 X154.7496 Y-0.7954
G01 X154.7889 Y-0.7759
G01 X154.8180 Y-0.7607
G01 X154.8467 Y-0.7450
G01 X154.9811 Y-0.6694
G01 X155.0095 Y-0.6530
G01 X155.0471 Y-0.6301
G01 X155.0748 Y-0.6124
G01 X155.1022 Y-0.5941
G01 X155.2295 Y-0.5070
G01 X155.2562 Y-0.4883
G01 X155.2825 Y-0.4690
G01 X155.3173 Y-0.4425
G01 X155.3427 Y-0.4221
G01 X155.4619 Y-0.3243
G01 X155.4871 Y-0.3031
G01 X155.5202 Y-0.2740
G01 X155.5444 Y-0.2518
G01 X155.5682 Y-0.2290
G01 X155.6784 Y-0.1211
G01 X155.7014 Y-0.0981
G01 X155.7239 Y-0.0746
G01 X155.7534 Y-0.0425
G01 X155.7749 Y-0.0181
G01 X155.8753 Y0.0989
G01 X155.8962 Y0.1239
G01 X155.9166 Y0.1493
G01 X155.9432 Y0.1836
G01 X155.9625 Y0.2100
G01 X156.0524 Y0.3353
G01 X156.0712 Y0.3621
G01 X156.0956 Y0.3988
G01 X156.1133 Y0.4266
G01 X156.1303 Y0.4546
G01 X156.2089 Y0.5873
G01 X156.2254 Y0.6159
G01 X156.2464 Y0.6544
G01 X156.2615 Y0.6835
G01 X156.2761 Y0.7130
G01 X156.3428 Y0.8521
G01 X156.3566 Y0.8817
G01 X156.3698 Y0.9117
G01 X156.3866 Y0.9520
G01 X156.3985 Y0.9826
G01 X156.4528 Y1.1269
G01 X156.4640 Y1.1576
G01 X156.4744 Y1.1883
G01 X156.4876 Y1.2297
G01 X156.4967 Y1.2610
G01 X156.5383 Y1.4095
G01 X156.5469 Y1.4412
G01 X156.5573 Y1.4843
G01 X156.5644 Y1.5165
G01 X156.5708 Y1.5488
G01 X156.5992 Y1.7004
G01 X156.6053 Y1.7347
G01 X156.6104 Y1.7689
G01 X156.6165 Y1.8150
G01 X156.6201 Y1.8495
G01 X156.6229 Y1.8841
G01 X156.6255 Y1.9306
G01 X156.6267 Y1.9653
G01 X156.6271 Y2.0000
G01 X156.6270 Y4.0165
G01 X156.6255 Y4.0709
G01 X156.6160 Y4.2888
G01 X156.6142 Y4.3217
G01 X156.6117 Y4.3542
G01 X156.6076 Y4.3978
G01 X156.6036 Y4.4305
G01 X156.5751 Y4.6467
G01 X156.5705 Y4.6791
G01 X156.5632 Y4.7222
G01 X156.5572 Y4.7544
G01 X156.5505 Y4.7863
G01 X156.5033 Y4.9992
G01 X156.4959 Y5.0310
G01 X156.4849 Y5.0734
G01 X156.4761 Y5.1046
G01 X156.4666 Y5.1362
G01 X156.4010 Y5.3443
G01 X156.3907 Y5.3756
G01 X156.3800 Y5.4062
G01 X156.3647 Y5.4472
G01 X156.3525 Y5.4776
G01 X156.2691 Y5.6790
G01 X156.2562 Y5.7091
G01 X156.2427 Y5.7389
G01 X156.2239 Y5.7784
G01 X156.2091 Y5.8076
G01 X156.1084 Y6.0011
G01 X156.0930 Y6.0300
G01 X156.0768 Y6.0587
G01 X156.0545 Y6.0966
G01 X156.0372 Y6.1244
G01 X155.9200 Y6.3083
G01 X155.9021 Y6.3357
G01 X155.8837 Y6.3626
G01 X155.8584 Y6.3982
G01 X155.8388 Y6.4243
G01 X155.7060 Y6.5974
G01 X155.6859 Y6.6231
G01 X155.6651 Y6.6484
G01 X155.6367 Y6.6817
G01 X155.6149 Y6.7060
G01 X155.4676 Y6.8668
G01 X155.4452 Y6.8908
G01 X155.4222 Y6.9143
G01 X155.3909 Y6.9451
G01 X155.3668 Y6.9676
G01 X155.2060 Y7.1149
G01 X155.1817 Y7.1367
G01 X155.1569 Y7.1580
G01 X155.1231 Y7.1858
G01 X155.0974 Y7.2060
G01 X154.9243 Y7.3388
G01 X154.8982 Y7.3584
G01 X154.8626 Y7.3837
G01 X154.8357 Y7.4022
G01 X154.8083 Y7.4200
G01 X154.6244 Y7.5372
G01 X154.5966 Y7.5546
G01 X154.5587 Y7.5768
G01 X154.5301 Y7.5930
G01 X154.5011 Y7.6084
G01 X154.3076 Y7.7091
G01 X154.2784 Y7.7239
G01 X154.2389 Y7.7427
G01 X154.2091 Y7.7562
G01 X154.1790 Y7.7691
G01 X153.9776 Y7.8525
G01 X153.9472 Y7.8647
G01 X153.9062 Y7.8800
G01 X153.8754 Y7.8908
G01 X153.8443 Y7.9010
G01 X153.6362 Y7.9666
G01 X153.6049 Y7.9761
G01 X153.5734 Y7.9849
G01 X153.5310 Y7.9959
G01 X153.4992 Y8.0033
G01 X153.2863 Y8.0505
G01 X153.2543 Y8.0572
G01 X153.2222 Y8.0632
G01 X153.1791 Y8.0705
G01 X153.1467 Y8.0751
G01 X152.9305 Y8.1036
G01 X152.8980 Y8.1075
G01 X152.8542 Y8.1117
G01 X152.8215 Y8.1142
G01 X152.7888 Y8.1160
G01 X152.5709 Y8.1255
G01 X152.5382 Y8.1266
G01 X152.5000 Y8.1271
G01 X4.0382 Y8.1271
G01 X3.8357 Y8.1366
G01 X3.8031 Y8.1377
G01 X3.7593 Y8.1383
G01 X3.7266 Y8.1380
G01 X3.6939 Y8.1370
G01 X3.4532 Y8.1273
G01 X3.4206 Y8.1257
G01 X3.3880 Y8.1233
G01 X3.3445 Y8.1193
G01 X3.3121 Y8.1155
G01 X3.0731 Y8.0849
G01 X3.0406 Y8.0804
G01 X3.0083 Y8.0752
G01 X2.9652 Y8.0673
G01 X2.9331 Y8.0607
G01 X2.6978 Y8.0094
G01 X2.6658 Y8.0021
G01 X2.6232 Y7.9912
G01 X2.5916 Y7.9825
G01 X2.5602 Y7.9730
G01 X2.3302 Y7.9013
G01 X2.2991 Y7.8913
G01 X2.2683 Y7.8806
G01 X2.2274 Y7.8655
G01 X2.1971 Y7.8534
G01 X1.9742 Y7.7620
G01 X1.9440 Y7.7492
G01 X1.9040 Y7.7311
G01 X1.8743 Y7.7170
G01 X1.8450 Y7.7023
G01 X1.6310 Y7.5918
G01 X1.6021 Y7.5765
G01 X1.5640 Y7.5550
G01 X1.5358 Y7.5385
G01 X1.5079 Y7.5213
G01 X1.3042 Y7.3925
G01 X1.2768 Y7.3747
G01 X1.2497 Y7.3563
G01 X1.2139 Y7.3310
G01 X1.1876 Y7.3115
G01 X0.9960 Y7.1655
G01 X0.9702 Y7.1453
G01 X0.9449 Y7.1247
G01 X0.9115 Y7.0964
G01 X0.8870 Y7.0746
G01 X0.7089 Y6.9125
G01 X0.6850 Y6.8902
G01 X0.6537 Y6.8596
G01 X0.6307 Y6.8363
G01 X0.6083 Y6.8125
G01 X0.4449 Y6.6354
G01 X0.4229 Y6.6111
G01 X0.4016 Y6.5864
G01 X0.3736 Y6.5527
G01 X0.3533 Y6.5270
G01 X0.2060 Y6.3364
G01 X0.1862 Y6.3103
G01 X0.1607 Y6.2747
G01 X0.1421 Y6.2477
G01 X0.1241 Y6.2204
G01 X-0.0060 Y6.0177
G01 X-0.0234 Y5.9899
G01 X-0.0402 Y5.9617
G01 X-0.0620 Y5.9236
G01 X-0.0775 Y5.8947
G01 X-0.1894 Y5.6814
G01 X-0.2043 Y5.6524
G01 X-0.2231 Y5.6130
G01 X-0.2367 Y5.5834
G01 X-0.2496 Y5.5535
G01 X-0.3426 Y5.3312
G01 X-0.3549 Y5.3008
G01 X-0.3666 Y5.2701
G01 X-0.3814 Y5.2288
G01 X-0.3917 Y5.1976
G01 X-0.4649 Y4.9681
G01 X-0.4745 Y4.9368
G01 X-0.4864 Y4.8946
G01 X-0.4946 Y4.8629
G01 X-0.5021 Y4.8310
G01 X-0.5550 Y4.5960
G01 X-0.5619 Y4.5641
G01 X-0.5680 Y4.5321
G01 X-0.5753 Y4.4891
G01 X-0.5801 Y4.4569
G01 X-0.6124 Y4.2182
G01 X-0.6183 Y4.1681
G01 X-0.6225 Y4.1178
G01 X-0.6262 Y4.0504
G01 X-0.6271 Y4.0000
G01 X-0.6269 Y2.9844
G00 X-0.6269 Y2.9844
G01 F20.00
G01 Z-1.8000
G01 F10.00
G01 X-0.6260 Y2.9409
G01 X-0.6236 Y2.8946
G01 X-0.6192 Y2.8405
G01 X-0.6163 Y2.8134
G01 X-0.6124 Y2.7818
G01 X-0.5801 Y2.5431
G01 X-0.5753 Y2.5109
G01 X-0.5680 Y2.4679
G01 X-0.5619 Y2.4359
G01 X-0.5550 Y2.4040
G01 X-0.5021 Y2.1690
G01 X-0.4946 Y2.1371
G01 X-0.4835 Y2.0947
G01 X-0.4745 Y2.0632
G01 X-0.4649 Y2.0319
G01 X-0.3917 Y1.8024
G01 X-0.3814 Y1.7712
G01 X-0.3704 Y1.7403
G01 X-0.3549 Y1.6992
G01 X-0.3426 Y1.6688
G01 X-0.2496 Y1.4465
G01 X-0.2367 Y1.4166
G01 X-0.2184 Y1.3770
G01 X-0.2043 Y1.3476
G01 X-0.1894 Y1.3186
G01 X-0.0775 Y1.1053
G01 X-0.0620 Y1.0764
G01 X-0.0458 Y1.0479
G01 X-0.0234 Y1.0101
G01 X-0.0060 Y0.9823
G01 X0.1241 Y0.7796
G01 X0.1421 Y0.7523
G01 X0.1607 Y0.7253
G01 X0.1862 Y0.6897
G01 X0.2060 Y0.6636
G01 X0.3533 Y0.4730
G01 X0.3736 Y0.4473
G01 X0.4016 Y0.4136
G01 X0.4229 Y0.3889
G01 X0.4449 Y0.3646
G01 X0.6083 Y0.1875
G01 X0.6307 Y0.1637
G01 X0.6537 Y0.1404
G01 X0.6850 Y0.1098
G01 X0.7089 Y0.0875
G01 X0.8870 Y-0.0746
G01 X0.9115 Y-0.0963
G01 X0.9449 Y-0.1247
G01 X0.9702 Y-0.1453
G01 X0.9960 Y-0.1655
G01 X1.1876 Y-0.3115
G01 X1.2139 Y-0.3310
G01 X1.2406 Y-0.3500
G01 X1.2768 Y-0.3747
G01 X1.3042 Y-0.3925
G01 X1.5079 Y-0.5213
G01 X1.5358 Y-0.5385
G01 X1.5640 Y-0.5550
G01 X1.6021 Y-0.5765
G01 X1.6310 Y-0.5918
G01 X1.8450 Y-0.7023
G01 X1.8743 Y-0.7170
G01 X1.9140 Y-0.7358
G01 X1.9440 Y-0.7492
G01 X1.9742 Y-0.7620
G01 X2.1971 Y-0.8534
G01 X2.2274 Y-0.8655
G01 X2.2683 Y-0.8806
G01 X2.2991 Y-0.8913
G01 X2.3302 Y-0.9013
G01 X2.5602 Y-0.9730
G01 X2.5916 Y-0.9825
G01 X2.6232 Y-0.9912
G01 X2.6658 Y-1.0021
G01 X2.6978 Y-1.0094
G01 X2.9331 Y-1.0607
G01 X2.9652 Y-1.0673
G01 X2.9974 Y-1.0733
G01 X3.0406 Y-1.0804
G01 X3.0731 Y-1.0849
G01 X3.3121 Y-1.1155
G01 X3.3445 Y-1.1193
G01 X3.3880 Y-1.1233
G01 X3.4206 Y-1.1257
G01 X3.4532 Y-1.1273
G01 X3.6939 Y-1.1370
G01 X3.7266 Y-1.1380
G01 X3.7704 Y-1.1382
G01 X3.8031 Y-1.1377
G01 X3.8357 Y-1.1366
G01 X4.0382 Y-1.1271
G01 X152.9202 Y-1.1271
G01 X153.0267 Y-1.1372
G01 X153.0703 Y-1.1399
G01 X153.1029 Y-1.1413
G01 X153.1356 Y-1.1421
G01 X153.2898 Y-1.1438
G01 X153.3224 Y-1.1438
G01 X153.3550 Y-1.1431
G01 X153.3986 Y-1.1413
G01 X153.4311 Y-1.1392
G01 X153.5849 Y-1.1275
G01 X153.6177 Y-1.1246
G01 X153.6503 Y-1.1211
G01 X153.6939 Y-1.1154
G01 X153.7264 Y-1.1105
G01 X153.8785 Y-1.0854
G01 X153.9108 Y-1.0797
G01 X153.9429 Y-1.0733
G01 X153.9858 Y-1.0639
G01 X154.0176 Y-1.0561
G01 X154.1670 Y-1.0178
G01 X154.1987 Y-1.0093
G01 X154.2302 Y-1.0001
G01 X154.2721 Y-0.9870
G01 X154.3031 Y-0.9765
G01 X154.4486 Y-0.9253
G01 X154.4792 Y-0.9142
G01 X154.5094 Y-0.9024
G01 X154.5498 Y-0.8858
G01 X154.5795 Y-0.8728
G01 X154.7200 Y-0.8092
G01 X154.7496 Y-0.7954
G01 X154.7889 Y-0.7759
G01 X154.8180 Y-0.7607
G01 X154.8467 Y-0.7450
G01 X154.9811 Y-0.6694
G01 X155.0095 Y-0.6530
G01 X155.0471 Y-0.6301
G01 X155.0748 Y-0.6124
G01 X155.1022 Y-0.5941
G01 X155.2295 Y-0.5070
G01 X155.2562 Y-0.4883
G01 X155.2825 Y-0.4690
G01 X155.3173 Y-0.4425
G01 X155.3427 Y-0.4221
G01 X155.4619 Y-0.3243
G01 X155.4871 Y-0.3031
G01 X155.5202 Y-0.2740
G01 X155.5444 Y-0.2518
G01 X155.5682 Y-0.2290
G01 X155.6784 Y-0.1211
G01 X155.7014 Y-0.0981
G01 X155.7239 Y-0.0746
G01 X155.7534 Y-0.0425
G01 X155.7749 Y-0.0181
G01 X155.8753 Y0.0989
G01 X155.8962 Y0.1239
G01 X155.9166 Y0.1493
G01 X155.9432 Y0.1836
G01 X155.9625 Y0.2100
G01 X156.0524 Y0.3353
G01 X156.0712 Y0.3621
G01 X156.0956 Y0.3988
G01 X156.1133 Y0.4266
G01 X156.1303 Y0.4546
G01 X156.2089 Y0.5873
G01 X156.2254 Y0.6159
G01 X156.2464 Y0.6544
G01 X156.2615 Y0.6835
G01 X156.2761 Y0.7130
G01 X156.3428 Y0.8521
G01 X156.3566 Y0.8817
G01 X156.3698 Y0.9117
G01 X156.3866 Y0.9520
G01 X156.3985 Y0.9826
G01 X156.4528 Y1.1269
G01 X156.4640 Y1.1576
G01 X156.4744 Y1.1883
G01 X156.4876 Y1.2297
G01 X156.4967 Y1.2610
G01 X156.5383 Y1.4095
G01 X156.5469 Y1.4412
G01 X156.5573 Y1.4843
G01 X156.5644 Y1.5165
G01 X156.5708 Y1.5488
G01 X156.5992 Y1.7004
G01 X156.6053 Y1.7347
G01 X156.6104 Y1.7689
G01 X156.6165 Y1.8150
G01 X156.6201 Y1.8495
G01 X156.6229 Y1.8841
G01 X156.6255 Y1.9306
G01 X156.6267 Y1.9653
G01 X156.6271 Y2.0000
G01 X156.6270 Y4.0165
G01 X156.6255 Y4.0709
G01 X156.6160 Y4.2888
G01 X156.6142 Y4.3217
G01 X156.6117 Y4.3542
G01 X156.6076 Y4.3978
G01 X156.6036 Y4.4305
G01 X156.5751 Y4.6467
G01 X156.5705 Y4.6791
G01 X156.5632 Y4.7222
G01 X156.5572 Y4.7544
G01 X156.5505 Y4.7863
G01 X156.5033 Y4.9992
G01 X156.4959 Y5.0310
G01 X156.4849 Y5.0734
G01 X156.4761 Y5.1046
G01 X156.4666 Y5.1362
G01 X156.4010 Y5.3443
G01 X156.3907 Y5.3756
G01 X156.3800 Y5.4062
G01 X156.3647 Y5.4472
G01 X156.3525 Y5.4776
G01 X156.2691 Y5.6790
G01 X156.2562 Y5.7091
G01 X156.2427 Y5.7389
G01 X156.2239 Y5.7784
G01 X156.2091 Y5.8076
G01 X156.1084 Y6.0011
G01 X156.0930 Y6.0300
G01 X156.0768 Y6.0587
G01 X156.0545 Y6.0966
G01 X156.0372 Y6.1244
G01 X155.9200 Y6.3083
G01 X155.9021 Y6.3357
G01 X155.8837 Y6.3626
G01 X155.8584 Y6.3982
G01 X155.8388 Y6.4243
G01 X155.7060 Y6.5974
G01 X155.6859 Y6.6231
G01 X155.6651 Y6.6484
G01 X155.6367 Y6.6817
G01 X155.6149 Y6.7060
G01 X155.4676 Y6.8668
G01 X155.4452 Y6.8908
G01 X155.4222 Y6.9143
G01 X155.3909 Y6.9451
G01 X155.3668 Y6.9676
G01 X155.2060 Y7.1149
G01 X155.1817 Y7.1367
G01 X155.1569 Y7.1580
G01 X155.1231 Y7.1858
G01 X155.0974 Y7.2060
G01 X154.9243 Y7.3388
G01 X154.8982 Y7.3584
G01 X154.8626 Y7.3837
G01 X154.8357 Y7.4022
G01 X154.8083 Y7.4200
G01 X154.6244 Y7.5372
G01 X154.5966 Y7.5546
G01 X154.5587 Y7.5768
G01 X154.5301 Y7.5930
G01 X154.5011 Y7.6084
G01 X154.3076 Y7.7091
G01 X154.2784 Y7.7239
G01 X154.2389 Y7.7427
G01 X154.2091 Y7.7562
G01 X154.1790 Y7.7691
G01 X153.9776 Y7.8525
G01 X153.9472 Y7.8647
G01 X153.9062 Y7.8800
G01 X153.8754 Y7.8908
G01 X153.8443 Y7.9010
G01 X153.6362 Y7.9666
G01 X153.6049 Y7.9761
G01 X153.5734 Y7.9849
G01 X153.5310 Y7.9959
G01 X153.4992 Y8.0033
G01 X153.2863 Y8.0505
G01 X153.2543 Y8.0572
G01 X153.2222 Y8.0632
G01 X153.1791 Y8.0705
G01 X153.1467 Y8.0751
G01 X152.9305 Y8.1036
G01 X152.8980 Y8.1075
G01 X152.8542 Y8.1117
G01 X152.8215 Y8.1142
G01 X152.7888 Y8.1160
G01 X152.5709 Y8.1255
G01 X152.5382 Y8.1266
G01 X152.5000 Y8.1271
G01 X4.0382 Y8.1271
G01 X3.8357 Y8.1366
G01 X3.8031 Y8.1377
G01 X3.7593 Y8.1383
G01 X3.7266 Y8.1380
G01 X3.6939 Y8.1370
G01 X3.4532 Y8.1273
G01 X3.4206 Y8.1257
G01 X3.3880 Y8.1233
G01 X3.3445 Y8.1193
G01 X3.3121 Y8.1155
G01 X3.0731 Y8.0849
G01 X3.0406 Y8.0804
G01 X3.0083 Y8.0752
G01 X2.9652 Y8.0673
G01 X2.9331 Y8.0607
G01 X2.6978 Y8.0094
G01 X2.6658 Y8.0021
G01 X2.6232 Y7.9912
G01 X2.5916 Y7.9825
G01 X2.5602 Y7.9730
G01 X2.3302 Y7.9013
G01 X2.2991 Y7.8913
G01 X2.2683 Y7.8806
G01 X2.2274 Y7.8655
G01 X2.1971 Y7.8534
G01 X1.9742 Y7.7620
G01 X1.9440 Y7.7492
G01 X1.9040 Y7.7311
G01 X1.8743 Y7.7170
G01 X1.8450 Y7.7023
G01 X1.6310 Y7.5918
G01 X1.6021 Y7.5765
G01 X1.5640 Y7.5550
G01 X1.5358 Y7.5385
G01 X1.5079 Y7.5213
G01 X1.3042 Y7.3925
G01 X1.2768 Y7.3747
G01 X1.2497 Y7.3563
G01 X1.2139 Y7.3310
G01 X1.1876 Y7.3115
G01 X0.9960 Y7.1655
G01 X0.9702 Y7.1453
G01 X0.9449 Y7.1247
G01 X0.9115 Y7.0964
G01 X0.8870 Y7.0746
G01 X0.7089 Y6.9125
G01 X0.6850 Y6.8902
G01 X0.6537 Y6.8596
G01 X0.6307 Y6.8363
G01 X0.6083 Y6.8125
G01 X0.4449 Y6.6354
G01 X0.4229 Y6.6111
G01 X0.4016 Y6.5864
G01 X0.3736 Y6.5527
G01 X0.3533 Y6.5270
G01 X0.2060 Y6.3364
G01 X0.1862 Y6.3103
G01 X0.1607 Y6.2747
G01 X0.1421 Y6.2477
G01 X0.1241 Y6.2204
G01 X-0.0060 Y6.0177
G01 X-0.0234 Y5.9899
G01 X-0.0402 Y5.9617
G01 X-0.0620 Y5.9236
G01 X-0.0775 Y5.8947
G01 X-0.1894 Y5.6814
G01 X-0.2043 Y5.6524
G01 X-0.2231 Y5.6130
G01 X-0.2367 Y5.5834
G01 X-0.2496 Y5.5535
G01 X-0.3426 Y5.3312
G01 X-0.3549 Y5.3008
G01 X-0.3666 Y5.2701
G01 X-0.3814 Y5.2288
G01 X-0.3917 Y5.1976
G01 X-0.4649 Y4.9681
G01 X-0.4745 Y4.9368
G01 X-0.4864 Y4.8946
G01 X-0.4946 Y4.8629
G01 X-0.5021 Y4.8310
G01 X-0.5550 Y4.5960
G01 X-0.5619 Y4.5641
G01 X-0.5680 Y4.5321
G01 X-0.5753 Y4.4891
G01 X-0.5801 Y4.4569
G01 X-0.6124 Y4.2182
G01 X-0.6183 Y4.1681
G01 X-0.6225 Y4.1178
G01 X-0.6262 Y4.0504
G01 X-0.6271 Y4.0000
G01 X-0.6269 Y2.9844
G00 Z5.0000
M05
G00 Z5.0000
G00 Z15.00


